;FLAVOR:Marlin
;TIME:3728
;Filament used: 1.4051m
;Layer height: 0.16
;MINX:87
;MINY:85
;MINZ:0.2
;MAXX:133
;MAXY:135
;MAXZ:8.96
;Generated with Cura_SteamEngine 4.12.1
M140 S60
M105
M190 S60
M104 S190
M105
M109 S190
M82 ;absolute extrusion mode
; Ender 3 Custom Start G-code
G92 E0 ; Reset Extruder
G28 ; Home all axes
G1 Z2.0 F3000 ; Move Z Axis up little to prevent scratching of Heat Bed
G1 X0.1 Y20 Z0.3 F5000.0 ; Move to start position
G1 X0.1 Y200.0 Z0.3 F1500.0 E15 ; Draw the first line
G1 X0.4 Y200.0 Z0.3 F5000.0 ; Move to side a little
G1 X0.4 Y20 Z0.3 F1500.0 E30 ; Draw the second line
G92 E0 ; Reset Extruder
G1 Z2.0 F3000 ; Move Z Axis up little to prevent scratching of Heat Bed
G1 X5 Y20 Z0.3 F5000.0 ; Move over to prevent blob squish
G92 E0
G92 E0
G1 F1500 E-6.5
;LAYER_COUNT:52
;LAYER:0
M107
G0 F6000 X90.198 Y88.264 Z0.2
;TYPE:SKIRT
G1 F1500 E0
G1 F1200 X90.886 Y87.627 E0.03119
G1 X91.626 Y87.051 E0.06237
G1 X92.412 Y86.539 E0.09357
G1 X93.239 Y86.097 E0.12476
G1 X94.101 Y85.727 E0.15596
G1 X94.991 Y85.431 E0.18716
G1 X95.903 Y85.213 E0.21835
G1 X96.83 Y85.072 E0.24953
G1 X97.701 Y85.013 E0.27857
G1 X98.022 Y85.004 E0.28925
G1 X98.33 Y85 E0.29949
G1 X104.766 Y85 E0.51356
G1 X106.174 Y85.005 E0.56039
G1 X106.845 Y85 E0.58271
G1 X113.266 Y85 E0.79627
G1 X114.674 Y85.005 E0.8431
G1 X115.345 Y85 E0.86542
G1 X121.451 Y85.001 E1.0685
G1 X122.149 Y85.011 E1.09172
G1 X123.085 Y85.065 E1.12291
G1 X124.013 Y85.197 E1.15408
G1 X124.927 Y85.409 E1.18529
G1 X125.819 Y85.698 E1.21647
G1 X126.684 Y86.061 E1.24767
G1 X127.514 Y86.497 E1.27886
G1 X128.305 Y87.002 E1.31007
G1 X129.049 Y87.573 E1.34126
G1 X129.742 Y88.205 E1.37246
G1 X130.379 Y88.893 E1.40364
G1 X130.954 Y89.634 E1.43484
G1 X131.465 Y90.42 E1.46602
G1 X131.907 Y91.248 E1.49724
G1 X132.276 Y92.11 E1.52843
G1 X132.571 Y93 E1.55961
G1 X132.789 Y93.912 E1.5908
G1 X132.929 Y94.84 E1.62201
G1 X132.987 Y95.701 E1.65072
G1 X132.996 Y96.021 E1.66136
G1 X133 Y96.33 E1.67164
G1 X132.999 Y123.4 E2.57199
G1 X132.99 Y124.127 E2.59617
G1 X132.939 Y125.064 E2.62739
G1 X132.807 Y125.992 E2.65856
G1 X132.598 Y126.906 E2.68975
G1 X132.311 Y127.799 E2.72094
G1 X131.949 Y128.665 E2.75216
G1 X131.515 Y129.496 E2.78334
G1 X131.011 Y130.287 E2.81454
G1 X130.442 Y131.032 E2.84572
G1 X129.811 Y131.727 E2.87694
G1 X129.124 Y132.365 E2.90812
G1 X128.385 Y132.942 E2.93931
G1 X127.599 Y133.454 E2.97051
G1 X126.773 Y133.897 E3.00168
G1 X125.911 Y134.269 E3.03291
G1 X125.022 Y134.565 E3.06407
G1 X124.11 Y134.785 E3.09528
G1 X123.183 Y134.926 E3.12646
G1 X122.299 Y134.987 E3.15593
G1 X121.978 Y134.996 E3.16661
G1 X121.67 Y135 E3.17686
G1 X115.234 Y135 E3.39092
G1 X113.826 Y134.995 E3.43775
G1 X113.155 Y135 E3.46007
G1 X106.734 Y135 E3.67363
G1 X105.326 Y134.995 E3.72046
G1 X104.655 Y135 E3.74278
G1 X98.565 Y134.999 E3.94534
G1 X97.867 Y134.99 E3.96855
G1 X96.931 Y134.938 E3.99973
G1 X96.002 Y134.806 E4.03094
G1 X95.088 Y134.596 E4.06213
G1 X94.195 Y134.309 E4.09333
G1 X93.33 Y133.946 E4.12453
G1 X92.499 Y133.512 E4.15571
G1 X91.708 Y133.008 E4.18691
G1 X90.963 Y132.438 E4.21811
G1 X90.269 Y131.807 E4.24931
G1 X89.632 Y131.12 E4.28047
G1 X89.055 Y130.38 E4.31168
G1 X88.543 Y129.594 E4.34288
G1 X88.1 Y128.767 E4.37408
G1 X87.729 Y127.906 E4.40526
G1 X87.433 Y127.016 E4.43646
G1 X87.214 Y126.104 E4.46765
G1 X87.073 Y125.177 E4.49884
G1 X87.013 Y124.288 E4.52848
G1 X87.004 Y123.955 E4.53956
G1 X87 Y123.658 E4.54944
G1 X87.001 Y96.525 E5.45188
G1 X87.01 Y95.86 E5.474
G1 X87.063 Y94.924 E5.50518
G1 X87.195 Y93.995 E5.53639
G1 X87.406 Y93.081 E5.56759
G1 X87.694 Y92.189 E5.59877
G1 X88.057 Y91.324 E5.62997
G1 X88.492 Y90.493 E5.66117
G1 X88.996 Y89.703 E5.69233
G1 X89.566 Y88.958 E5.72353
G1 X90.198 Y88.264 E5.75475
G0 F6000 X90.589 Y88.439
G1 F1200 X91.274 Y87.823 E5.78539
G1 X92.01 Y87.27 E5.81601
G1 X92.791 Y86.782 E5.84664
G1 X93.611 Y86.364 E5.87726
G1 X94.465 Y86.019 E5.90789
G1 X95.345 Y85.749 E5.93851
G1 X96.245 Y85.557 E5.96911
G1 X97.159 Y85.443 E5.99975
G1 X97.712 Y85.413 E6.01817
G1 X98.033 Y85.404 E6.02885
G1 X98.33 Y85.4 E6.03873
G1 X104.765 Y85.4 E6.25276
G1 X106.176 Y85.405 E6.29969
G1 X106.848 Y85.4 E6.32204
G1 X113.265 Y85.4 E6.53547
G1 X114.676 Y85.405 E6.5824
G1 X115.348 Y85.4 E6.60475
G1 X121.445 Y85.401 E6.80754
G1 X122.143 Y85.411 E6.83076
G1 X123.062 Y85.464 E6.86137
G1 X123.973 Y85.597 E6.89199
G1 X124.869 Y85.808 E6.92261
G1 X125.743 Y86.096 E6.95322
G1 X126.59 Y86.459 E6.98387
G1 X127.401 Y86.894 E7.01448
G1 X128.171 Y87.398 E7.04508
G1 X128.895 Y87.967 E7.07571
G1 X129.567 Y88.597 E7.10635
G1 X130.182 Y89.282 E7.13697
G1 X130.735 Y90.018 E7.16759
G1 X131.222 Y90.799 E7.1982
G1 X131.639 Y91.62 E7.22883
G1 X131.984 Y92.474 E7.25946
G1 X132.253 Y93.354 E7.29007
G1 X132.445 Y94.255 E7.32071
G1 X132.558 Y95.168 E7.3513
G1 X132.587 Y95.712 E7.36942
G1 X132.596 Y96.032 E7.38007
G1 X132.6 Y96.33 E7.38998
G1 X132.599 Y123.395 E8.29017
G1 X132.59 Y124.122 E8.31435
G1 X132.539 Y125.041 E8.34496
G1 X132.408 Y125.953 E8.37561
G1 X132.198 Y126.849 E8.40622
G1 X131.912 Y127.724 E8.43683
G1 X131.551 Y128.571 E8.46746
G1 X131.117 Y129.383 E8.49808
G1 X130.615 Y130.155 E8.52871
G1 X130.047 Y130.88 E8.55934
G1 X129.419 Y131.553 E8.58996
G1 X128.735 Y132.169 E8.62057
G1 X128 Y132.723 E8.65119
G1 X127.22 Y133.212 E8.68181
G1 X126.4 Y133.631 E8.71243
G1 X125.547 Y133.977 E8.74305
G1 X124.667 Y134.248 E8.77367
G1 X123.767 Y134.441 E8.80429
G1 X122.853 Y134.556 E8.83493
G1 X122.288 Y134.587 E8.85375
G1 X121.967 Y134.596 E8.86443
G1 X121.67 Y134.6 E8.87431
G1 X115.235 Y134.6 E9.08834
G1 X113.824 Y134.595 E9.13527
G1 X113.152 Y134.6 E9.15762
G1 X106.735 Y134.6 E9.37105
G1 X105.324 Y134.595 E9.41798
G1 X104.652 Y134.6 E9.44033
G1 X98.57 Y134.599 E9.64262
G1 X97.872 Y134.59 E9.66584
G1 X96.953 Y134.538 E9.69645
G1 X96.042 Y134.407 E9.72706
G1 X95.146 Y134.197 E9.75767
G1 X94.271 Y133.91 E9.7883
G1 X93.424 Y133.548 E9.81894
G1 X92.612 Y133.114 E9.84956
G1 X91.841 Y132.612 E9.88016
G1 X91.116 Y132.044 E9.91079
G1 X90.443 Y131.415 E9.94143
G1 X89.828 Y130.731 E9.97202
G1 X89.274 Y129.996 E10.00264
G1 X88.786 Y129.215 E10.03327
G1 X88.367 Y128.395 E10.0639
G1 X88.021 Y127.542 E10.09451
G1 X87.751 Y126.662 E10.12513
G1 X87.558 Y125.761 E10.15577
G1 X87.444 Y124.848 E10.18638
G1 X87.413 Y124.277 E10.2054
G1 X87.404 Y123.944 E10.21648
G1 X87.4 Y123.658 E10.22599
G1 X87.401 Y96.531 E11.12824
G1 X87.41 Y95.866 E11.15036
G1 X87.462 Y94.946 E11.181
G1 X87.594 Y94.035 E11.21162
G1 X87.805 Y93.139 E11.24224
G1 X88.092 Y92.264 E11.27287
G1 X88.455 Y91.418 E11.30348
G1 X88.889 Y90.606 E11.33411
G1 X89.392 Y89.835 E11.36473
G1 X89.961 Y89.111 E11.39535
G1 X90.589 Y88.439 E11.42594
G0 F6000 X90.981 Y88.617
G1 F1200 X91.662 Y88.024 E11.45598
G1 X92.394 Y87.494 E11.48604
G1 X93.169 Y87.031 E11.51606
G1 X93.982 Y86.638 E11.5461
G1 X94.827 Y86.318 E11.57615
G1 X95.696 Y86.075 E11.60616
G1 X96.584 Y85.909 E11.63621
G1 X97.723 Y85.813 E11.67423
G1 X98.044 Y85.804 E11.68491
G1 X98.33 Y85.8 E11.69442
G1 X104.763 Y85.8 E11.90838
G1 X106.177 Y85.805 E11.95541
G1 X106.851 Y85.8 E11.97783
G1 X113.263 Y85.8 E12.19109
G1 X114.677 Y85.805 E12.23812
G1 X115.351 Y85.8 E12.26054
G1 X121.439 Y85.801 E12.46303
G1 X122.137 Y85.811 E12.48625
G1 X123.039 Y85.864 E12.5163
G1 X123.932 Y85.996 E12.54632
G1 X124.81 Y86.207 E12.57636
G1 X125.666 Y86.495 E12.6064
G1 X126.493 Y86.857 E12.63642
G1 X127.285 Y87.292 E12.66648
G1 X128.036 Y87.794 E12.69652
G1 X128.739 Y88.361 E12.72656
G1 X129.389 Y88.988 E12.7566
G1 X129.981 Y89.67 E12.78664
G1 X130.511 Y90.401 E12.81667
G1 X130.973 Y91.177 E12.8467
G1 X131.366 Y91.99 E12.87674
G1 X131.684 Y92.835 E12.90677
G1 X131.927 Y93.705 E12.93681
G1 X132.092 Y94.593 E12.96685
G1 X132.187 Y95.723 E13.00457
G1 X132.196 Y96.043 E13.01522
G1 X132.2 Y96.33 E13.02476
G1 X132.199 Y123.39 E13.92478
G1 X132.19 Y124.117 E13.94896
G1 X132.139 Y125.019 E13.97901
G1 X132.008 Y125.913 E14.00906
G1 X131.799 Y126.791 E14.03908
G1 X131.513 Y127.648 E14.06913
G1 X131.152 Y128.476 E14.09918
G1 X130.72 Y129.268 E14.12918
G1 X130.219 Y130.02 E14.15924
G1 X129.653 Y130.724 E14.18928
G1 X129.028 Y131.375 E14.2193
G1 X128.347 Y131.969 E14.24935
G1 X127.616 Y132.5 E14.2794
G1 X126.842 Y132.964 E14.30942
G1 X126.029 Y133.358 E14.33947
G1 X125.185 Y133.678 E14.36949
G1 X124.315 Y133.923 E14.39955
G1 X123.428 Y134.089 E14.42956
G1 X122.277 Y134.187 E14.46798
G1 X121.956 Y134.196 E14.47866
G1 X121.67 Y134.2 E14.48818
G1 X115.237 Y134.2 E14.70214
G1 X113.823 Y134.195 E14.74917
G1 X113.149 Y134.2 E14.77159
G1 X106.737 Y134.2 E14.98485
G1 X105.323 Y134.195 E15.03188
G1 X104.649 Y134.2 E15.0543
G1 X98.575 Y134.199 E15.25632
G1 X97.877 Y134.19 E15.27954
G1 X96.976 Y134.139 E15.30955
G1 X96.082 Y134.007 E15.33961
G1 X95.204 Y133.798 E15.36963
G1 X94.347 Y133.511 E15.39969
G1 X93.52 Y133.15 E15.4297
G1 X92.727 Y132.717 E15.45975
G1 X91.976 Y132.216 E15.48978
G1 X91.272 Y131.65 E15.51982
G1 X90.621 Y131.024 E15.54986
G1 X90.028 Y130.343 E15.5799
G1 X89.498 Y129.612 E15.60993
G1 X89.034 Y128.837 E15.63997
G1 X88.64 Y128.024 E15.67002
G1 X88.32 Y127.18 E15.70004
G1 X88.076 Y126.31 E15.73009
G1 X87.91 Y125.422 E15.76014
G1 X87.813 Y124.267 E15.79869
G1 X87.804 Y123.934 E15.80977
G1 X87.8 Y123.658 E15.81895
G1 X87.801 Y96.536 E16.72103
G1 X87.81 Y95.871 E16.74315
G1 X87.862 Y94.969 E16.7732
G1 X87.994 Y94.076 E16.80323
G1 X88.204 Y93.198 E16.83325
G1 X88.491 Y92.341 E16.86331
G1 X88.853 Y91.514 E16.89334
G1 X89.286 Y90.722 E16.92336
G1 X89.788 Y89.971 E16.95341
G1 X90.355 Y89.267 E16.98347
G1 X90.981 Y88.617 E17.01349
G0 F6000 X101.413 Y99.6
G1 F1200 X101.587 Y99.6 E17.01927
G1 X101.673 Y99.75 E17.02502
G1 X101.587 Y99.9 E17.03078
G1 X101.413 Y99.9 E17.03656
G1 X101.327 Y99.75 E17.04231
G1 X101.413 Y99.6 E17.04806
G0 F6000 X101.182 Y99.2
G1 F1200 X101.818 Y99.2 E17.06922
G1 X102.136 Y99.75 E17.09035
G1 X101.818 Y100.3 E17.11148
G1 X101.182 Y100.3 E17.13263
G1 X100.864 Y99.75 E17.15376
G1 X101.182 Y99.2 E17.17489
G0 F6000 X100.951 Y98.8
G1 F1200 X102.049 Y98.8 E17.21141
G1 X102.597 Y99.75 E17.24789
G1 X102.049 Y100.7 E17.28437
G1 X100.951 Y100.7 E17.32089
G1 X100.403 Y99.75 E17.35736
G1 X100.951 Y98.8 E17.39384
G0 F6000 X100.721 Y98.4
G1 F1200 X102.279 Y98.4 E17.44566
G1 X103.059 Y99.75 E17.49752
G1 X102.279 Y101.1 E17.54937
G1 X100.721 Y101.1 E17.60119
G1 X99.941 Y99.75 E17.65305
G1 X100.721 Y98.4 E17.70491
G0 F6000 X100.489 Y98
G1 F1200 X102.511 Y98 E17.77216
G1 X103.521 Y99.75 E17.83936
G1 X102.511 Y101.5 E17.90657
G1 X100.489 Y101.5 E17.97382
G1 X99.479 Y99.75 E18.04102
G1 X100.489 Y98 E18.10823
G0 F6000 X107.979 Y99.75
G1 F1200 X108.989 Y98 E18.17543
G1 X111.011 Y98 E18.24268
G1 X112.021 Y99.75 E18.30989
G1 X111.011 Y101.5 E18.37709
G1 X108.989 Y101.5 E18.44434
G1 X107.979 Y99.75 E18.51154
G0 F6000 X108.441 Y99.75
G1 F1200 X109.221 Y98.4 E18.5634
G1 X110.779 Y98.4 E18.61522
G1 X111.559 Y99.75 E18.66708
G1 X110.779 Y101.1 E18.71894
G1 X109.221 Y101.1 E18.77075
G1 X108.441 Y99.75 E18.82261
G0 F6000 X108.903 Y99.75
G1 F1200 X109.451 Y98.8 E18.85909
G1 X110.549 Y98.8 E18.89561
G1 X111.097 Y99.75 E18.93209
G1 X110.549 Y100.7 E18.96856
G1 X109.451 Y100.7 E19.00508
G1 X108.903 Y99.75 E19.04156
G0 F6000 X109.364 Y99.75
G1 F1200 X109.682 Y99.2 E19.06269
G1 X110.318 Y99.2 E19.08384
G1 X110.636 Y99.75 E19.10497
G1 X110.318 Y100.3 E19.1261
G1 X109.682 Y100.3 E19.14726
G1 X109.364 Y99.75 E19.16839
G0 F6000 X109.827 Y99.75
G1 F1200 X109.913 Y99.6 E19.17414
G1 X110.087 Y99.6 E19.17993
G1 X110.173 Y99.75 E19.18568
G1 X110.087 Y99.9 E19.19143
G1 X109.913 Y99.9 E19.19722
G1 X109.827 Y99.75 E19.20297
G0 F6000 X116.479 Y99.75
G1 F1200 X117.489 Y98 E19.27017
G1 X119.511 Y98 E19.33742
G1 X120.521 Y99.75 E19.40463
G1 X119.511 Y101.5 E19.47183
G1 X117.489 Y101.5 E19.53908
G1 X116.479 Y99.75 E19.60629
G0 F6000 X116.941 Y99.75
G1 F1200 X117.721 Y98.4 E19.65814
G1 X119.279 Y98.4 E19.70996
G1 X120.059 Y99.75 E19.76182
G1 X119.279 Y101.1 E19.81368
G1 X117.721 Y101.1 E19.86549
G1 X116.941 Y99.75 E19.91735
G0 F6000 X117.403 Y99.75
G1 F1200 X117.951 Y98.8 E19.95383
G1 X119.049 Y98.8 E19.99035
G1 X119.597 Y99.75 E20.02683
G1 X119.049 Y100.7 E20.0633
G1 X117.951 Y100.7 E20.09982
G1 X117.403 Y99.75 E20.1363
G0 F6000 X117.864 Y99.75
G1 F1200 X118.182 Y99.2 E20.15743
G1 X118.818 Y99.2 E20.17858
G1 X119.136 Y99.75 E20.19971
G1 X118.818 Y100.3 E20.22085
G1 X118.182 Y100.3 E20.242
G1 X117.864 Y99.75 E20.26313
G0 F6000 X118.327 Y99.75
G1 F1200 X118.413 Y99.6 E20.26888
G1 X118.587 Y99.6 E20.27467
G1 X118.673 Y99.75 E20.28042
G1 X118.587 Y99.9 E20.28617
G1 X118.413 Y99.9 E20.29196
G1 X118.327 Y99.75 E20.29771
G0 F6000 X117.489 Y118.5
G1 F1200 X119.511 Y118.5 E20.36496
G1 X120.521 Y120.25 E20.43216
G1 X119.511 Y122 E20.49937
G1 X117.489 Y122 E20.56662
G1 X116.479 Y120.25 E20.63382
G1 X117.489 Y118.5 E20.70103
G0 F6000 X117.721 Y118.9
G1 F1200 X119.279 Y118.9 E20.75284
G1 X120.059 Y120.25 E20.8047
G1 X119.279 Y121.6 E20.85656
G1 X117.721 Y121.6 E20.90838
G1 X116.941 Y120.25 E20.96024
G1 X117.721 Y118.9 E21.01209
G0 F6000 X117.951 Y119.3
G1 F1200 X119.049 Y119.3 E21.04861
G1 X119.597 Y120.25 E21.08509
G1 X119.049 Y121.2 E21.12157
G1 X117.951 Y121.2 E21.15809
G1 X117.403 Y120.25 E21.19456
G1 X117.951 Y119.3 E21.23104
G0 F6000 X118.182 Y119.7
G1 F1200 X118.818 Y119.7 E21.25219
G1 X119.136 Y120.25 E21.27332
G1 X118.818 Y120.8 E21.29445
G1 X118.182 Y120.8 E21.31561
G1 X117.864 Y120.25 E21.33674
G1 X118.182 Y119.7 E21.35787
G0 F6000 X118.413 Y120.1
G1 F1200 X118.587 Y120.1 E21.36366
G1 X118.673 Y120.25 E21.36941
G1 X118.587 Y120.4 E21.37516
G1 X118.413 Y120.4 E21.38095
G1 X118.327 Y120.25 E21.3867
G1 X118.413 Y120.1 E21.39245
G0 F6000 X109.913 Y120.1
G1 F1200 X110.087 Y120.1 E21.39823
G1 X110.173 Y120.25 E21.40399
G1 X110.087 Y120.4 E21.40974
G1 X109.913 Y120.4 E21.41552
G1 X109.827 Y120.25 E21.42127
G1 X109.913 Y120.1 E21.42703
G0 F6000 X109.682 Y119.7
G1 F1200 X110.318 Y119.7 E21.44818
G1 X110.636 Y120.25 E21.46931
G1 X110.318 Y120.8 E21.49044
G1 X109.682 Y120.8 E21.51159
G1 X109.364 Y120.25 E21.53272
G1 X109.682 Y119.7 E21.55385
G0 F6000 X109.451 Y119.3
G1 F1200 X110.549 Y119.3 E21.59037
G1 X111.097 Y120.25 E21.62685
G1 X110.549 Y121.2 E21.66333
G1 X109.451 Y121.2 E21.69985
G1 X108.903 Y120.25 E21.73633
G1 X109.451 Y119.3 E21.7728
G0 F6000 X109.221 Y118.9
G1 F1200 X110.779 Y118.9 E21.82462
G1 X111.559 Y120.25 E21.87648
G1 X110.779 Y121.6 E21.92834
G1 X109.221 Y121.6 E21.98016
G1 X108.441 Y120.25 E22.03201
G1 X109.221 Y118.9 E22.08387
G0 F6000 X108.989 Y118.5
G1 F1200 X111.011 Y118.5 E22.15112
G1 X112.021 Y120.25 E22.21832
G1 X111.011 Y122 E22.28553
G1 X108.989 Y122 E22.35278
G1 X107.979 Y120.25 E22.41998
G1 X108.989 Y118.5 E22.48719
G0 F6000 X101.413 Y120.1
G1 F1200 X101.587 Y120.1 E22.49297
G1 X101.673 Y120.25 E22.49873
G1 X101.587 Y120.4 E22.50448
G1 X101.413 Y120.4 E22.51026
G1 X101.327 Y120.25 E22.51601
G1 X101.413 Y120.1 E22.52177
G0 F6000 X101.182 Y119.7
G1 F1200 X101.818 Y119.7 E22.54292
G1 X102.136 Y120.25 E22.56405
G1 X101.818 Y120.8 E22.58518
G1 X101.182 Y120.8 E22.60633
G1 X100.864 Y120.25 E22.62746
G1 X101.182 Y119.7 E22.64859
G0 F6000 X100.951 Y119.3
G1 F1200 X102.049 Y119.3 E22.68511
G1 X102.597 Y120.25 E22.72159
G1 X102.049 Y121.2 E22.75807
G1 X100.951 Y121.2 E22.79459
G1 X100.403 Y120.25 E22.83107
G1 X100.951 Y119.3 E22.86754
G0 F6000 X100.721 Y118.9
G1 F1200 X102.279 Y118.9 E22.91936
G1 X103.059 Y120.25 E22.97122
G1 X102.279 Y121.6 E23.02308
G1 X100.721 Y121.6 E23.0749
G1 X99.941 Y120.25 E23.12675
G1 X100.721 Y118.9 E23.17861
G0 F6000 X100.489 Y118.5
G1 F1200 X102.511 Y118.5 E23.24586
G1 X103.521 Y120.25 E23.31307
