;FLAVOR:Marlin
;TIME:2163
;Filament used: 0.893739m
;Layer height: 0.2
;MINX:78.528
;MINY:87.78
;MINZ:0.2
;MAXX:141.47
;MAXY:132.22
;MAXZ:8
;TARGET_MACHINE.NAME:Creality Ender-3 Pro
;Generated with Cura_SteamEngine 5.6.0
M82 ;absolute extrusion mode
; Ender 3 Custom Start G-code
G92 E0 ; Reset Extruder
G28 ; Home all axes
G1 Z5.0 F3000 ; Move Z Axis up a bit during heating to not damage bed
M104 S175 ; Start heating up the nozzle most of the way
M190 S60 ; Start heating the bed, wait until target temperature reached
M109 S200 ; Finish heating the nozzle
G1 Z2.0 F3000 ; Move Z Axis up little to prevent scratching of Heat Bed
G1 X0.1 Y20 Z0.3 F5000.0 ; Move to start position
G1 X0.1 Y200.0 Z0.3 F1500.0 E15 ; Draw the first line
G1 X0.4 Y200.0 Z0.3 F5000.0 ; Move to side a little
G1 X0.4 Y20 Z0.3 F1500.0 E30 ; Draw the second line
G92 E0 ; Reset Extruder
G1 Z2.0 F3000 ; Move Z Axis up little to prevent scratching of Heat Bed
G1 X5 Y20 Z0.3 F5000.0 ; Move over to prevent blob squish
G92 E0
G92 E0
G1 F1500 E-6.5
;LAYER_COUNT:40
;LAYER:0
M107
G0 F6000 X84.338 Y97.449 Z0.2
;TYPE:SKIRT
G1 F1500 E0
G1 F1200 X84.877 Y97.008 E0.02316
G1 X86.02 Y96.19 E0.06991
G1 X86.621 Y95.817 E0.09344
G1 X87.541 Y95.307 E0.12842
G1 X88.243 Y94.977 E0.15422
G1 X89.037 Y94.647 E0.18282
G1 X89.708 Y94.398 E0.20663
G1 X90.725 Y94.04 E0.24249
G1 X93.157 Y93.135 E0.3288
G1 X95.504 Y92.187 E0.41298
G1 X97.774 Y91.192 E0.49542
G1 X101.098 Y89.645 E0.61736
G1 X101.994 Y89.279 E0.64955
G1 X103.103 Y88.881 E0.68874
G1 X103.864 Y88.639 E0.7153
G1 X104.335 Y88.511 E0.73154
G1 X105.05 Y88.335 E0.75603
G1 X105.663 Y88.211 E0.77683
G1 X106.856 Y88.005 E0.8171
G1 X107.671 Y87.898 E0.84444
G1 X108.618 Y87.819 E0.87604
G1 X109.598 Y87.78 E0.90866
G1 X110.587 Y87.783 E0.94156
G1 X111.493 Y87.826 E0.97172
G1 X112.028 Y87.868 E0.98957
G1 X112.772 Y87.95 E1.01447
G1 X113.366 Y88.04 E1.03445
G1 X114.54 Y88.25 E1.07412
G1 X115.364 Y88.433 E1.10219
G1 X116.285 Y88.684 E1.13394
G1 X117.115 Y88.953 E1.16296
G1 X118.05 Y89.293 E1.19605
G1 X118.955 Y89.669 E1.22865
G1 X121.475 Y90.849 E1.3212
G1 X123.79 Y91.885 E1.40555
G1 X126.153 Y92.863 E1.49061
G1 X128.457 Y93.744 E1.57265
G1 X129.433 Y94.085 E1.60704
G1 X130.908 Y94.625 E1.65928
G1 X131.517 Y94.871 E1.68113
G1 X131.879 Y95.031 E1.69429
G1 X132.894 Y95.543 E1.7321
G1 X133.379 Y95.822 E1.75071
G1 X134.092 Y96.269 E1.7787
G1 X134.534 Y96.572 E1.79653
G1 X135.276 Y97.13 E1.82741
G1 X135.64 Y97.431 E1.84311
G1 X136.302 Y98.021 E1.87261
G1 X136.673 Y98.382 E1.88983
G1 X137.307 Y99.055 E1.92058
G1 X137.647 Y99.45 E1.93791
G1 X138.199 Y100.147 E1.96748
G1 X138.445 Y100.487 E1.98144
G1 X138.942 Y101.236 E2.01134
G1 X139.251 Y101.749 E2.03126
G1 X139.723 Y102.618 E2.06415
G1 X139.92 Y103.026 E2.07922
G1 X140.264 Y103.82 E2.108
G1 X140.506 Y104.448 E2.13038
G1 X140.877 Y105.609 E2.17092
G1 X141.071 Y106.389 E2.19766
G1 X141.157 Y106.789 E2.21126
G1 X141.336 Y107.889 E2.24833
G1 X141.396 Y108.453 E2.2672
G1 X141.457 Y109.388 E2.29836
G1 X141.47 Y110.047 E2.32028
G1 X141.444 Y111.022 E2.35272
G1 X141.364 Y111.901 E2.38208
G1 X141.311 Y112.312 E2.39586
G1 X141.186 Y113.062 E2.42115
G1 X141.106 Y113.455 E2.43449
G1 X140.947 Y114.125 E2.45739
G1 X140.858 Y114.456 E2.46879
G1 X140.665 Y115.09 E2.49084
G1 X140.484 Y115.622 E2.50953
G1 X139.971 Y116.871 E2.55444
G1 X139.68 Y117.467 E2.5765
G1 X139.272 Y118.22 E2.60498
G1 X139.049 Y118.594 E2.61946
G1 X138.549 Y119.361 E2.64992
G1 X138.206 Y119.839 E2.66948
G1 X137.626 Y120.577 E2.7007
G1 X137.33 Y120.92 E2.71577
G1 X136.725 Y121.567 E2.74523
G1 X136.377 Y121.909 E2.76146
G1 X135.687 Y122.531 E2.79236
G1 X135.158 Y122.966 E2.81514
G1 X134.346 Y123.571 E2.84882
G1 X133.689 Y123.996 E2.87484
G1 X133.224 Y124.275 E2.89288
G1 X132.173 Y124.829 E2.9324
G1 X131.655 Y125.066 E2.95134
G1 X130.823 Y125.404 E2.98121
G1 X127.928 Y126.445 E3.08354
G1 X125.531 Y127.381 E3.16912
G1 X123.287 Y128.332 E3.25018
G1 X121.267 Y129.273 E3.3243
G1 X120.838 Y129.45 E3.33974
G1 X118.914 Y130.349 E3.41037
G1 X118.006 Y130.721 E3.44301
G1 X116.897 Y131.119 E3.4822
G1 X116.136 Y131.361 E3.50876
G1 X115.665 Y131.489 E3.52499
G1 X114.95 Y131.665 E3.54948
G1 X114.337 Y131.789 E3.57028
G1 X113.144 Y131.995 E3.61055
G1 X112.329 Y132.102 E3.63789
G1 X111.382 Y132.181 E3.66949
G1 X110.402 Y132.22 E3.70212
G1 X109.412 Y132.217 E3.73504
G1 X108.509 Y132.174 E3.76511
G1 X107.973 Y132.132 E3.78299
G1 X107.228 Y132.05 E3.80792
G1 X106.634 Y131.96 E3.8279
G1 X105.46 Y131.75 E3.86757
G1 X104.636 Y131.567 E3.89565
G1 X103.715 Y131.316 E3.92739
G1 X102.885 Y131.047 E3.95641
G1 X101.918 Y130.695 E3.99064
G1 X101.102 Y130.357 E4.02002
G1 X98.174 Y128.989 E4.12751
G1 X95.86 Y127.962 E4.21171
G1 X93.533 Y127.006 E4.29539
G1 X91.115 Y126.092 E4.38136
G1 X89.258 Y125.436 E4.44687
G1 X88.388 Y125.084 E4.47808
G1 X87.894 Y124.856 E4.49618
G1 X87.034 Y124.413 E4.52835
G1 X86.485 Y124.097 E4.54942
G1 X85.608 Y123.535 E4.58407
G1 X84.949 Y123.051 E4.61126
G1 X84.594 Y122.771 E4.6263
G1 X83.707 Y121.99 E4.66561
G1 X83.279 Y121.569 E4.68558
G1 X82.673 Y120.921 E4.71508
G1 X82.346 Y120.541 E4.73176
G1 X81.794 Y119.844 E4.76133
G1 X81.548 Y119.503 E4.77531
G1 X81.067 Y118.78 E4.8042
G1 X80.756 Y118.267 E4.82415
G1 X80.272 Y117.374 E4.85793
G1 X80.064 Y116.939 E4.87397
G1 X79.781 Y116.295 E4.89737
G1 X79.488 Y115.538 E4.92437
G1 X79.366 Y115.185 E4.93679
G1 X79.135 Y114.436 E4.96286
G1 X78.934 Y113.63 E4.99049
G1 X78.858 Y113.277 E5.0025
G1 X78.738 Y112.61 E5.02504
G1 X78.676 Y112.179 E5.03952
G1 X78.6 Y111.529 E5.06129
G1 X78.572 Y111.199 E5.0723
G1 X78.534 Y110.457 E5.09701
G1 X78.528 Y110.074 E5.10975
G1 X78.549 Y109.156 E5.14029
G1 X78.599 Y108.472 E5.1631
G1 X78.687 Y107.713 E5.18852
G1 X78.746 Y107.325 E5.20157
G1 X78.928 Y106.384 E5.23345
G1 X79.148 Y105.528 E5.26284
G1 X79.298 Y105.027 E5.28024
G1 X79.574 Y104.214 E5.30879
G1 X80.031 Y103.125 E5.34808
G1 X80.321 Y102.531 E5.37006
G1 X80.748 Y101.743 E5.39987
G1 X80.969 Y101.373 E5.4142
G1 X81.456 Y100.631 E5.44372
G1 X81.795 Y100.159 E5.46305
G1 X82.375 Y99.422 E5.49425
G1 X82.672 Y99.078 E5.50936
G1 X83.274 Y98.433 E5.53871
G1 X83.597 Y98.115 E5.55378
G1 X84.338 Y97.449 E5.58692
G0 F6000 X84.591 Y97.759
G1 F1200 X85.13 Y97.318 E5.61008
G1 X86.231 Y96.53 E5.65511
G1 X86.815 Y96.167 E5.67799
G1 X87.735 Y95.657 E5.71297
G1 X88.397 Y95.346 E5.7373
G1 X89.176 Y95.022 E5.76536
G1 X89.841 Y94.775 E5.78895
G1 X90.864 Y94.415 E5.82502
G1 X93.307 Y93.506 E5.91172
G1 X95.654 Y92.558 E5.99591
G1 X97.943 Y91.555 E6.07903
G1 X101.25 Y90.015 E6.20036
G1 X102.129 Y89.655 E6.23196
G1 X103.224 Y89.262 E6.27065
G1 X103.97 Y89.025 E6.29669
G1 X104.43 Y88.899 E6.31255
G1 X105.13 Y88.727 E6.33652
G1 X105.731 Y88.605 E6.35692
G1 X106.908 Y88.402 E6.39665
G1 X107.704 Y88.297 E6.42335
G1 X108.634 Y88.219 E6.45439
G1 X109.597 Y88.18 E6.48645
G1 X110.568 Y88.183 E6.51874
G1 X111.462 Y88.225 E6.54851
G1 X111.984 Y88.266 E6.56592
G1 X112.728 Y88.348 E6.59082
G1 X113.296 Y88.434 E6.60993
G1 X114.454 Y88.641 E6.64905
G1 X115.259 Y88.819 E6.67647
G1 X116.18 Y89.07 E6.70822
G1 X116.978 Y89.329 E6.73613
G1 X117.913 Y89.669 E6.76922
G1 X118.785 Y90.031 E6.80062
G1 X121.305 Y91.211 E6.89317
G1 X123.637 Y92.255 E6.97815
G1 X126.01 Y93.237 E7.06357
G1 X128.319 Y94.12 E7.14579
G1 X129.296 Y94.461 E7.18021
G1 X130.758 Y94.996 E7.23199
G1 X131.356 Y95.237 E7.25343
G1 X131.699 Y95.388 E7.2659
G1 X132.695 Y95.89 E7.30299
G1 X133.167 Y96.161 E7.3211
G1 X133.866 Y96.599 E7.34853
G1 X134.294 Y96.892 E7.36578
G1 X135.022 Y97.439 E7.39607
G1 X135.374 Y97.729 E7.41124
G1 X136.023 Y98.308 E7.44017
G1 X136.382 Y98.657 E7.45682
G1 X137.004 Y99.316 E7.48696
G1 X137.333 Y99.698 E7.50373
G1 X137.875 Y100.382 E7.53275
G1 X138.112 Y100.708 E7.54616
G1 X138.6 Y101.443 E7.5755
G1 X138.9 Y101.94 E7.59481
G1 X139.363 Y102.792 E7.62706
G1 X139.553 Y103.185 E7.64158
G1 X139.891 Y103.964 E7.66982
G1 X140.125 Y104.57 E7.69143
G1 X140.489 Y105.706 E7.73111
G1 X140.68 Y106.474 E7.75743
G1 X140.762 Y106.853 E7.77033
G1 X140.938 Y107.932 E7.80669
G1 X140.997 Y108.479 E7.82499
G1 X141.057 Y109.396 E7.85555
G1 X141.07 Y110.036 E7.87684
G1 X141.044 Y111.011 E7.90928
G1 X140.967 Y111.85 E7.9373
G1 X140.916 Y112.247 E7.95062
G1 X140.794 Y112.983 E7.97543
G1 X140.717 Y113.363 E7.98833
G1 X140.561 Y114.021 E8.01082
G1 X140.475 Y114.34 E8.02181
G1 X140.286 Y114.961 E8.0434
G1 X140.105 Y115.493 E8.06209
G1 X139.611 Y116.696 E8.10534
G1 X139.328 Y117.277 E8.12684
G1 X138.928 Y118.016 E8.15478
G1 X138.714 Y118.376 E8.16871
G1 X138.224 Y119.128 E8.19857
G1 X137.892 Y119.592 E8.21754
G1 X137.323 Y120.316 E8.24817
G1 X137.038 Y120.647 E8.2627
G1 X136.445 Y121.282 E8.2916
G1 X136.109 Y121.612 E8.30726
G1 X135.433 Y122.222 E8.33754
G1 X134.919 Y122.645 E8.35968
G1 X134.107 Y123.25 E8.39336
G1 X133.483 Y123.653 E8.41807
G1 X133.037 Y123.921 E8.43538
G1 X132.006 Y124.465 E8.47415
G1 X131.504 Y124.695 E8.49251
G1 X130.672 Y125.033 E8.52238
G1 X127.783 Y126.072 E8.6245
G1 X125.386 Y127.008 E8.71008
G1 X123.118 Y127.969 E8.79201
G1 X121.114 Y128.903 E8.86555
G1 X120.685 Y129.08 E8.88098
G1 X118.762 Y129.979 E8.95159
G1 X117.871 Y130.345 E8.98362
G1 X116.776 Y130.738 E9.02232
G1 X116.03 Y130.975 E9.04835
G1 X115.57 Y131.101 E9.06422
G1 X114.87 Y131.273 E9.08819
G1 X114.269 Y131.395 E9.10859
G1 X113.092 Y131.598 E9.14831
G1 X112.296 Y131.703 E9.17502
G1 X111.366 Y131.781 E9.20606
G1 X110.403 Y131.82 E9.23811
G1 X109.431 Y131.817 E9.27044
G1 X108.54 Y131.775 E9.30011
G1 X108.017 Y131.734 E9.31756
G1 X107.272 Y131.652 E9.34249
G1 X106.704 Y131.566 E9.36159
G1 X105.546 Y131.359 E9.40072
G1 X104.741 Y131.181 E9.42814
G1 X103.82 Y130.93 E9.45989
G1 X103.022 Y130.671 E9.48779
G1 X102.071 Y130.325 E9.52145
G1 X101.255 Y129.987 E9.55083
G1 X98.336 Y128.623 E9.65799
G1 X96.022 Y127.596 E9.7422
G1 X93.685 Y126.636 E9.82623
G1 X91.256 Y125.718 E9.91259
G1 X89.408 Y125.065 E9.97778
G1 X88.538 Y124.713 E10.009
G1 X88.077 Y124.501 E10.02587
G1 X87.234 Y124.066 E10.05743
G1 X86.685 Y123.75 E10.07849
G1 X85.845 Y123.213 E10.11165
G1 X85.197 Y122.737 E10.1384
G1 X84.842 Y122.457 E10.15343
G1 X83.987 Y121.704 E10.19133
G1 X83.571 Y121.296 E10.21071
G1 X82.976 Y120.66 E10.23968
G1 X82.659 Y120.292 E10.25583
G1 X82.118 Y119.61 E10.28478
G1 X81.881 Y119.282 E10.29824
G1 X81.409 Y118.572 E10.3266
G1 X81.108 Y118.076 E10.3459
G1 X80.633 Y117.201 E10.37901
G1 X80.43 Y116.778 E10.39462
G1 X80.154 Y116.151 E10.4174
G1 X79.866 Y115.407 E10.44394
G1 X79.748 Y115.067 E10.45591
G1 X79.523 Y114.339 E10.48125
G1 X79.325 Y113.546 E10.50844
G1 X79.252 Y113.206 E10.52
G1 X79.134 Y112.552 E10.5421
G1 X79.073 Y112.133 E10.55619
G1 X78.999 Y111.495 E10.57755
G1 X78.971 Y111.165 E10.58857
G1 X78.934 Y110.45 E10.61238
G1 X78.928 Y110.083 E10.62459
G1 X78.948 Y109.185 E10.65446
G1 X78.996 Y108.518 E10.6767
G1 X79.083 Y107.773 E10.70165
G1 X79.139 Y107.401 E10.71416
G1 X79.321 Y106.46 E10.74604
G1 X79.531 Y105.643 E10.7741
G1 X79.677 Y105.156 E10.79101
G1 X79.953 Y104.343 E10.81956
G1 X80.4 Y103.28 E10.85792
G1 X80.673 Y102.721 E10.87861
G1 X81.091 Y101.948 E10.90784
G1 X81.304 Y101.592 E10.92164
G1 X81.781 Y100.864 E10.95058
G1 X82.109 Y100.406 E10.96932
G1 X82.678 Y99.683 E10.99992
G1 X82.964 Y99.351 E11.0145
G1 X83.555 Y98.718 E11.0433
G1 X83.878 Y98.4 E11.05837
G1 X84.591 Y97.759 E11.09026
G0 F6000 X84.845 Y98.068
G1 F1200 X85.363 Y97.643 E11.11255
G1 X86.442 Y96.87 E11.1567
G1 X87.009 Y96.517 E11.17891
G1 X87.906 Y96.019 E11.21303
G1 X88.551 Y95.715 E11.23675
G1 X89.315 Y95.397 E11.26427
G1 X89.974 Y95.152 E11.28766
G1 X91.003 Y94.79 E11.32394
G1 X93.457 Y93.877 E11.41103
G1 X95.804 Y92.928 E11.49523
G1 X98.112 Y91.918 E11.57902
G1 X101.402 Y90.385 E11.69974
G1 X102.264 Y90.031 E11.73074
G1 X103.345 Y89.643 E11.76894
G1 X104.076 Y89.411 E11.79444
G1 X104.525 Y89.287 E11.80994
G1 X105.21 Y89.119 E11.8334
G1 X105.799 Y88.999 E11.85339
G1 X106.96 Y88.799 E11.89257
G1 X107.738 Y88.696 E11.91867
G1 X108.65 Y88.619 E11.94912
G1 X109.596 Y88.58 E11.98061
G1 X110.549 Y88.583 E12.0123
G1 X111.431 Y88.624 E12.04167
G1 X111.94 Y88.664 E12.05865
G1 X112.684 Y88.746 E12.08355
G1 X113.226 Y88.828 E12.10178
G1 X114.368 Y89.032 E12.14036
G1 X115.154 Y89.205 E12.16713
G1 X116.056 Y89.45 E12.19822
G1 X116.841 Y89.705 E12.22567
G1 X117.776 Y90.045 E12.25876
G1 X118.615 Y90.393 E12.28897
G1 X121.135 Y91.573 E12.38152
G1 X123.484 Y92.625 E12.46713
G1 X125.867 Y93.611 E12.5529
G1 X128.181 Y94.496 E12.6353
G1 X129.159 Y94.837 E12.66975
G1 X130.609 Y95.367 E12.7211
G1 X131.195 Y95.603 E12.74211
G1 X131.519 Y95.745 E12.75388
G1 X132.496 Y96.237 E12.79026
G1 X132.955 Y96.5 E12.80786
G1 X133.64 Y96.929 E12.83474
G1 X134.054 Y97.212 E12.85142
G1 X134.768 Y97.748 E12.88111
G1 X135.108 Y98.027 E12.89574
G1 X135.744 Y98.595 E12.9241
G1 X136.091 Y98.932 E12.94019
G1 X136.701 Y99.578 E12.96974
G1 X137.02 Y99.947 E12.98596
G1 X137.552 Y100.617 E13.01442
G1 X137.779 Y100.929 E13.02725
G1 X138.258 Y101.65 E13.05604
G1 X138.549 Y102.131 E13.07474
G1 X139.003 Y102.966 E13.10635
G1 X139.186 Y103.344 E13.12032
G1 X139.518 Y104.108 E13.14803
G1 X139.744 Y104.692 E13.16886
G1 X140.108 Y105.828 E13.20853
G1 X140.289 Y106.559 E13.23358
G1 X140.367 Y106.917 E13.24576
G1 X140.54 Y107.976 E13.28145
G1 X140.598 Y108.505 E13.29915
G1 X140.657 Y109.404 E13.32912
G1 X140.67 Y110.025 E13.34978
G1 X140.644 Y111 E13.38222
G1 X140.57 Y111.799 E13.40891
G1 X140.521 Y112.182 E13.42175
G1 X140.402 Y112.904 E13.44609
G1 X140.328 Y113.271 E13.45854
G1 X140.175 Y113.917 E13.48062
G1 X140.092 Y114.224 E13.4912
G1 X139.907 Y114.833 E13.51237
G1 X139.735 Y115.341 E13.53021
G1 X139.241 Y116.544 E13.57346
G1 X138.976 Y117.087 E13.59356
G1 X138.584 Y117.812 E13.62097
G1 X138.379 Y118.158 E13.63434
G1 X137.899 Y118.895 E13.6636
G1 X137.577 Y119.345 E13.682
G1 X137.02 Y120.055 E13.71202
G1 X136.746 Y120.374 E13.726
G1 X136.164 Y120.997 E13.75436
G1 X135.841 Y121.315 E13.76943
G1 X135.178 Y121.913 E13.79913
G1 X134.68 Y122.324 E13.82061
G1 X133.868 Y122.929 E13.85429
G1 X133.277 Y123.31 E13.87767
G1 X132.85 Y123.567 E13.89425
G1 X131.839 Y124.101 E13.93228
G1 X131.337 Y124.331 E13.95064
G1 X130.537 Y124.657 E13.97938
G1 X127.638 Y125.699 E14.08184
G1 X125.241 Y126.635 E14.16742
G1 X122.949 Y127.606 E14.25022
G1 X120.961 Y128.533 E14.32317
G1 X120.532 Y128.71 E14.33861
G1 X118.61 Y129.609 E14.40918
G1 X117.736 Y129.969 E14.44062
G1 X116.655 Y130.357 E14.47882
G1 X115.924 Y130.589 E14.50433
G1 X115.475 Y130.713 E14.51982
G1 X114.79 Y130.881 E14.54328
G1 X114.201 Y131.001 E14.56327
G1 X113.04 Y131.201 E14.60245
G1 X112.262 Y131.304 E14.62856
G1 X111.35 Y131.381 E14.659
G1 X110.404 Y131.42 E14.69049
G1 X109.45 Y131.417 E14.72222
G1 X108.571 Y131.376 E14.75149
G1 X108.061 Y131.336 E14.7685
G1 X107.316 Y131.254 E14.79343
G1 X106.774 Y131.172 E14.81166
G1 X105.632 Y130.968 E14.85025
G1 X104.846 Y130.795 E14.87701
G1 X103.944 Y130.55 E14.9081
G1 X103.159 Y130.295 E14.93555
G1 X102.224 Y129.955 E14.96864
G1 X101.408 Y129.617 E14.99802
G1 X98.498 Y128.257 E15.10486
G1 X96.184 Y127.23 E15.18906
G1 X93.837 Y126.266 E15.27345
G1 X91.397 Y125.344 E15.36021
G1 X89.558 Y124.694 E15.42508
G1 X88.705 Y124.349 E15.45568
G1 X88.26 Y124.145 E15.47196
G1 X87.433 Y123.719 E15.50291
G1 X86.9 Y123.413 E15.52335
G1 X86.082 Y122.89 E15.55564
G1 X85.445 Y122.423 E15.58191
G1 X85.09 Y122.143 E15.59695
G1 X84.267 Y121.418 E15.63343
G1 X83.863 Y121.022 E15.65224
G1 X83.279 Y120.399 E15.68064
G1 X82.972 Y120.043 E15.69628
G1 X82.442 Y119.375 E15.72464
G1 X82.214 Y119.061 E15.73755
G1 X81.751 Y118.364 E15.76538
G1 X81.46 Y117.885 E15.78402
G1 X80.985 Y117.01 E15.81713
