;FLAVOR:Marlin
;TIME:3690
;Filament used: 2.23929m
;Layer height: 0.2
;MINX:80.5
;MINY:75.75
;MINZ:0.2
;MAXX:139.5
;MAXY:144.25
;MAXZ:20
;TARGET_MACHINE.NAME:Creality Ender-3 Pro
;Generated with Cura_SteamEngine 5.6.0
M82 ;absolute extrusion mode
; Ender 3 Custom Start G-code
G92 E0 ; Reset Extruder
G28 ; Home all axes
G1 Z5.0 F3000 ; Move Z Axis up a bit during heating to not damage bed
M104 S175 ; Start heating up the nozzle most of the way
M190 S60 ; Start heating the bed, wait until target temperature reached
M109 S200 ; Finish heating the nozzle
G1 Z2.0 F3000 ; Move Z Axis up little to prevent scratching of Heat Bed
G1 X0.1 Y20 Z0.3 F5000.0 ; Move to start position
G1 X0.1 Y200.0 Z0.3 F1500.0 E15 ; Draw the first line
G1 X0.4 Y200.0 Z0.3 F5000.0 ; Move to side a little
G1 X0.4 Y20 Z0.3 F1500.0 E30 ; Draw the second line
G92 E0 ; Reset Extruder
G1 Z2.0 F3000 ; Move Z Axis up little to prevent scratching of Heat Bed
G1 X5 Y20 Z0.3 F5000.0 ; Move over to prevent blob squish
G92 E0
G92 E0
G1 F1500 E-6.5
;LAYER_COUNT:100
;LAYER:0
M107
G0 F6000 X84.506 Y81.178 Z0.2
;TYPE:SKIRT
G1 F1500 E0
G1 F1200 X85.429 Y80.214 E0.04439
G1 X85.871 Y79.809 E0.06433
G1 X86.555 Y79.234 E0.09405
G1 X86.919 Y78.954 E0.10932
G1 X87.65 Y78.44 E0.13905
G1 X88.062 Y78.175 E0.15534
G1 X88.835 Y77.723 E0.18512
G1 X89.224 Y77.517 E0.19976
G1 X90.144 Y77.084 E0.23358
G1 X90.675 Y76.866 E0.25267
G1 X91.569 Y76.542 E0.2843
G1 X91.895 Y76.441 E0.29565
G1 X92.651 Y76.235 E0.32171
G1 X93.161 Y76.117 E0.33912
G1 X94.152 Y75.937 E0.37262
G1 X94.61 Y75.875 E0.388
G1 X95.634 Y75.789 E0.42217
G1 X96.902 Y75.75 E0.46437
G1 X123.138 Y75.754 E1.33698
G1 X124.008 Y75.768 E1.36592
G1 X124.957 Y75.819 E1.39753
G1 X125.83 Y75.931 E1.4268
G1 X126.384 Y76.024 E1.44549
G1 X127.257 Y76.204 E1.47513
G1 X128.19 Y76.458 E1.5073
G1 X129.033 Y76.746 E1.53693
G1 X129.484 Y76.92 E1.553
G1 X130.547 Y77.398 E1.59177
G1 X131.038 Y77.652 E1.61016
G1 X131.863 Y78.125 E1.64178
G1 X132.382 Y78.456 E1.66226
G1 X133.122 Y78.973 E1.69228
G1 X133.533 Y79.302 E1.70979
G1 X134.111 Y79.786 E1.73487
G1 X134.776 Y80.397 E1.7649
G1 X135.259 Y80.911 E1.78836
G1 X135.573 Y81.268 E1.80418
G1 X136.004 Y81.79 E1.82669
G1 X136.283 Y82.15 E1.84184
G1 X136.8 Y82.883 E1.87167
G1 X137.077 Y83.315 E1.88874
G1 X137.527 Y84.084 E1.91838
G1 X137.731 Y84.468 E1.93284
G1 X138.089 Y85.213 E1.96033
G1 X138.254 Y85.598 E1.97426
G1 X138.59 Y86.468 E2.00528
G1 X138.83 Y87.211 E2.03125
G1 X139.016 Y87.906 E2.05518
G1 X139.134 Y88.415 E2.07256
G1 X139.312 Y89.393 E2.10562
G1 X139.372 Y89.849 E2.12092
G1 X139.46 Y90.855 E2.15451
G1 X139.5 Y92.094 E2.19574
G1 X139.494 Y127.93 E3.38765
G1 X139.482 Y128.672 E3.41233
G1 X139.44 Y129.468 E3.43884
G1 X139.391 Y130.013 E3.45704
G1 X139.239 Y131.078 E3.49282
G1 X139.109 Y131.742 E3.51533
G1 X138.895 Y132.62 E3.54538
G1 X138.646 Y133.378 E3.57192
G1 X138.377 Y134.108 E3.5978
G1 X137.936 Y135.133 E3.63491
G1 X137.737 Y135.534 E3.6498
G1 X137.19 Y136.507 E3.68692
G1 X136.841 Y137.059 E3.70864
G1 X136.184 Y137.986 E3.74644
G1 X135.939 Y138.294 E3.75953
G1 X135.447 Y138.872 E3.78477
G1 X135.116 Y139.234 E3.80109
G1 X134.443 Y139.906 E3.83272
G1 X134.006 Y140.305 E3.8524
G1 X132.949 Y141.149 E3.89739
G1 X132.389 Y141.538 E3.92007
G1 X131.666 Y141.999 E3.94859
G1 X130.957 Y142.399 E3.97566
G1 X130.65 Y142.558 E3.98716
G1 X129.723 Y142.985 E4.02111
G1 X128.919 Y143.296 E4.04978
G1 X128.475 Y143.449 E4.0654
G1 X127.617 Y143.707 E4.0952
G1 X127.34 Y143.777 E4.1047
G1 X126.646 Y143.928 E4.12832
G1 X126.215 Y144.008 E4.1429
G1 X125.403 Y144.127 E4.1702
G1 X124.551 Y144.207 E4.19866
G1 X123.978 Y144.234 E4.21774
G1 X123.093 Y144.25 E4.24718
G1 X96.853 Y144.246 E5.11993
G1 X95.991 Y144.232 E5.1486
G1 X95.043 Y144.181 E5.18018
G1 X94.17 Y144.069 E5.20945
G1 X93.616 Y143.976 E5.22813
G1 X92.743 Y143.796 E5.25778
G1 X91.818 Y143.543 E5.28968
G1 X90.991 Y143.262 E5.31873
G1 X90.514 Y143.079 E5.33572
G1 X89.413 Y142.583 E5.37588
G1 X88.932 Y142.333 E5.39391
G1 X88.132 Y141.871 E5.42464
G1 X87.615 Y141.542 E5.44502
G1 X86.875 Y141.024 E5.47507
G1 X86.465 Y140.696 E5.49253
G1 X85.923 Y140.24 E5.51609
G1 X84.961 Y139.317 E5.56043
G1 X84.548 Y138.866 E5.58077
G1 X83.973 Y138.182 E5.61049
G1 X83.704 Y137.832 E5.62517
G1 X83.191 Y137.103 E5.65482
G1 X82.919 Y136.68 E5.67155
G1 X82.45 Y135.876 E5.7025
G1 X82.248 Y135.491 E5.71697
G1 X81.831 Y134.601 E5.74965
G1 X81.615 Y134.074 E5.7686
G1 X81.285 Y133.157 E5.80101
G1 X81.185 Y132.834 E5.81226
G1 X80.985 Y132.098 E5.83763
G1 X80.863 Y131.571 E5.85562
G1 X80.681 Y130.566 E5.88959
G1 X80.623 Y130.123 E5.90445
G1 X80.54 Y129.142 E5.93719
G1 X80.5 Y127.907 E5.97829
G1 X80.501 Y92.304 E7.16245
G1 X80.516 Y91.336 E7.19465
G1 X80.567 Y90.391 E7.22613
G1 X80.672 Y89.461 E7.25726
G1 X80.731 Y89.089 E7.26978
G1 X80.865 Y88.401 E7.2931
G1 X80.984 Y87.886 E7.31068
G1 X81.25 Y86.929 E7.34371
G1 X81.508 Y86.187 E7.36984
G1 X81.686 Y85.727 E7.38625
G1 X82.162 Y84.674 E7.42468
G1 X82.407 Y84.2 E7.44243
G1 X82.875 Y83.388 E7.4736
G1 X83.229 Y82.836 E7.49541
G1 X84.021 Y81.757 E7.53993
G1 X84.506 Y81.178 E7.56505
G0 F6000 X84.795 Y81.455
G1 F1200 X85.718 Y80.491 E7.60944
G1 X86.128 Y80.115 E7.62794
G1 X86.799 Y79.551 E7.6571
G1 X87.149 Y79.281 E7.6718
G1 X87.866 Y78.776 E7.70097
G1 X88.264 Y78.52 E7.71671
G1 X89.022 Y78.076 E7.74592
G1 X89.394 Y77.879 E7.75993
G1 X90.296 Y77.454 E7.79309
G1 X90.811 Y77.242 E7.81161
G1 X91.688 Y76.924 E7.84264
G1 X92 Y76.827 E7.85351
G1 X92.742 Y76.625 E7.87908
G1 X93.232 Y76.511 E7.89582
G1 X94.223 Y76.331 E7.92932
G1 X94.644 Y76.274 E7.94345
G1 X95.646 Y76.189 E7.97689
G1 X96.902 Y76.15 E8.01869
G1 X123.132 Y76.154 E8.8911
G1 X123.987 Y76.167 E8.91954
G1 X124.906 Y76.216 E8.95015
G1 X125.779 Y76.328 E8.97943
G1 X126.304 Y76.416 E8.99713
G1 X127.152 Y76.59 E9.02592
G1 X128.061 Y76.837 E9.05725
G1 X128.889 Y77.119 E9.08635
G1 X129.32 Y77.285 E9.10171
G1 X130.363 Y77.753 E9.13973
G1 X130.839 Y77.999 E9.15755
G1 X131.648 Y78.463 E9.18857
G1 X132.153 Y78.784 E9.20847
G1 X132.893 Y79.301 E9.2385
G1 X133.276 Y79.608 E9.25482
G1 X133.84 Y80.081 E9.27931
G1 X134.505 Y80.692 E9.30934
G1 X134.959 Y81.175 E9.33139
G1 X135.265 Y81.523 E9.3468
G1 X135.688 Y82.035 E9.36889
G1 X135.956 Y82.381 E9.38345
G1 X136.473 Y83.114 E9.41328
G1 X136.732 Y83.517 E9.42921
G1 X137.174 Y84.272 E9.45831
G1 X137.37 Y84.641 E9.47221
G1 X137.728 Y85.386 E9.4997
G1 X137.881 Y85.742 E9.51259
G1 X138.209 Y86.591 E9.54286
G1 X138.449 Y87.334 E9.56883
G1 X138.626 Y87.996 E9.59162
G1 X138.74 Y88.487 E9.60839
G1 X138.918 Y89.465 E9.64145
G1 X138.974 Y89.884 E9.65551
G1 X139.06 Y90.868 E9.68836
G1 X139.1 Y92.094 E9.72916
G1 X139.094 Y127.924 E10.92087
G1 X139.083 Y128.651 E10.94505
G1 X139.042 Y129.432 E10.97107
G1 X138.995 Y129.956 E10.98856
G1 X138.843 Y131.021 E11.02435
G1 X138.72 Y131.647 E11.04556
G1 X138.506 Y132.525 E11.07562
G1 X138.271 Y133.24 E11.10065
G1 X138.01 Y133.95 E11.12581
G1 X137.577 Y134.956 E11.16224
G1 X137.388 Y135.338 E11.17642
G1 X136.852 Y136.293 E11.21284
G1 X136.514 Y136.828 E11.23389
G1 X135.87 Y137.738 E11.27097
G1 X135.635 Y138.035 E11.28357
G1 X135.152 Y138.602 E11.30834
G1 X134.833 Y138.951 E11.32406
G1 X134.173 Y139.611 E11.35511
G1 X133.756 Y139.992 E11.3739
G1 X132.699 Y140.836 E11.41888
G1 X132.174 Y141.201 E11.44015
G1 X131.469 Y141.651 E11.46797
G1 X130.773 Y142.044 E11.49455
G1 X130.482 Y142.195 E11.50546
G1 X129.579 Y142.612 E11.53854
G1 X128.788 Y142.918 E11.56675
G1 X128.36 Y143.066 E11.58181
G1 X127.519 Y143.319 E11.61102
G1 X127.255 Y143.386 E11.62008
G1 X126.573 Y143.535 E11.6433
G1 X126.157 Y143.612 E11.65737
G1 X125.345 Y143.731 E11.68467
G1 X124.532 Y143.807 E11.71182
G1 X123.971 Y143.834 E11.7305
G1 X123.093 Y143.85 E11.75971
G1 X96.859 Y143.846 E12.63226
G1 X96.012 Y143.833 E12.66043
G1 X95.094 Y143.784 E12.69101
G1 X94.221 Y143.672 E12.72028
G1 X93.696 Y143.584 E12.73799
G1 X92.848 Y143.41 E12.76678
G1 X91.946 Y143.164 E12.79788
G1 X91.134 Y142.889 E12.82639
G1 X90.678 Y142.714 E12.84264
G1 X89.597 Y142.228 E12.88206
G1 X89.132 Y141.987 E12.89948
G1 X88.347 Y141.534 E12.92962
G1 X87.844 Y141.214 E12.94945
G1 X87.104 Y140.696 E12.97949
G1 X86.722 Y140.39 E12.99577
G1 X86.2 Y139.951 E13.01846
G1 X85.238 Y139.028 E13.0628
G1 X84.854 Y138.609 E13.0817
G1 X84.29 Y137.938 E13.11086
G1 X84.031 Y137.602 E13.12497
G1 X83.527 Y136.887 E13.15406
G1 X83.264 Y136.478 E13.17023
G1 X82.804 Y135.69 E13.20058
G1 X82.61 Y135.321 E13.21445
G1 X82.201 Y134.449 E13.24648
G1 X81.991 Y133.939 E13.26483
G1 X81.667 Y133.039 E13.29664
G1 X81.571 Y132.729 E13.30744
G1 X81.375 Y132.008 E13.33229
G1 X81.257 Y131.499 E13.34967
G1 X81.078 Y130.514 E13.38296
G1 X81.022 Y130.089 E13.39722
G1 X80.94 Y129.129 E13.42927
G1 X80.9 Y127.907 E13.46993
G1 X80.901 Y92.31 E14.65389
G1 X80.915 Y91.357 E14.68559
G1 X80.964 Y90.436 E14.71627
G1 X81.067 Y89.524 E14.7468
G1 X81.124 Y89.165 E14.75889
G1 X81.255 Y88.49 E14.78176
G1 X81.369 Y87.993 E14.79871
G1 X81.628 Y87.06 E14.83092
G1 X81.881 Y86.331 E14.85659
G1 X82.051 Y85.891 E14.87227
G1 X82.517 Y84.858 E14.90997
G1 X82.754 Y84.4 E14.92712
G1 X83.222 Y83.588 E14.95829
G1 X83.551 Y83.073 E14.97862
G1 X84.343 Y81.994 E15.02313
G1 X84.795 Y81.455 E15.04653
G0 F6000 X85.084 Y81.732
G1 F1200 X86.007 Y80.768 E15.09092
G1 X86.386 Y80.421 E15.10801
G1 X87.043 Y79.868 E15.13657
G1 X87.38 Y79.608 E15.15073
G1 X88.083 Y79.112 E15.17935
G1 X88.466 Y78.865 E15.1945
G1 X89.21 Y78.429 E15.22319
G1 X89.564 Y78.241 E15.23652
G1 X90.449 Y77.824 E15.26906
G1 X90.947 Y77.618 E15.28698
G1 X91.807 Y77.306 E15.31741
G1 X92.105 Y77.213 E15.32779
G1 X92.833 Y77.015 E15.35288
G1 X93.323 Y76.901 E15.36962
G1 X94.276 Y76.727 E15.40184
G1 X94.678 Y76.673 E15.41533
G1 X95.659 Y76.589 E15.44808
G1 X96.902 Y76.55 E15.48944
G1 X123.126 Y76.554 E16.36165
G1 X123.966 Y76.566 E16.38959
G1 X124.855 Y76.613 E16.4192
G1 X125.713 Y76.723 E16.44797
G1 X126.224 Y76.808 E16.4652
G1 X127.047 Y76.976 E16.49314
G1 X127.932 Y77.216 E16.52364
G1 X128.746 Y77.493 E16.55224
G1 X129.156 Y77.65 E16.56684
G1 X130.18 Y78.109 E16.60416
G1 X130.64 Y78.346 E16.62137
G1 X131.434 Y78.801 E16.65181
G1 X131.924 Y79.112 E16.67111
G1 X132.664 Y79.629 E16.70114
G1 X133.019 Y79.914 E16.71628
G1 X133.569 Y80.376 E16.74017
G1 X134.234 Y80.987 E16.77021
G1 X134.659 Y81.44 E16.79087
G1 X134.957 Y81.778 E16.80585
G1 X135.372 Y82.28 E16.82752
G1 X135.629 Y82.612 E16.84148
G1 X136.137 Y83.331 E16.87076
G1 X136.387 Y83.719 E16.88611
G1 X136.821 Y84.46 E16.91468
G1 X137.009 Y84.814 E16.92801
G1 X137.367 Y85.559 E16.9555
G1 X137.508 Y85.886 E16.96734
G1 X137.828 Y86.714 E16.99687
G1 X138.068 Y87.457 E17.02284
G1 X138.236 Y88.086 E17.04449
G1 X138.35 Y88.577 E17.06126
G1 X138.522 Y89.519 E17.09311
G1 X138.576 Y89.919 E17.10653
G1 X138.66 Y90.881 E17.13865
G1 X138.7 Y92.094 E17.17901
G1 X138.694 Y127.918 E18.37053
G1 X138.684 Y128.63 E18.39421
G1 X138.644 Y129.396 E18.41972
G1 X138.599 Y129.899 E18.43652
G1 X138.447 Y130.964 E18.4723
G1 X138.331 Y131.552 E18.49223
G1 X138.117 Y132.43 E18.52229
G1 X137.896 Y133.102 E18.54582
G1 X137.642 Y133.792 E18.57027
G1 X137.218 Y134.779 E18.606
G1 X137.039 Y135.142 E18.61946
G1 X136.514 Y136.079 E18.65519
G1 X136.176 Y136.614 E18.67623
G1 X135.556 Y137.49 E18.71193
G1 X135.33 Y137.776 E18.72405
G1 X134.857 Y138.332 E18.74833
G1 X134.55 Y138.668 E18.76347
G1 X133.903 Y139.316 E18.79393
G1 X133.506 Y139.679 E18.81182
G1 X132.449 Y140.523 E18.85681
G1 X131.959 Y140.864 E18.87666
G1 X131.272 Y141.303 E18.90378
G1 X130.588 Y141.689 E18.9299
G1 X130.314 Y141.832 E18.94018
G1 X129.435 Y142.239 E18.9724
G1 X128.657 Y142.54 E19.00014
G1 X128.245 Y142.683 E19.01465
G1 X127.42 Y142.931 E19.0433
G1 X127.169 Y142.995 E19.05192
G1 X126.5 Y143.142 E19.0747
G1 X126.099 Y143.216 E19.08826
G1 X125.287 Y143.335 E19.11556
G1 X124.512 Y143.407 E19.14145
G1 X123.964 Y143.434 E19.15969
G1 X123.093 Y143.45 E19.18867
G1 X96.865 Y143.446 E20.06102
G1 X96.033 Y143.434 E20.08869
G1 X95.145 Y143.387 E20.11827
G1 X94.287 Y143.277 E20.14704
G1 X93.776 Y143.192 E20.16427
G1 X92.953 Y143.024 E20.1922
G1 X92.074 Y142.785 E20.2225
G1 X91.277 Y142.515 E20.25049
G1 X90.842 Y142.349 E20.26598
G1 X89.781 Y141.873 E20.30465
G1 X89.332 Y141.64 E20.32148
G1 X88.561 Y141.196 E20.35107
G1 X88.073 Y140.886 E20.3703
G1 X87.333 Y140.368 E20.40034
G1 X86.979 Y140.084 E20.41544
G1 X86.477 Y139.662 E20.43725
G1 X85.515 Y138.739 E20.48159
G1 X85.16 Y138.351 E20.49908
G1 X84.607 Y137.694 E20.52765
G1 X84.358 Y137.371 E20.54121
G1 X83.863 Y136.67 E20.56975
G1 X83.609 Y136.276 E20.58534
G1 X83.158 Y135.504 E20.61508
G1 X82.972 Y135.151 E20.62835
G1 X82.571 Y134.296 E20.65976
G1 X82.367 Y133.803 E20.67751
G1 X82.049 Y132.921 E20.70869
G1 X81.957 Y132.624 E20.71903
G1 X81.765 Y131.917 E20.7434
G1 X81.651 Y131.427 E20.76013
G1 X81.475 Y130.461 E20.79279
G1 X81.421 Y130.055 E20.80641
G1 X81.34 Y129.116 E20.83776
G1 X81.3 Y127.907 E20.87799
G1 X81.301 Y92.316 E22.06175
G1 X81.314 Y91.378 E22.09296
G1 X81.361 Y90.481 E22.12283
G1 X81.462 Y89.587 E22.15275
G1 X81.517 Y89.241 E22.16441
G1 X81.645 Y88.579 E22.18683
G1 X81.754 Y88.1 E22.20317
G1 X82.006 Y87.191 E22.23455
G1 X82.254 Y86.475 E22.25975
G1 X82.416 Y86.055 E22.27472
G1 X82.872 Y85.042 E22.31167
G1 X83.101 Y84.599 E22.32826
G1 X83.559 Y83.803 E22.3588
G1 X83.873 Y83.31 E22.37824
G1 X84.665 Y82.231 E22.42276
G1 X85.084 Y81.732 E22.44443
G1 F1500 E15.94443
;MESH:Marker_holder_10RA.stl
G0 F6000 X92.824 Y87.442
G0 X99.181 Y91.891
;TYPE:WALL-INNER
G1 F1500 E22.44443
G1 F1200 X98.759 Y91.886 E22.45847
G1 X98.413 Y91.805 E22.47029
G1 X98.031 Y91.641 E22.48411
G1 X97.537 Y91.229 E22.50551
G1 X97.212 Y90.66 E22.5273
G1 X97.097 Y90.102 E22.54625
G1 X97.122 Y89.717 E22.55908
G1 X97.201 Y89.389 E22.57031
G1 X97.355 Y89.037 E22.58308
G1 X97.767 Y88.54 E22.60456
G1 X98.253 Y88.259 E22.62323
G1 X98.435 Y88.19 E22.6297
G1 F971.7 X98.842 Y88.005 E22.64807
G1 F812.2 X99.331 Y88.033 E22.67214
G1 F939.3 X99.989 Y88.373 E22.70361
G1 F1140.1 X100.46 Y88.768 E22.72512
G1 F1179.4 X100.791 Y89.339 E22.74746
G1 F1200 X100.904 Y89.904 E22.76662
G1 X100.872 Y90.309 E22.78014
G1 X100.791 Y90.648 E22.79173
G1 X100.614 Y91.001 E22.80486
G1 X100.223 Y91.464 E22.82502
G1 X99.68 Y91.782 E22.84595
G1 X99.181 Y91.891 E22.86294
G1 F1500 E16.36294
G0 F6000 X99.641 Y91.898
G0 X101.028 Y90.35
G0 X100.142 Y88.293
G0 X99.756 Y88.083
G0 X99.386 Y87.782
G0 X98.899 Y87.725
G0 X99.788 Y87.513
G0 X120.361 Y87.518
G0 X120.979 Y87.727
G0 X118.972 Y89.651
G0 X119.332 Y91.013
G0 X120.708 Y91.98
G0 X120.729 Y91.882
G1 F1500 E22.86294
G1 F1200 X120.351 Y91.789 E22.87588
G1 X120.014 Y91.623 E22.88838
G1 X119.532 Y91.221 E22.90925
G1 X119.206 Y90.642 E22.93135
G1 X119.096 Y90.098 E22.94981
G1 X119.128 Y89.691 E22.96339
G1 X119.207 Y89.359 E22.97474
G1 X119.363 Y89.023 E22.98706
G1 X119.768 Y88.54 E23.00803
G1 X120.253 Y88.259 E23.02667
G1 X120.435 Y88.19 E23.03315
G1 F971.7 X120.842 Y88.006 E23.05149
G1 F814.9 X121.332 Y88.034 E23.07553
G1 F941.2 X121.988 Y88.373 E23.10684
G1 F1159.4 X122.38 Y88.701 E23.12444
G1 F1200 X122.514 Y88.861 E23.13138
G1 X122.791 Y89.34 E23.14978
G1 X122.903 Y89.902 E23.16884
G1 X122.883 Y90.254 E23.18057
G1 X122.795 Y90.626 E23.19328
G1 X122.639 Y90.974 E23.20597
G1 X122.228 Y91.463 E23.22722
G1 X121.685 Y91.779 E23.24811
G1 X121.174 Y91.892 E23.26552
G1 X120.729 Y91.882 E23.28032
G1 F1500 E16.78032
G0 F6000 X120.708 Y91.98
G0 X119.953 Y91.798
G0 X111.445 Y108.624
G0 X110.219 Y111.792
G1 F1500 E23.28032
G1 F1200 X109.613 Y111.764 E23.3005
G1 X109.231 Y111.631 E23.31395
G1 X108.74 Y111.33 E23.33311
G1 X108.363 Y110.75 E23.35612
