;FLAVOR:Marlin
;TIME:2445
;Filament used: 1.00097m
;Layer height: 0.2
;MINX:90.039
;MINY:89.25
;MINZ:0.2
;MAXX:129.961
;MAXY:130.752
;MAXZ:39.4
;TARGET_MACHINE.NAME:Creality Ender-3 Pro
;Generated with Cura_SteamEngine 5.6.0
M82 ;absolute extrusion mode
; Ender 3 Custom Start G-code
G92 E0 ; Reset Extruder
G28 ; Home all axes
G1 Z5.0 F3000 ; Move Z Axis up a bit during heating to not damage bed
M104 S175 ; Start heating up the nozzle most of the way
M190 S60 ; Start heating the bed, wait until target temperature reached
M109 S200 ; Finish heating the nozzle
G1 Z2.0 F3000 ; Move Z Axis up little to prevent scratching of Heat Bed
G1 X0.1 Y20 Z0.3 F5000.0 ; Move to start position
G1 X0.1 Y200.0 Z0.3 F1500.0 E15 ; Draw the first line
G1 X0.4 Y200.0 Z0.3 F5000.0 ; Move to side a little
G1 X0.4 Y20 Z0.3 F1500.0 E30 ; Draw the second line
G92 E0 ; Reset Extruder
G1 Z2.0 F3000 ; Move Z Axis up little to prevent scratching of Heat Bed
G1 X5 Y20 Z0.3 F5000.0 ; Move over to prevent blob squish
G92 E0
G92 E0
G1 F1500 E-6.5
;LAYER_COUNT:197
;LAYER:0
M107
G0 F6000 X94.538 Y96.306 Z0.2
;TYPE:SKIRT
G1 F1500 E0
G1 F1200 X94.828 Y96.035 E0.0132
G1 X95.57 Y95.405 E0.04558
G1 X96.357 Y94.847 E0.07766
G1 X96.959 Y94.486 E0.10101
G1 X97.628 Y94.113 E0.12649
G1 X98.813 Y93.474 E0.17126
G1 X101.009 Y92.209 E0.25556
G1 X102.495 Y91.296 E0.31356
G1 X103.168 Y90.894 E0.33964
G1 X104.025 Y90.435 E0.37197
G1 X104.922 Y90.051 E0.40442
G1 X105.843 Y89.751 E0.43664
G1 X106.67 Y89.554 E0.46492
G1 X107.061 Y89.478 E0.47817
G1 X107.954 Y89.343 E0.5082
G1 X108.707 Y89.287 E0.53332
G1 X109.591 Y89.253 E0.56274
G1 X110.349 Y89.25 E0.58795
G1 X110.843 Y89.267 E0.60439
G1 X111.66 Y89.313 E0.63161
G1 X112.558 Y89.409 E0.66165
G1 X113.571 Y89.608 E0.69598
G1 X114.157 Y89.77 E0.71621
G1 X114.531 Y89.885 E0.72922
G1 X115.415 Y90.201 E0.76044
G1 X116.298 Y90.607 E0.79277
G1 X117.008 Y91.006 E0.81986
G1 X118.821 Y92.115 E0.89054
G1 X121 Y93.374 E0.97425
G1 X122.263 Y94.055 E1.02197
G1 X123.049 Y94.493 E1.0519
G1 X123.876 Y95.005 E1.08425
G1 X124.6 Y95.545 E1.11429
G1 X125.11 Y95.984 E1.13667
G1 X125.402 Y96.253 E1.14988
G1 X126.064 Y96.919 E1.18111
G1 X126.683 Y97.659 E1.2132
G1 X127.028 Y98.136 E1.23278
G1 X127.473 Y98.805 E1.2595
G1 X127.727 Y99.214 E1.27551
G1 X128.042 Y99.756 E1.29636
G1 X128.426 Y100.466 E1.32321
G1 X128.78 Y101.169 E1.34939
G1 X129.152 Y102.029 E1.38055
G1 X129.468 Y102.974 E1.4137
G1 X129.618 Y103.564 E1.43394
G1 X129.701 Y103.943 E1.44685
G1 X129.868 Y104.901 E1.47919
G1 X129.946 Y105.801 E1.50924
G1 X129.956 Y106.461 E1.53119
G1 X129.943 Y107.301 E1.55913
G1 X129.907 Y108.573 E1.60146
G1 X129.93 Y112.31 E1.72575
G1 X129.961 Y113.529 E1.76631
G1 X129.941 Y114.501 E1.79865
G1 X129.846 Y115.399 E1.82868
G1 X129.641 Y116.431 E1.86368
G1 X129.324 Y117.489 E1.90041
G1 X129.194 Y117.85 E1.91317
G1 X128.823 Y118.752 E1.94561
G1 X128.579 Y119.247 E1.96397
G1 X128.176 Y120.013 E1.99276
G1 X127.807 Y120.656 E2.01741
G1 X127.534 Y121.099 E2.03472
G1 X127.114 Y121.741 E2.06024
G1 X126.529 Y122.542 E2.09323
G1 X125.936 Y123.223 E2.12326
G1 X125.478 Y123.679 E2.14476
G1 X125.19 Y123.948 E2.15786
G1 X124.477 Y124.559 E2.18909
G1 X123.662 Y125.142 E2.22242
G1 X123.052 Y125.509 E2.2461
G1 X122.372 Y125.887 E2.27198
G1 X121.187 Y126.526 E2.31676
G1 X119.006 Y127.782 E2.40046
G1 X117.507 Y128.703 E2.45898
G1 X116.829 Y129.109 E2.48526
G1 X115.971 Y129.567 E2.51761
G1 X115.108 Y129.937 E2.54884
G1 X114.154 Y130.249 E2.58223
G1 X113.353 Y130.439 E2.60961
G1 X112.96 Y130.516 E2.62293
G1 X112.011 Y130.66 E2.65485
G1 X111.425 Y130.707 E2.67441
G1 X110.248 Y130.752 E2.71358
G1 X109.648 Y130.75 E2.73354
G1 X109.156 Y130.733 E2.74991
G1 X108.343 Y130.687 E2.777
G1 X107.445 Y130.592 E2.80703
G1 X106.429 Y130.392 E2.84147
G1 X105.821 Y130.223 E2.86246
G1 X105.461 Y130.112 E2.87499
G1 X104.611 Y129.809 E2.905
G1 X103.665 Y129.374 E2.93963
G1 X102.992 Y128.994 E2.96534
G1 X101.179 Y127.885 E3.03603
G1 X99 Y126.626 E3.11973
G1 X97.737 Y125.945 E3.16745
G1 X96.951 Y125.507 E3.19738
G1 X96.124 Y124.995 E3.22973
G1 X95.4 Y124.455 E3.25977
G1 X94.89 Y124.016 E3.28215
G1 X94.598 Y123.747 E3.29536
G1 X93.936 Y123.081 E3.32659
G1 X93.298 Y122.318 E3.35967
G1 X92.973 Y121.866 E3.37819
G1 X92.516 Y121.178 E3.40566
G1 X92.263 Y120.77 E3.42163
G1 X91.948 Y120.227 E3.44251
G1 X91.57 Y119.529 E3.46891
G1 X91.247 Y118.89 E3.49272
G1 X90.863 Y118.01 E3.52466
G1 X90.544 Y117.057 E3.55808
G1 X90.315 Y116.126 E3.58997
G1 X90.147 Y115.203 E3.62117
G1 X90.055 Y114.209 E3.65437
G1 X90.044 Y113.539 E3.67666
G1 X90.057 Y112.699 E3.7046
G1 X90.093 Y111.427 E3.74693
G1 X90.07 Y107.674 E3.87176
G1 X90.039 Y106.471 E3.91178
G1 X90.059 Y105.499 E3.94412
G1 X90.154 Y104.601 E3.97415
G1 X90.359 Y103.569 E4.00915
G1 X90.676 Y102.513 E4.04582
G1 X90.8 Y102.166 E4.05807
G1 X91.354 Y100.882 E4.10458
G1 X91.706 Y100.2 E4.13011
G1 X91.918 Y99.813 E4.14479
G1 X92.211 Y99.311 E4.16412
G1 X92.628 Y98.648 E4.19017
G1 X92.889 Y98.254 E4.20589
G1 X93.462 Y97.467 E4.23827
G1 X94.055 Y96.786 E4.2683
G1 X94.538 Y96.306 E4.29095
G0 F6000 X94.811 Y96.598
G1 F1200 X95.087 Y96.34 E4.30352
G1 X95.802 Y95.731 E4.33475
G1 X96.563 Y95.19 E4.36581
G1 X97.154 Y94.835 E4.38874
G1 X97.818 Y94.465 E4.41402
G1 X99.013 Y93.821 E4.45917
G1 X101.209 Y92.556 E4.54346
G1 X102.704 Y91.637 E4.60183
G1 X103.357 Y91.246 E4.62714
G1 X104.183 Y90.802 E4.65834
G1 X105.046 Y90.431 E4.68958
G1 X105.936 Y90.14 E4.72072
G1 X106.747 Y89.947 E4.74845
G1 X107.121 Y89.874 E4.76112
G1 X108.014 Y89.739 E4.79116
G1 X108.723 Y89.687 E4.81481
G1 X109.593 Y89.653 E4.84377
G1 X110.336 Y89.65 E4.86848
G1 X110.82 Y89.666 E4.88458
G1 X111.617 Y89.711 E4.91114
G1 X112.515 Y89.807 E4.94117
G1 X113.464 Y89.994 E4.97334
G1 X114.05 Y90.156 E4.99357
G1 X114.396 Y90.262 E5.0056
G1 X115.28 Y90.578 E5.03683
G1 X116.13 Y90.97 E5.06796
G1 X116.799 Y91.347 E5.0935
G1 X118.612 Y92.456 E5.16419
G1 X120.81 Y93.726 E5.24862
G1 X122.069 Y94.405 E5.29619
G1 X122.839 Y94.833 E5.32549
G1 X123.637 Y95.326 E5.35669
G1 X124.361 Y95.866 E5.38673
G1 X124.839 Y96.278 E5.40772
G1 X125.118 Y96.535 E5.42034
G1 X125.78 Y97.201 E5.45157
G1 X126.359 Y97.894 E5.48161
G1 X126.695 Y98.358 E5.50066
G1 X127.133 Y99.016 E5.52695
G1 X127.381 Y99.415 E5.54258
G1 X127.69 Y99.947 E5.56304
G1 X128.069 Y100.646 E5.58949
G1 X128.413 Y101.328 E5.61489
G1 X128.785 Y102.188 E5.64606
G1 X129.08 Y103.073 E5.67708
G1 X129.227 Y103.651 E5.69692
G1 X129.307 Y104.012 E5.70922
G1 X129.469 Y104.936 E5.74042
G1 X129.547 Y105.836 E5.77047
G1 X129.556 Y106.455 E5.79106
G1 X129.543 Y107.29 E5.81883
G1 X129.507 Y108.562 E5.86116
G1 X129.53 Y112.32 E5.98615
G1 X129.561 Y113.521 E6.02611
G1 X129.543 Y114.459 E6.05731
G1 X129.448 Y115.357 E6.08735
G1 X129.258 Y116.316 E6.11986
G1 X128.947 Y117.354 E6.1559
G1 X128.824 Y117.698 E6.16805
G1 X128.464 Y118.575 E6.19958
G1 X128.225 Y119.061 E6.2176
G1 X127.829 Y119.814 E6.2459
G1 X127.467 Y120.446 E6.27012
G1 X127.199 Y120.88 E6.28708
G1 X126.791 Y121.505 E6.31191
G1 X126.227 Y122.279 E6.34376
G1 X125.634 Y122.96 E6.3738
G1 X125.205 Y123.387 E6.39393
G1 X124.929 Y123.645 E6.40649
G1 X124.244 Y124.234 E6.43654
G1 X123.455 Y124.799 E6.46882
G1 X122.858 Y125.159 E6.49201
G1 X122.182 Y125.535 E6.51773
G1 X120.987 Y126.179 E6.56288
G1 X118.806 Y127.435 E6.64659
G1 X117.302 Y128.36 E6.70532
G1 X116.64 Y128.756 E6.73098
G1 X115.813 Y129.199 E6.76218
G1 X114.95 Y129.569 E6.79341
G1 X114.061 Y129.86 E6.82452
G1 X113.276 Y130.047 E6.85136
G1 X112.9 Y130.121 E6.86411
G1 X111.979 Y130.261 E6.89509
G1 X111.41 Y130.307 E6.91408
G1 X110.249 Y130.352 E6.95272
G1 X109.661 Y130.35 E6.97228
G1 X109.179 Y130.334 E6.98832
G1 X108.385 Y130.289 E7.01477
G1 X107.487 Y130.194 E7.04481
G1 X106.536 Y130.007 E7.07704
G1 X105.939 Y129.841 E7.09765
G1 X105.595 Y129.735 E7.10962
G1 X104.745 Y129.432 E7.13964
G1 X103.862 Y129.026 E7.17196
G1 X103.201 Y128.653 E7.19721
G1 X101.388 Y127.544 E7.26789
G1 X99.19 Y126.274 E7.35233
G1 X97.931 Y125.595 E7.3999
G1 X97.161 Y125.167 E7.4292
G1 X96.363 Y124.674 E7.4604
G1 X95.639 Y124.134 E7.49044
G1 X95.161 Y123.722 E7.51143
G1 X94.882 Y123.465 E7.52405
G1 X94.22 Y122.799 E7.55528
G1 X93.623 Y122.084 E7.58626
G1 X93.298 Y121.632 E7.60478
G1 X92.856 Y120.967 E7.63133
G1 X92.609 Y120.569 E7.64691
G1 X92.3 Y120.037 E7.66738
G1 X91.927 Y119.348 E7.69343
G1 X91.614 Y118.73 E7.71648
G1 X91.23 Y117.85 E7.74841
G1 X90.932 Y116.962 E7.77956
G1 X90.709 Y116.054 E7.81066
G1 X90.541 Y115.131 E7.84186
G1 X90.455 Y114.202 E7.8729
G1 X90.444 Y113.545 E7.89475
G1 X90.457 Y112.71 E7.92253
G1 X90.493 Y111.438 E7.96485
G1 X90.47 Y107.672 E8.09011
G1 X90.439 Y106.479 E8.1298
G1 X90.457 Y105.541 E8.16101
G1 X90.552 Y104.643 E8.19104
G1 X90.742 Y103.684 E8.22356
G1 X91.053 Y102.648 E8.25953
G1 X91.177 Y102.301 E8.27179
G1 X91.709 Y101.066 E8.31652
G1 X92.057 Y100.392 E8.34174
G1 X92.263 Y100.015 E8.35603
G1 X92.55 Y99.524 E8.37495
G1 X92.962 Y98.868 E8.40071
G1 X93.212 Y98.489 E8.41581
G1 X93.764 Y97.73 E8.44703
G1 X94.357 Y97.049 E8.47706
G1 X94.811 Y96.598 E8.49835
G0 F6000 X95.084 Y96.89
G1 F1200 X95.347 Y96.644 E8.51033
G1 X96.034 Y96.057 E8.54038
G1 X96.769 Y95.533 E8.5704
G1 X97.349 Y95.184 E8.59292
G1 X98.008 Y94.817 E8.618
G1 X99.213 Y94.168 E8.66353
G1 X101.409 Y92.903 E8.74782
G1 X102.909 Y91.98 E8.8064
G1 X103.547 Y91.598 E8.83113
G1 X104.342 Y91.169 E8.86118
G1 X105.171 Y90.811 E8.89121
G1 X106.029 Y90.529 E8.92125
G1 X106.824 Y90.34 E8.94843
G1 X107.181 Y90.27 E8.96053
G1 X108.074 Y90.135 E8.99057
G1 X108.739 Y90.087 E9.01274
G1 X109.595 Y90.053 E9.04123
G1 X110.323 Y90.05 E9.06545
G1 X110.797 Y90.065 E9.08122
G1 X111.574 Y90.109 E9.10711
G1 X112.472 Y90.205 E9.13714
G1 X113.358 Y90.38 E9.16718
G1 X113.933 Y90.538 E9.18701
G1 X114.262 Y90.639 E9.19846
G1 X115.113 Y90.942 E9.22851
G1 X115.934 Y91.319 E9.25855
G1 X116.59 Y91.688 E9.28359
G1 X118.403 Y92.797 E9.35427
G1 X120.62 Y94.078 E9.43944
G1 X121.875 Y94.755 E9.48686
G1 X122.629 Y95.174 E9.51555
G1 X123.398 Y95.647 E9.54558
G1 X124.122 Y96.187 E9.57562
G1 X124.569 Y96.573 E9.59527
G1 X124.835 Y96.817 E9.60727
G1 X125.473 Y97.457 E9.63733
G1 X126.052 Y98.15 E9.66736
G1 X126.362 Y98.58 E9.685
G1 X126.793 Y99.227 E9.71085
G1 X127.035 Y99.616 E9.72609
G1 X127.338 Y100.138 E9.74616
G1 X127.712 Y100.827 E9.77224
G1 X128.046 Y101.487 E9.79684
G1 X128.406 Y102.315 E9.82687
G1 X128.692 Y103.172 E9.85692
G1 X128.839 Y103.75 E9.87676
G1 X128.913 Y104.082 E9.88807
G1 X129.07 Y104.971 E9.9181
G1 X129.148 Y105.871 E9.94814
G1 X129.156 Y106.449 E9.96737
G1 X129.143 Y107.279 E9.99498
G1 X129.107 Y108.551 E10.0373
G1 X129.13 Y112.33 E10.16299
G1 X129.161 Y113.514 E10.20239
G1 X129.145 Y114.417 E10.23243
G1 X129.05 Y115.315 E10.26246
G1 X128.875 Y116.201 E10.2925
G1 X128.57 Y117.219 E10.32784
G1 X128.447 Y117.563 E10.33999
G1 X128.105 Y118.399 E10.37004
G1 X127.871 Y118.875 E10.38768
G1 X127.482 Y119.615 E10.41548
G1 X127.127 Y120.236 E10.43928
G1 X126.864 Y120.661 E10.4559
G1 X126.456 Y121.286 E10.48072
G1 X125.925 Y122.016 E10.51075
G1 X125.332 Y122.697 E10.54078
G1 X124.931 Y123.095 E10.55957
G1 X124.668 Y123.342 E10.57157
G1 X123.983 Y123.931 E10.60162
G1 X123.248 Y124.456 E10.63166
G1 X122.651 Y124.816 E10.65485
G1 X121.992 Y125.183 E10.67994
G1 X120.787 Y125.832 E10.72546
G1 X118.606 Y127.088 E10.80917
G1 X117.097 Y128.017 E10.86811
G1 X116.45 Y128.404 E10.89318
G1 X115.655 Y128.832 E10.92321
G1 X114.825 Y129.189 E10.95326
G1 X113.968 Y129.471 E10.98327
G1 X113.198 Y129.655 E11.0096
G1 X112.84 Y129.726 E11.02174
G1 X111.947 Y129.862 E11.05179
G1 X111.394 Y129.907 E11.07024
G1 X110.25 Y129.952 E11.10832
G1 X109.674 Y129.95 E11.12748
G1 X109.202 Y129.935 E11.14318
G1 X108.427 Y129.891 E11.169
G1 X107.529 Y129.796 E11.19904
G1 X106.643 Y129.621 E11.22907
G1 X106.057 Y129.459 E11.24929
G1 X105.729 Y129.358 E11.26071
G1 X104.879 Y129.055 E11.29072
G1 X104.058 Y128.677 E11.32078
G1 X103.41 Y128.312 E11.34552
G1 X101.597 Y127.203 E11.41621
G1 X99.38 Y125.922 E11.50137
G1 X98.125 Y125.245 E11.5488
G1 X97.371 Y124.826 E11.57749
G1 X96.602 Y124.353 E11.60752
G1 X95.878 Y123.813 E11.63756
G1 X95.431 Y123.427 E11.6572
G1 X95.165 Y123.183 E11.66921
G1 X94.527 Y122.543 E11.69926
G1 X93.948 Y121.85 E11.7293
G1 X93.631 Y121.41 E11.74733
G1 X93.196 Y120.756 E11.77346
G1 X92.955 Y120.368 E11.78865
G1 X92.652 Y119.846 E11.80873
G1 X92.284 Y119.167 E11.83441
G1 X91.971 Y118.549 E11.85745
G1 X91.609 Y117.722 E11.88748
G1 X91.32 Y116.866 E11.91753
G1 X91.102 Y115.982 E11.94781
G1 X90.939 Y115.094 E11.97784
G1 X90.855 Y114.195 E12.00787
G1 X90.844 Y113.551 E12.02929
G1 X90.857 Y112.721 E12.0569
G1 X90.893 Y111.449 E12.09923
G1 X90.87 Y107.67 E12.22492
G1 X90.839 Y106.486 E12.26431
G1 X90.855 Y105.583 E12.29435
G1 X90.95 Y104.685 E12.32439
G1 X91.125 Y103.799 E12.35442
G1 X91.43 Y102.783 E12.38971
G1 X91.554 Y102.436 E12.40196
G1 X92.064 Y101.25 E12.4449
G1 X92.408 Y100.584 E12.46983
G1 X92.609 Y100.217 E12.48375
G1 X92.889 Y99.737 E12.50223
G1 X93.296 Y99.088 E12.52771
G1 X93.536 Y98.724 E12.54221
G1 X94.066 Y97.993 E12.57224
G1 X94.659 Y97.312 E12.60228
G1 X95.084 Y96.89 E12.6222
G1 F1500 E6.1222
;MESH:Connecting_Screw_Short.STL
G0 F6000 X101.349 Y105.832
G0 X109.002 Y118.299
;TYPE:WALL-INNER
G1 F1500 E12.6222
G1 F1200 X109.997 Y118.339 E12.65532
G1 X110.672 Y118.311 E12.67779
G1 X111.078 Y118.253 E12.69143
G1 X111.663 Y117.452 E12.72442
G1 X112.214 Y116.86 E12.75132
G1 X112.751 Y116.404 E12.77475
G1 X113.438 Y115.947 E12.80219
G1 X114.127 Y115.602 E12.82782
G1 X114.832 Y115.349 E12.85273
G1 X115.662 Y115.162 E12.88103
G1 X116.575 Y115.063 E12.91158
G1 X116.688 Y115.015 E12.91566
G1 X117.227 Y114.159 E12.9493
G1 X117.529 Y113.583 E12.97094
G1 X117.691 Y113.184 E12.98526
G1 X117.299 Y112.319 E13.01685
G1 X117.055 Y111.548 E13.04374
G1 X116.914 Y110.77 E13.07004
G1 X116.869 Y110.001 E13.09566
G1 X116.914 Y109.23 E13.12135
G1 X117.055 Y108.452 E13.14765
G1 X117.276 Y107.743 E13.17235
G1 X117.672 Y106.836 E13.20526
G1 X117.686 Y106.714 E13.20935
G1 X117.216 Y105.82 E13.24294
G1 X116.869 Y105.273 E13.26449
G1 X116.605 Y104.933 E13.2788
G1 X115.594 Y104.827 E13.31261
G1 X114.829 Y104.65 E13.33873
G1 X114.127 Y104.398 E13.36354
G1 X113.453 Y104.061 E13.3886
G1 X112.782 Y103.62 E13.41531
G1 X112.158 Y103.085 E13.44265
G1 X111.661 Y102.547 E13.46701
G1 X111.096 Y101.776 E13.4988
G1 X110.996 Y101.7 E13.50298
G1 X110.003 Y101.661 E13.53603
G1 X109.327 Y101.689 E13.55853
G1 X108.921 Y101.746 E13.57217
G1 X108.337 Y102.548 E13.60516
G1 X107.786 Y103.14 E13.63206
G1 X107.249 Y103.596 E13.6555
G1 X106.562 Y104.053 E13.68294
G1 X105.873 Y104.398 E13.70857
G1 X105.168 Y104.651 E13.73348
G1 X104.338 Y104.838 E13.76178
G1 X103.425 Y104.937 E13.79232
G1 X103.311 Y104.986 E13.79645
G1 X102.773 Y105.841 E13.83005
G1 X102.471 Y106.417 E13.85168
G1 X102.31 Y106.814 E13.86593
G1 X102.701 Y107.681 E13.89756
G1 X102.945 Y108.452 E13.92446
G1 X103.086 Y109.23 E13.95076
G1 X103.131 Y110.038 E13.97767
G1 X103.086 Y110.77 E14.00206
G1 X102.945 Y111.548 E14.02836
G1 X102.724 Y112.257 E14.05306
G1 X102.328 Y113.164 E14.08598
G1 X102.314 Y113.286 E14.09006
G1 X102.784 Y114.18 E14.12366
G1 X103.131 Y114.727 E14.1452
G1 X103.396 Y115.067 E14.15954
G1 X104.406 Y115.173 E14.19332
G1 X105.171 Y115.35 E14.21943
G1 X105.873 Y115.602 E14.24424
G1 X106.562 Y115.947 E14.26987
G1 X107.218 Y116.38 E14.29601
G1 X107.842 Y116.915 E14.32335
G1 X108.318 Y117.428 E14.34663
G1 X108.904 Y118.224 E14.3795
G1 X109.002 Y118.299 E14.38361
G0 F6000 X108.807 Y118.653
;TYPE:WALL-OUTER
G1 F1200 X109.083 Y118.703 E14.39294
G1 X109.997 Y118.739 E14.42336
