;FLAVOR:Marlin
;TIME:3782
;Filament used: 2.35529m
;Layer height: 0.2
;MINX:68.75
;MINY:80.5
;MINZ:0.2
;MAXX:151.239
;MAXY:139.5
;MAXZ:21
;TARGET_MACHINE.NAME:Creality Ender-3 Pro
;Generated with Cura_SteamEngine 5.6.0
M82 ;absolute extrusion mode
; Ender 3 Custom Start G-code
G92 E0 ; Reset Extruder
G28 ; Home all axes
G1 Z5.0 F3000 ; Move Z Axis up a bit during heating to not damage bed
M104 S175 ; Start heating up the nozzle most of the way
M190 S60 ; Start heating the bed, wait until target temperature reached
M109 S200 ; Finish heating the nozzle
G1 Z2.0 F3000 ; Move Z Axis up little to prevent scratching of Heat Bed
G1 X0.1 Y20 Z0.3 F5000.0 ; Move to start position
G1 X0.1 Y200.0 Z0.3 F1500.0 E15 ; Draw the first line
G1 X0.4 Y200.0 Z0.3 F5000.0 ; Move to side a little
G1 X0.4 Y20 Z0.3 F1500.0 E30 ; Draw the second line
G92 E0 ; Reset Extruder
G1 Z2.0 F3000 ; Move Z Axis up little to prevent scratching of Heat Bed
G1 X5 Y20 Z0.3 F5000.0 ; Move over to prevent blob squish
G92 E0
G92 E0
G1 F1500 E-6.5
;LAYER_COUNT:105
;LAYER:0
M107
G0 F6000 X74.005 Y84.655 Z0.2
;TYPE:SKIRT
G1 F1500 E0
G1 F1200 X74.754 Y84.027 E0.03251
G1 X75.427 Y83.515 E0.06064
G1 X76.531 Y82.78 E0.10475
G1 X76.919 Y82.555 E0.11967
G1 X77.653 Y82.167 E0.14728
G1 X78.526 Y81.772 E0.17915
G1 X78.991 Y81.584 E0.19583
G1 X79.8 Y81.288 E0.22448
G1 X80.802 Y81.006 E0.2591
G1 X81.347 Y80.877 E0.27773
G1 X82.231 Y80.708 E0.30767
G1 X82.54 Y80.663 E0.31805
G1 X83.415 Y80.571 E0.34732
G1 X84.201 Y80.531 E0.37349
G1 X85.802 Y80.5 E0.42675
G1 X121.039 Y80.506 E1.59874
G1 X121.764 Y80.518 E1.62286
G1 X122.644 Y80.567 E1.65217
G1 X123.029 Y80.606 E1.66504
G1 X123.773 Y80.706 E1.69001
G1 X124.065 Y80.755 E1.69986
G1 X124.764 Y80.899 E1.72359
G1 X125.318 Y81.033 E1.74255
G1 X126.645 Y81.443 E1.78875
G1 X127.222 Y81.665 E1.80931
G1 X128.324 Y82.161 E1.8495
G1 X128.812 Y82.414 E1.86779
G1 X129.608 Y82.873 E1.89835
G1 X130.13 Y83.205 E1.91892
G1 X130.87 Y83.722 E1.94895
G1 X131.284 Y84.053 E1.96658
G1 X131.816 Y84.501 E1.98971
G1 X132.644 Y85.276 E2.02743
G1 X134.533 Y87.244 E2.11816
G1 X136.33 Y89.018 E2.20215
G1 X138.152 Y90.72 E2.28507
G1 X140.047 Y92.389 E2.36906
G1 X141.999 Y94.014 E2.45354
G1 X143.841 Y95.465 E2.53153
G1 X144.448 Y95.932 E2.557
G1 X145.153 Y96.524 E2.58762
G1 X145.645 Y96.975 E2.60982
G1 X146.3 Y97.632 E2.64067
G1 X146.747 Y98.122 E2.66273
G1 X147.337 Y98.825 E2.69326
G1 X147.777 Y99.398 E2.71729
G1 X148.255 Y100.077 E2.74491
G1 X148.438 Y100.359 E2.75609
G1 X148.843 Y101.028 E2.7821
G1 X149.219 Y101.716 E2.80818
G1 X149.561 Y102.412 E2.83397
G1 X149.898 Y103.181 E2.86189
G1 X150.214 Y104.014 E2.89153
G1 X150.506 Y104.939 E2.92379
G1 X150.732 Y105.783 E2.95285
G1 X150.92 Y106.621 E2.98141
G1 X151.047 Y107.363 E3.00645
G1 X151.146 Y108.153 E3.03293
G1 X151.21 Y108.937 E3.0591
G1 X151.239 Y109.731 E3.08552
G1 X151.231 Y110.577 E3.11366
G1 X151.212 Y110.994 E3.12754
G1 X151.135 Y111.878 E3.15706
G1 X151.048 Y112.555 E3.17976
G1 X150.909 Y113.385 E3.20775
G1 X150.804 Y113.885 E3.22474
G1 X150.658 Y114.497 E3.24567
G1 X150.494 Y115.105 E3.26661
G1 X150.25 Y115.883 E3.29373
G1 X149.985 Y116.605 E3.31931
G1 X149.866 Y116.898 E3.32983
G1 X149.579 Y117.543 E3.35331
G1 X149.297 Y118.126 E3.37485
G1 X148.867 Y118.927 E3.40509
G1 X148.535 Y119.484 E3.42666
G1 X147.874 Y120.464 E3.46597
G1 X147.364 Y121.137 E3.49406
G1 X146.725 Y121.904 E3.52726
G1 X146.277 Y122.393 E3.54932
G1 X145.621 Y123.048 E3.58015
G1 X145.128 Y123.5 E3.6024
G1 X144.421 Y124.091 E3.63305
G1 X143.879 Y124.507 E3.65577
G1 X141.874 Y126.091 E3.74076
G1 X139.93 Y127.715 E3.82501
G1 X138.035 Y129.394 E3.90922
G1 X136.206 Y131.108 E3.99259
G1 X134.425 Y132.876 E4.07606
G1 X133.733 Y133.604 E4.10946
G1 X132.598 Y134.77 E4.16358
G1 X132.03 Y135.31 E4.18965
G1 X131.7 Y135.6 E4.20426
G1 X131.156 Y136.048 E4.2277
G1 X130.83 Y136.298 E4.24137
G1 X130.11 Y136.804 E4.27063
G1 X129.687 Y137.076 E4.28736
G1 X128.915 Y137.527 E4.3171
G1 X128.526 Y137.733 E4.33174
G1 X127.606 Y138.166 E4.36556
G1 X127.075 Y138.384 E4.38465
G1 X126.181 Y138.708 E4.41628
G1 X125.855 Y138.809 E4.42763
G1 X125.099 Y139.015 E4.45369
G1 X124.589 Y139.133 E4.4711
G1 X123.598 Y139.313 E4.5046
G1 X123.14 Y139.375 E4.51997
G1 X122.116 Y139.461 E4.55415
G1 X120.848 Y139.5 E4.59634
G1 X84.96 Y139.494 E5.78998
G1 X84.234 Y139.482 E5.81413
G1 X83.279 Y139.425 E5.84595
G1 X82.823 Y139.376 E5.86121
G1 X82.068 Y139.268 E5.88658
G1 X81.216 Y139.097 E5.91548
G1 X80.662 Y138.962 E5.93444
G1 X79.343 Y138.551 E5.98039
G1 X78.797 Y138.342 E5.99984
G1 X77.687 Y137.845 E6.04029
G1 X77.208 Y137.597 E6.05823
G1 X76.377 Y137.119 E6.09012
G1 X75.844 Y136.779 E6.11114
G1 X74.753 Y135.979 E6.15614
G1 X74.132 Y135.456 E6.18314
G1 X73.447 Y134.825 E6.21412
G1 X72.985 Y134.333 E6.23657
G1 X72.671 Y133.976 E6.25238
G1 X72.244 Y133.457 E6.27473
G1 X71.962 Y133.093 E6.29005
G1 X71.442 Y132.356 E6.32005
G1 X71.165 Y131.923 E6.33715
G1 X70.7 Y131.126 E6.36784
G1 X70.498 Y130.739 E6.38236
G1 X70.074 Y129.832 E6.41566
G1 X69.855 Y129.297 E6.43488
G1 X69.536 Y128.413 E6.46614
G1 X69.438 Y128.096 E6.47718
G1 X69.232 Y127.335 E6.5034
G1 X69.111 Y126.811 E6.52129
G1 X68.939 Y125.868 E6.55317
G1 X68.875 Y125.391 E6.56917
G1 X68.79 Y124.39 E6.60259
G1 X68.75 Y123.148 E6.64392
G1 X68.751 Y97.08 E7.51094
G1 X68.768 Y95.989 E7.54723
G1 X68.835 Y94.954 E7.58173
G1 X68.902 Y94.366 E7.60141
G1 X69.108 Y93.167 E7.64188
G1 X69.232 Y92.633 E7.66011
G1 X69.449 Y91.841 E7.68742
G1 X69.754 Y90.954 E7.71862
G1 X69.964 Y90.419 E7.73774
G1 X70.51 Y89.241 E7.78092
G1 X70.893 Y88.533 E7.80769
G1 X71.501 Y87.543 E7.84634
G1 X71.729 Y87.214 E7.85965
G1 X72.302 Y86.464 E7.89104
G1 X72.672 Y86.023 E7.91019
G1 X73.202 Y85.434 E7.93654
G1 X73.77 Y84.87 E7.96316
G1 X74.005 Y84.655 E7.97376
G0 F6000 X74.262 Y84.962
G1 F1200 X75.011 Y84.334 E8.00627
G1 X75.649 Y83.848 E8.03294
G1 X76.732 Y83.126 E8.07623
G1 X77.106 Y82.909 E8.09062
G1 X77.84 Y82.521 E8.11823
G1 X78.676 Y82.143 E8.14875
G1 X79.128 Y81.96 E8.16496
G1 X79.937 Y81.664 E8.19362
G1 X80.894 Y81.395 E8.22668
G1 X81.422 Y81.27 E8.24473
G1 X82.289 Y81.104 E8.27409
G1 X82.582 Y81.061 E8.28394
G1 X83.457 Y80.969 E8.3132
G1 X84.209 Y80.931 E8.33824
G1 X85.802 Y80.9 E8.39124
G1 X121.033 Y80.906 E9.56302
G1 X121.742 Y80.917 E9.58661
G1 X122.604 Y80.965 E9.61532
G1 X122.976 Y81.002 E9.62776
G1 X123.706 Y81.1 E9.65226
G1 X123.984 Y81.147 E9.66163
G1 X124.67 Y81.288 E9.68493
G1 X125.224 Y81.422 E9.70388
G1 X126.502 Y81.817 E9.74837
G1 X127.058 Y82.03 E9.76818
G1 X128.14 Y82.516 E9.80763
G1 X128.612 Y82.761 E9.82532
G1 X129.394 Y83.211 E9.85532
G1 X129.901 Y83.533 E9.8753
G1 X130.641 Y84.05 E9.90533
G1 X131.027 Y84.359 E9.92177
G1 X131.543 Y84.793 E9.9442
G1 X132.355 Y85.553 E9.98119
G1 X134.252 Y87.529 E10.07229
G1 X136.049 Y89.303 E10.15628
G1 X137.888 Y91.02 E10.23996
G1 X139.791 Y92.696 E10.3243
G1 X141.751 Y94.328 E10.40913
G1 X143.597 Y95.782 E10.48729
G1 X144.191 Y96.238 E10.5122
G1 X144.883 Y96.819 E10.54225
G1 X145.362 Y97.258 E10.56386
G1 X146.005 Y97.902 E10.59413
G1 X146.441 Y98.379 E10.61562
G1 X147.02 Y99.069 E10.64558
G1 X147.45 Y99.629 E10.66906
G1 X147.92 Y100.295 E10.69617
G1 X148.096 Y100.566 E10.70692
G1 X148.492 Y101.22 E10.73235
G1 X148.86 Y101.893 E10.75786
G1 X149.195 Y102.573 E10.78308
G1 X149.524 Y103.323 E10.81031
G1 X149.84 Y104.156 E10.83995
G1 X150.12 Y105.043 E10.87088
G1 X150.342 Y105.871 E10.8994
G1 X150.526 Y106.689 E10.92728
G1 X150.65 Y107.413 E10.95171
G1 X150.747 Y108.186 E10.97763
G1 X150.81 Y108.952 E11.00319
G1 X150.839 Y109.727 E11.02898
G1 X150.831 Y110.559 E11.05666
G1 X150.813 Y110.96 E11.07001
G1 X150.738 Y111.827 E11.09895
G1 X150.651 Y112.504 E11.12165
G1 X150.517 Y113.303 E11.1486
G1 X150.415 Y113.792 E11.16521
G1 X150.272 Y114.393 E11.18576
G1 X150.112 Y114.986 E11.20619
G1 X149.875 Y115.745 E11.23264
G1 X149.614 Y116.455 E11.2578
G1 X149.501 Y116.735 E11.26784
G1 X149.219 Y117.369 E11.29092
G1 X148.945 Y117.937 E11.31189
G1 X148.523 Y118.723 E11.34157
G1 X148.203 Y119.261 E11.36239
G1 X147.555 Y120.223 E11.40096
G1 X147.057 Y120.881 E11.42841
G1 X146.43 Y121.634 E11.461
G1 X145.994 Y122.11 E11.48247
G1 X145.351 Y122.753 E11.51271
G1 X144.871 Y123.193 E11.53437
G1 X144.177 Y123.774 E11.56448
G1 X143.635 Y124.19 E11.5872
G1 X141.617 Y125.784 E11.67273
G1 X139.673 Y127.409 E11.757
G1 X137.762 Y129.102 E11.84192
G1 X135.924 Y130.824 E11.92569
G1 X134.143 Y132.592 E12.00916
G1 X133.446 Y133.325 E12.0428
G1 X132.322 Y134.48 E12.0964
G1 X131.754 Y135.02 E12.12247
G1 X131.446 Y135.291 E12.13611
G1 X130.912 Y135.731 E12.15913
G1 X130.6 Y135.971 E12.17222
G1 X129.894 Y136.468 E12.20094
G1 X129.485 Y136.731 E12.21711
G1 X128.728 Y137.174 E12.24628
G1 X128.356 Y137.371 E12.26028
G1 X127.454 Y137.796 E12.29345
G1 X126.939 Y138.008 E12.31197
G1 X126.062 Y138.326 E12.343
G1 X125.75 Y138.423 E12.35387
G1 X125.008 Y138.625 E12.37944
G1 X124.518 Y138.739 E12.39618
G1 X123.527 Y138.919 E12.42968
G1 X123.106 Y138.976 E12.44381
G1 X122.104 Y139.061 E12.47725
G1 X120.848 Y139.1 E12.51905
G1 X84.966 Y139.094 E13.71249
G1 X84.258 Y139.083 E13.73604
G1 X83.321 Y139.027 E13.76726
G1 X82.879 Y138.98 E13.78204
G1 X82.147 Y138.876 E13.80663
G1 X81.311 Y138.708 E13.83499
G1 X80.757 Y138.573 E13.85396
G1 X79.486 Y138.177 E13.89824
G1 X78.94 Y137.968 E13.91768
G1 X77.871 Y137.49 E13.95663
G1 X77.407 Y137.25 E13.97401
G1 X76.592 Y136.782 E14.00526
G1 X76.081 Y136.456 E14.02542
G1 X74.99 Y135.656 E14.07042
G1 X74.403 Y135.162 E14.09594
G1 X73.718 Y134.531 E14.12691
G1 X73.285 Y134.068 E14.148
G1 X72.98 Y133.722 E14.16334
G1 X72.56 Y133.212 E14.18531
G1 X72.289 Y132.862 E14.20004
G1 X71.779 Y132.14 E14.22944
G1 X71.51 Y131.721 E14.246
G1 X71.054 Y130.94 E14.27608
G1 X70.86 Y130.57 E14.28997
G1 X70.444 Y129.68 E14.32265
G1 X70.231 Y129.161 E14.34131
G1 X69.918 Y128.295 E14.37193
G1 X69.824 Y127.991 E14.38252
G1 X69.622 Y127.245 E14.40822
G1 X69.505 Y126.739 E14.4255
G1 X69.333 Y125.796 E14.45738
G1 X69.274 Y125.357 E14.47211
G1 X69.19 Y124.377 E14.50483
G1 X69.15 Y123.148 E14.54572
G1 X69.151 Y97.086 E15.41255
G1 X69.167 Y96.015 E15.44818
G1 X69.232 Y94.999 E15.48204
G1 X69.296 Y94.434 E15.50095
G1 X69.498 Y93.257 E15.54067
G1 X69.618 Y92.739 E15.55835
G1 X69.835 Y91.947 E15.58567
G1 X70.126 Y91.1 E15.61545
G1 X70.327 Y90.587 E15.63378
G1 X70.862 Y89.431 E15.67615
G1 X71.234 Y88.742 E15.70219
G1 X71.842 Y87.752 E15.74083
G1 X72.047 Y87.457 E15.75278
G1 X72.62 Y86.707 E15.78417
G1 X72.97 Y86.29 E15.80228
G1 X73.484 Y85.718 E15.82786
G1 X74.041 Y85.165 E15.85396
G1 X74.262 Y84.962 E15.86394
G0 F6000 X74.519 Y85.268
G1 F1200 X75.253 Y84.652 E15.89581
G1 X75.871 Y84.181 E15.92166
G1 X76.933 Y83.472 E15.96413
G1 X77.293 Y83.263 E15.97797
G1 X78.013 Y82.882 E16.00507
G1 X78.266 Y82.761 E16.01439
G1 X78.827 Y82.514 E16.03478
G1 X79.265 Y82.336 E16.05051
G1 X80.074 Y82.04 E16.07916
G1 X80.986 Y81.784 E16.11066
G1 X81.497 Y81.663 E16.12813
G1 X82.348 Y81.5 E16.15695
G1 X82.624 Y81.459 E16.16623
G1 X83.499 Y81.367 E16.19549
G1 X84.217 Y81.331 E16.2194
G1 X85.802 Y81.3 E16.27213
G1 X121.027 Y81.306 E17.44372
G1 X121.72 Y81.316 E17.46677
G1 X122.565 Y81.363 E17.49492
G1 X122.923 Y81.398 E17.50688
G1 X123.639 Y81.494 E17.53091
G1 X123.904 Y81.539 E17.53985
G1 X124.577 Y81.677 E17.5627
G1 X125.106 Y81.804 E17.58079
G1 X126.359 Y82.191 E17.62441
G1 X126.894 Y82.395 E17.64346
G1 X127.956 Y82.871 E17.68216
G1 X128.413 Y83.108 E17.69929
G1 X129.18 Y83.549 E17.72871
G1 X129.672 Y83.861 E17.74809
G1 X130.412 Y84.378 E17.77811
G1 X130.77 Y84.665 E17.79337
G1 X131.27 Y85.085 E17.81509
G1 X132.066 Y85.83 E17.85136
G1 X133.971 Y87.814 E17.94284
G1 X135.768 Y89.588 E18.02682
G1 X137.624 Y91.32 E18.11126
G1 X139.535 Y93.003 E18.19595
G1 X141.495 Y94.635 E18.28078
G1 X143.354 Y96.099 E18.35949
G1 X143.934 Y96.544 E18.3838
G1 X144.613 Y97.114 E18.41329
G1 X145.079 Y97.541 E18.43431
G1 X145.71 Y98.172 E18.46399
G1 X146.135 Y98.636 E18.48492
G1 X146.703 Y99.313 E18.51431
G1 X147.123 Y99.86 E18.53725
G1 X147.585 Y100.513 E18.56385
G1 X147.754 Y100.773 E18.57417
G1 X148.141 Y101.412 E18.59901
G1 X148.501 Y102.07 E18.62396
G1 X148.829 Y102.734 E18.64859
G1 X149.15 Y103.465 E18.67515
G1 X149.466 Y104.298 E18.70478
G1 X149.734 Y105.147 E18.73439
G1 X149.952 Y105.959 E18.76235
G1 X150.132 Y106.757 E18.78956
G1 X150.253 Y107.463 E18.81339
G1 X150.348 Y108.219 E18.83873
G1 X150.41 Y108.967 E18.86369
G1 X150.439 Y109.723 E18.88885
G1 X150.431 Y110.541 E18.91606
G1 X150.414 Y110.926 E18.92888
G1 X150.341 Y111.776 E18.95726
G1 X150.254 Y112.453 E18.97996
G1 X150.125 Y113.222 E19.00589
G1 X150.026 Y113.7 E19.02213
G1 X149.886 Y114.289 E19.04226
G1 X149.73 Y114.867 E19.06218
G1 X149.499 Y115.607 E19.08796
G1 X149.243 Y116.305 E19.11269
G1 X149.135 Y116.573 E19.1223
G1 X148.859 Y117.195 E19.14493
G1 X148.592 Y117.748 E19.16536
G1 X148.179 Y118.519 E19.19445
G1 X147.871 Y119.038 E19.21452
G1 X147.236 Y119.982 E19.25236
G1 X146.75 Y120.625 E19.27917
G1 X146.135 Y121.364 E19.31114
G1 X145.711 Y121.827 E19.33203
G1 X145.081 Y122.458 E19.36168
G1 X144.614 Y122.886 E19.38275
G1 X143.933 Y123.457 E19.41231
G1 X143.391 Y123.873 E19.43503
G1 X141.36 Y125.477 E19.52111
G1 X139.416 Y127.103 E19.60541
G1 X137.489 Y128.81 E19.69103
G1 X135.642 Y130.54 E19.7752
G1 X133.861 Y132.308 E19.85867
G1 X133.159 Y133.046 E19.89254
G1 X132.046 Y134.19 E19.94563
G1 X131.478 Y134.73 E19.9717
G1 X131.192 Y134.982 E19.98437
G1 X130.668 Y135.414 E20.00696
G1 X130.369 Y135.644 E20.01951
G1 X129.677 Y136.132 E20.04767
G1 X129.283 Y136.386 E20.06326
G1 X128.54 Y136.821 E20.0919
G1 X128.186 Y137.009 E20.10523
G1 X127.301 Y137.426 E20.13777
G1 X126.803 Y137.632 E20.1557
G1 X125.943 Y137.944 E20.18612
G1 X125.645 Y138.037 E20.19651
G1 X124.917 Y138.235 E20.2216
G1 X124.427 Y138.349 E20.23833
G1 X123.474 Y138.523 E20.27055
G1 X123.072 Y138.577 E20.28404
G1 X122.091 Y138.661 E20.31679
G1 X120.848 Y138.7 E20.35815
G1 X84.972 Y138.694 E21.55139
G1 X84.282 Y138.684 E21.57435
G1 X83.363 Y138.629 E21.60497
G1 X82.935 Y138.584 E21.61928
G1 X82.226 Y138.484 E21.6431
G1 X81.405 Y138.319 E21.67095
G1 X80.876 Y138.191 E21.68905
G1 X79.629 Y137.803 E21.73249
G1 X79.083 Y137.594 E21.75193
G1 X78.054 Y137.134 E21.78942
G1 X77.606 Y136.903 E21.80619
G1 X76.807 Y136.444 E21.83683
G1 X76.318 Y136.133 E21.85611
G1 X75.227 Y135.333 E21.90111
G1 X74.674 Y134.868 E21.92514
G1 X74.01 Y134.257 E21.95515
G1 X73.585 Y133.804 E21.97581
G1 X73.289 Y133.468 E21.9907
G1 X72.876 Y132.967 E22.0123
G1 X72.616 Y132.631 E22.02643
G1 X72.106 Y131.909 E22.05583
G1 X71.855 Y131.519 E22.07125
G1 X71.408 Y130.754 E22.10072
G1 X71.222 Y130.401 E22.11399
G1 X70.814 Y129.528 E22.14604
G1 X70.607 Y129.025 E22.16414
G1 X70.3 Y128.176 E22.19416
G1 X70.21 Y127.887 E22.20423
G1 X70.012 Y127.155 E22.22945
G1 X69.899 Y126.667 E22.24611
G1 X69.727 Y125.724 E22.27799
G1 X69.673 Y125.322 E22.29148
G1 X69.59 Y124.364 E22.32347
G1 X69.55 Y123.148 E22.36393
G1 X69.551 Y97.092 E23.23056
G1 X69.566 Y96.04 E23.26555
G1 X69.629 Y95.044 E23.29875
G1 X69.69 Y94.502 E23.31689
G1 X69.888 Y93.347 E23.35586
G1 X70.004 Y92.845 E23.373
G1 X70.221 Y92.053 E23.40031
G1 X70.499 Y91.245 E23.42873
G1 X70.69 Y90.755 E23.44622
G1 X71.214 Y89.621 E23.48777
G1 X71.575 Y88.951 E23.51309
G1 X72.171 Y87.98 E23.55098
G1 X72.365 Y87.7 E23.56231
G1 X72.938 Y86.95 E23.5937
G1 X73.268 Y86.557 E23.61077
G1 X73.766 Y86.002 E23.63557
G1 X74.312 Y85.459 E23.66118
G1 X74.519 Y85.268 E23.67055
G1 F1500 E17.17055
;MESH:Suction_holderRA.stl
G0 F6000 X79.952 Y93.489
G0 X83.647 Y100.819
;TYPE:WALL-INNER
G1 F1500 E23.67055
