;FLAVOR:Marlin
;TIME:9690
;Filament used: 5.13366m
;Layer height: 0.2
;MINX:62.024
;MINY:77.829
;MINZ:0.2
;MAXX:150.682
;MAXY:149.397
;MAXZ:31
;TARGET_MACHINE.NAME:Creality Ender-3 Pro
;Generated with Cura_SteamEngine 5.6.0
M82 ;absolute extrusion mode
; Ender 3 Custom Start G-code
G92 E0 ; Reset Extruder
G28 ; Home all axes
G1 Z5.0 F3000 ; Move Z Axis up a bit during heating to not damage bed
M104 S175 ; Start heating up the nozzle most of the way
M190 S60 ; Start heating the bed, wait until target temperature reached
M109 S200 ; Finish heating the nozzle
G1 Z2.0 F3000 ; Move Z Axis up little to prevent scratching of Heat Bed
G1 X0.1 Y20 Z0.3 F5000.0 ; Move to start position
G1 X0.1 Y200.0 Z0.3 F1500.0 E15 ; Draw the first line
G1 X0.4 Y200.0 Z0.3 F5000.0 ; Move to side a little
G1 X0.4 Y20 Z0.3 F1500.0 E30 ; Draw the second line
G92 E0 ; Reset Extruder
G1 Z2.0 F3000 ; Move Z Axis up little to prevent scratching of Heat Bed
G1 X5 Y20 Z0.3 F5000.0 ; Move over to prevent blob squish
G92 E0
G92 E0
G1 F1500 E-6.5
;LAYER_COUNT:155
;LAYER:0
M107
G0 F6000 X74.148 Y85.108 Z0.2
;TYPE:SKIRT
G1 F1500 E0
G1 F1200 X74.875 Y84.507 E0.03137
G1 X75.863 Y83.841 E0.071
G1 X77.223 Y83.035 E0.12358
G1 X77.829 Y82.696 E0.14668
G1 X78.702 Y82.26 E0.17913
G1 X79.68 Y81.878 E0.21406
G1 X80.01 Y81.768 E0.22563
G1 X80.879 Y81.521 E0.25567
G1 X81.666 Y81.361 E0.28238
G1 X81.967 Y81.313 E0.29252
G1 X82.935 Y81.199 E0.32494
G1 X83.896 Y81.172 E0.35692
G1 X84.505 Y81.199 E0.37719
G1 X84.917 Y81.229 E0.39093
G1 X86.17 Y81.396 E0.43297
G1 X87.065 Y81.569 E0.46329
G1 X89.608 Y82.022 E0.54921
G1 X92.112 Y82.394 E0.6334
G1 X94.639 Y82.699 E0.71806
G1 X97.083 Y82.923 E0.79969
G1 X99.619 Y83.082 E0.8842
G1 X102.15 Y83.17 E0.96844
G1 X104.644 Y83.186 E1.05139
G1 X107.194 Y83.129 E1.13622
G1 X109.672 Y83.006 E1.21874
G1 X112.209 Y82.807 E1.30338
G1 X114.712 Y82.539 E1.38711
G1 X117.189 Y82.202 E1.47025
G1 X119.663 Y81.794 E1.55365
G1 X122.188 Y81.307 E1.63918
G1 X124.584 Y80.769 E1.72086
G1 X127.022 Y80.153 E1.80449
G1 X129.484 Y79.454 E1.88961
G1 X132.711 Y78.436 E2.00216
G1 X133.44 Y78.236 E2.0273
G1 X133.762 Y78.16 E2.03831
G1 X134.905 Y77.948 E2.07697
G1 X135.982 Y77.847 E2.11295
G1 X136.282 Y77.834 E2.12294
G1 X137.314 Y77.829 E2.15726
G1 X138.348 Y77.911 E2.19176
G1 X138.649 Y77.948 E2.20185
G1 X139.9 Y78.177 E2.24415
G1 X140.31 Y78.278 E2.25819
G1 X141.513 Y78.643 E2.3
G1 X142.437 Y79.019 E2.33318
G1 X142.705 Y79.143 E2.343
G1 X143.64 Y79.622 E2.37795
G1 X144.459 Y80.131 E2.41002
G1 X144.735 Y80.318 E2.42111
G1 X145.565 Y80.942 E2.45564
G1 X145.799 Y81.136 E2.46575
G1 X146.623 Y81.9 E2.50313
G1 X146.881 Y82.165 E2.51543
G1 X147.723 Y83.138 E2.55823
G1 X147.905 Y83.375 E2.56817
G1 X148.493 Y84.212 E2.60219
G1 X149.148 Y85.367 E2.64635
G1 X149.34 Y85.756 E2.66078
G1 X149.834 Y86.92 E2.70283
G1 X149.948 Y87.244 E2.71426
G1 X150.23 Y88.165 E2.7463
G1 X150.378 Y88.817 E2.76853
G1 X150.482 Y89.356 E2.78679
G1 X150.615 Y90.249 E2.81682
G1 X150.675 Y91.206 E2.84871
G1 X150.682 Y91.607 E2.86205
G1 X150.655 Y92.585 E2.89459
G1 X150.622 Y93.016 E2.90897
G1 X150.506 Y93.983 E2.94136
G1 X150.319 Y94.876 E2.97171
G1 X150.184 Y95.404 E2.98983
G1 X149.902 Y96.334 E3.02216
G1 X149.57 Y97.165 E3.05192
G1 X149.274 Y97.814 E3.07564
G1 X148.923 Y98.539 E3.10244
G1 X147.825 Y100.889 E3.18871
G1 X146.821 Y103.209 E3.27279
G1 X145.871 Y105.585 E3.3579
G1 X145.015 Y107.912 E3.44036
G1 X144.226 Y110.27 E3.52306
G1 X143.484 Y112.706 E3.60776
G1 X142.824 Y115.117 E3.6909
G1 X142.22 Y117.587 E3.77547
G1 X141.692 Y120.069 E3.85987
G1 X141.237 Y122.53 E3.94311
G1 X140.857 Y124.982 E4.02564
G1 X140.538 Y127.506 E4.11026
G1 X140.293 Y129.997 E4.19351
G1 X140.209 Y131.245 E4.23511
G1 X140.123 Y132.282 E4.26972
G1 X139.997 Y133.249 E4.30215
G1 X139.786 Y134.199 E4.33452
G1 X139.516 Y135.061 E4.36457
G1 X139.023 Y136.22 E4.40646
G1 X138.768 Y136.734 E4.42554
G1 X138.22 Y137.716 E4.46294
G1 X137.494 Y138.77 E4.50551
G1 X136.757 Y139.656 E4.54384
G1 X136.034 Y140.392 E4.57816
G1 X135.788 Y140.62 E4.58931
G1 X134.877 Y141.38 E4.62877
G1 X134.524 Y141.641 E4.64337
G1 X133.527 Y142.296 E4.68305
G1 X132.841 Y142.68 E4.7092
G1 X132.173 Y143.027 E4.73423
G1 X129.843 Y144.275 E4.82215
G1 X127.68 Y145.512 E4.90502
G1 X125.514 Y146.832 E4.98939
G1 X124.86 Y147.257 E5.01533
G1 X124.089 Y147.74 E5.04559
G1 X123.24 Y148.217 E5.07798
G1 X122.353 Y148.617 E5.11034
G1 X121.433 Y148.939 E5.14276
G1 X120.488 Y149.176 E5.17516
G1 X119.527 Y149.329 E5.20753
G1 X118.555 Y149.397 E5.23994
G1 X117.58 Y149.379 E5.27237
G1 X116.618 Y149.274 E5.30456
G1 X115.792 Y149.117 E5.33252
G1 X115.136 Y148.957 E5.35498
G1 X72.699 Y137.584 E6.81625
G1 X71.866 Y137.349 E6.84504
G1 X70.572 Y136.893 E6.89067
G1 X70.174 Y136.724 E6.90505
G1 X69.296 Y136.303 E6.93744
G1 X68.457 Y135.804 E6.96991
G1 X67.666 Y135.232 E7.00237
G1 X66.874 Y134.542 E7.03731
G1 X66.469 Y134.15 E7.05606
G1 X65.802 Y133.442 E7.08841
G1 X65.199 Y132.677 E7.12081
G1 X64.695 Y131.913 E7.15125
G1 X64.161 Y131.015 E7.186
G1 X63.608 Y130.038 E7.22334
G1 X62.958 Y128.69 E7.27311
G1 X62.583 Y127.631 E7.31048
G1 X62.33 Y126.636 E7.34462
G1 X62.236 Y126.168 E7.3605
G1 X62.087 Y125.205 E7.39291
G1 X62.024 Y124.234 E7.42528
G1 X62.047 Y123.267 E7.45745
G1 X62.126 Y122.5 E7.48309
G1 X62.184 Y122.087 E7.49696
G1 X62.376 Y121.074 E7.53126
G1 X62.53 Y120.449 E7.55267
G1 X70.249 Y91.642 E8.54459
G1 X70.444 Y90.96 E8.56818
G1 X70.949 Y89.545 E8.61815
G1 X71.411 Y88.582 E8.65368
G1 X71.556 Y88.313 E8.66384
G1 X72.054 Y87.477 E8.69621
G1 X72.603 Y86.715 E8.72744
G1 X73.261 Y85.955 E8.76088
G1 X73.854 Y85.375 E8.78847
G1 X74.148 Y85.108 E8.80168
G0 F6000 X74.404 Y85.416
G1 F1200 X75.099 Y84.839 E8.83172
G1 X76.087 Y84.173 E8.87135
G1 X77.418 Y83.384 E8.92281
G1 X78.008 Y83.054 E8.9453
G1 X78.848 Y82.633 E8.97655
G1 X79.826 Y82.251 E9.01147
G1 X80.119 Y82.153 E9.02175
G1 X80.988 Y81.906 E9.0518
G1 X81.73 Y81.756 E9.07697
G1 X82.014 Y81.71 E9.08654
G1 X82.947 Y81.599 E9.11779
G1 X83.879 Y81.572 E9.1488
G1 X84.476 Y81.598 E9.16868
G1 X84.864 Y81.626 E9.18162
G1 X86.094 Y81.789 E9.22289
G1 X86.989 Y81.962 E9.2532
G1 X89.549 Y82.418 E9.33969
G1 X92.053 Y82.79 E9.42389
G1 X94.591 Y83.096 E9.50891
G1 X97.058 Y83.322 E9.59131
G1 X99.605 Y83.482 E9.67619
G1 X102.136 Y83.57 E9.76042
G1 X104.65 Y83.586 E9.84404
G1 X107.214 Y83.529 E9.92934
G1 X109.692 Y83.406 E10.01186
G1 X112.25 Y83.205 E10.0972
G1 X114.755 Y82.937 E10.18099
G1 X117.254 Y82.597 E10.26488
G1 X119.732 Y82.188 E10.34841
G1 X122.264 Y81.699 E10.43418
G1 X124.682 Y81.157 E10.5166
G1 X127.12 Y80.541 E10.60024
G1 X129.593 Y79.839 E10.68574
G1 X132.817 Y78.822 E10.79818
G1 X133.532 Y78.625 E10.82285
G1 X133.836 Y78.553 E10.83324
G1 X134.942 Y78.346 E10.87066
G1 X136 Y78.247 E10.906
G1 X136.284 Y78.234 E10.91546
G1 X137.283 Y78.228 E10.94869
G1 X138.299 Y78.308 E10.98258
G1 X138.577 Y78.342 E10.9919
G1 X139.805 Y78.566 E11.03342
G1 X140.194 Y78.661 E11.04673
G1 X141.362 Y79.014 E11.08732
G1 X142.27 Y79.383 E11.11992
G1 X142.523 Y79.499 E11.12917
G1 X143.429 Y79.962 E11.16301
G1 X144.235 Y80.462 E11.19456
G1 X144.495 Y80.638 E11.205
G1 X145.31 Y81.25 E11.2389
G1 X145.527 Y81.43 E11.24828
G1 X146.336 Y82.179 E11.28495
G1 X146.594 Y82.444 E11.29725
G1 X147.406 Y83.382 E11.33851
G1 X147.578 Y83.606 E11.34791
G1 X148.145 Y84.41 E11.38063
G1 X148.789 Y85.544 E11.424
G1 X148.981 Y85.933 E11.43843
G1 X149.457 Y87.053 E11.47891
G1 X149.566 Y87.361 E11.48978
G1 X149.84 Y88.254 E11.52084
G1 X149.985 Y88.893 E11.54264
G1 X150.086 Y89.415 E11.56032
G1 X150.219 Y90.308 E11.59035
G1 X150.275 Y91.213 E11.62051
G1 X150.282 Y91.596 E11.63325
G1 X150.256 Y92.555 E11.66516
G1 X150.225 Y92.969 E11.67896
G1 X150.114 Y93.901 E11.71018
G1 X149.931 Y94.777 E11.73995
G1 X149.801 Y95.288 E11.75748
G1 X149.53 Y96.186 E11.78868
G1 X149.206 Y96.999 E11.81779
G1 X148.914 Y97.64 E11.84122
G1 X148.563 Y98.365 E11.86801
G1 X147.458 Y100.73 E11.95483
G1 X146.454 Y103.05 E12.03891
G1 X145.5 Y105.436 E12.12438
G1 X144.64 Y107.774 E12.20723
G1 X143.843 Y110.153 E12.29068
G1 X143.101 Y112.589 E12.37538
G1 X142.438 Y115.011 E12.4589
G1 X141.832 Y117.492 E12.54384
G1 X141.301 Y119.986 E12.62865
G1 X140.844 Y122.457 E12.71223
G1 X140.46 Y124.932 E12.79554
G1 X140.141 Y127.456 E12.88015
G1 X139.895 Y129.958 E12.96377
G1 X139.81 Y131.212 E13.00558
G1 X139.726 Y132.231 E13.03958
G1 X139.606 Y133.163 E13.07084
G1 X139.404 Y134.079 E13.10203
G1 X139.134 Y134.941 E13.13208
G1 X138.665 Y136.042 E13.17188
G1 X138.418 Y136.54 E13.19037
G1 X137.89 Y137.49 E13.22652
G1 X137.186 Y138.515 E13.26788
G1 X136.472 Y139.376 E13.30508
G1 X135.762 Y140.099 E13.33878
G1 X135.532 Y140.313 E13.34923
G1 X134.639 Y141.059 E13.38794
G1 X134.304 Y141.307 E13.4018
G1 X133.331 Y141.947 E13.44053
G1 X132.657 Y142.325 E13.46624
G1 X131.984 Y142.674 E13.49145
G1 X129.654 Y143.922 E13.57936
G1 X127.481 Y145.165 E13.66263
G1 X125.297 Y146.497 E13.74771
G1 X124.648 Y146.918 E13.77344
G1 X123.892 Y147.392 E13.80312
G1 X123.075 Y147.853 E13.83432
G1 X122.22 Y148.24 E13.86553
G1 X121.335 Y148.551 E13.89673
G1 X120.424 Y148.781 E13.92798
G1 X119.498 Y148.93 E13.95918
G1 X118.562 Y148.997 E13.99039
G1 X117.623 Y148.981 E14.02163
G1 X116.693 Y148.881 E14.05274
G1 X115.886 Y148.728 E14.08006
G1 X115.24 Y148.571 E14.10217
G1 X72.808 Y137.199 E15.56327
G1 X71.975 Y136.964 E15.59205
G1 X70.728 Y136.525 E15.63602
G1 X70.346 Y136.363 E15.64983
G1 X69.5 Y135.959 E15.68101
G1 X68.691 Y135.48 E15.71228
G1 X67.929 Y134.93 E15.74353
G1 X67.137 Y134.24 E15.77847
G1 X66.76 Y133.875 E15.79592
G1 X66.116 Y133.194 E15.8271
G1 X65.533 Y132.457 E15.85835
G1 X65.039 Y131.709 E15.88817
G1 X64.509 Y130.818 E15.92265
G1 X63.968 Y129.864 E15.95913
G1 X63.335 Y128.556 E16.00746
G1 X62.971 Y127.532 E16.0436
G1 X62.718 Y126.537 E16.07775
G1 X62.631 Y126.106 E16.09237
G1 X62.486 Y125.179 E16.12358
G1 X62.424 Y124.243 E16.15478
G1 X62.445 Y123.308 E16.18589
G1 X62.522 Y122.555 E16.21106
G1 X62.577 Y122.161 E16.22429
G1 X62.764 Y121.17 E16.25784
G1 X62.916 Y120.553 E16.27897
G1 X70.634 Y91.752 E17.2707
G1 X70.829 Y91.07 E17.29429
G1 X71.31 Y89.718 E17.34202
G1 X71.764 Y88.771 E17.37695
G1 X71.9 Y88.517 E17.38653
G1 X72.379 Y87.711 E17.41771
G1 X72.928 Y86.949 E17.44895
G1 X73.541 Y86.241 E17.4801
G1 X74.123 Y85.671 E17.50719
G1 X74.404 Y85.416 E17.51981
G0 F6000 X74.66 Y85.724
G1 F1200 X75.355 Y85.147 E17.54986
G1 X76.291 Y84.517 E17.58738
G1 X77.614 Y83.733 E17.63853
G1 X78.188 Y83.411 E17.66042
G1 X78.994 Y83.005 E17.69044
G1 X79.952 Y82.63 E17.72466
G1 X80.228 Y82.538 E17.73433
G1 X81.097 Y82.291 E17.76438
G1 X81.795 Y82.151 E17.78806
G1 X82.062 Y82.107 E17.79706
G1 X82.959 Y81.999 E17.82711
G1 X83.862 Y81.972 E17.85716
G1 X84.448 Y81.997 E17.87667
G1 X84.812 Y82.023 E17.8888
G1 X86.018 Y82.182 E17.92926
G1 X86.913 Y82.355 E17.95958
G1 X89.49 Y82.814 E18.04664
G1 X91.994 Y83.186 E18.13084
G1 X94.543 Y83.493 E18.21623
G1 X97.03 Y83.721 E18.2993
G1 X99.591 Y83.882 E18.38464
G1 X102.122 Y83.97 E18.46888
G1 X104.656 Y83.986 E18.55316
G1 X107.234 Y83.929 E18.63892
G1 X109.712 Y83.806 E18.72144
G1 X112.291 Y83.603 E18.80749
G1 X114.798 Y83.334 E18.89135
G1 X117.319 Y82.992 E18.97597
G1 X119.802 Y82.582 E19.05967
G1 X122.34 Y82.091 E19.14565
G1 X124.78 Y81.545 E19.22881
G1 X127.218 Y80.929 E19.31245
G1 X129.702 Y80.224 E19.39833
G1 X132.924 Y79.208 E19.51069
G1 X133.625 Y79.014 E19.53489
G1 X133.91 Y78.946 E19.54463
G1 X134.979 Y78.744 E19.58082
G1 X136.019 Y78.647 E19.61556
G1 X136.287 Y78.634 E19.62448
G1 X137.252 Y78.627 E19.65658
G1 X138.25 Y78.705 E19.68987
G1 X138.528 Y78.739 E19.69919
G1 X139.71 Y78.955 E19.73915
G1 X140.099 Y79.05 E19.75247
G1 X141.212 Y79.385 E19.79113
G1 X142.104 Y79.747 E19.82315
G1 X142.341 Y79.855 E19.83181
G1 X143.218 Y80.302 E19.86455
G1 X144.011 Y80.793 E19.89557
G1 X144.255 Y80.958 E19.90537
G1 X145.055 Y81.558 E19.93863
G1 X145.255 Y81.724 E19.94727
G1 X146.049 Y82.458 E19.98324
G1 X146.307 Y82.723 E19.99554
G1 X147.089 Y83.626 E20.03527
G1 X147.251 Y83.837 E20.04412
G1 X147.818 Y84.641 E20.07684
G1 X148.431 Y85.722 E20.11817
G1 X148.613 Y86.089 E20.1318
G1 X149.08 Y87.188 E20.17151
G1 X149.184 Y87.479 E20.18179
G1 X149.45 Y88.342 E20.21183
G1 X149.592 Y88.969 E20.23321
G1 X149.69 Y89.474 E20.25032
G1 X149.823 Y90.367 E20.28035
G1 X149.875 Y91.221 E20.3088
G1 X149.882 Y91.585 E20.32091
G1 X149.857 Y92.526 E20.35222
G1 X149.828 Y92.922 E20.36543
G1 X149.722 Y93.819 E20.39547
G1 X149.543 Y94.679 E20.42469
G1 X149.418 Y95.173 E20.44163
G1 X149.158 Y96.038 E20.47168
G1 X148.842 Y96.833 E20.50013
G1 X148.554 Y97.466 E20.52326
G1 X148.203 Y98.191 E20.55005
G1 X147.091 Y100.571 E20.63743
G1 X146.087 Y102.891 E20.7215
G1 X145.129 Y105.287 E20.80733
G1 X144.265 Y107.636 E20.89057
G1 X143.46 Y110.036 E20.97477
G1 X142.718 Y112.472 E21.05947
G1 X142.052 Y114.905 E21.14337
G1 X141.444 Y117.397 E21.22868
G1 X140.91 Y119.903 E21.3139
G1 X140.451 Y122.384 E21.39782
G1 X140.063 Y124.882 E21.4819
G1 X139.744 Y127.406 E21.56652
G1 X139.497 Y129.919 E21.6505
G1 X139.411 Y131.179 E21.69251
G1 X139.329 Y132.181 E21.72595
G1 X139.215 Y133.077 E21.75599
G1 X139.022 Y133.959 E21.78602
G1 X138.752 Y134.821 E21.81606
G1 X138.306 Y135.865 E21.85382
G1 X138.068 Y136.346 E21.87167
G1 X137.56 Y137.264 E21.90657
G1 X136.878 Y138.26 E21.94671
G1 X136.187 Y139.096 E21.98279
G1 X135.489 Y139.807 E22.01593
G1 X135.276 Y140.006 E22.02562
G1 X134.4 Y140.738 E22.06359
G1 X134.084 Y140.973 E22.07669
G1 X133.111 Y141.613 E22.11543
G1 X132.473 Y141.97 E22.13974
G1 X131.795 Y142.321 E22.16513
G1 X129.465 Y143.569 E22.25305
G1 X127.273 Y144.823 E22.33704
G1 X125.079 Y146.161 E22.42251
G1 X124.435 Y146.579 E22.44805
G1 X123.695 Y147.044 E22.47712
G1 X122.909 Y147.489 E22.50716
G1 X122.087 Y147.863 E22.5372
G1 X121.236 Y148.163 E22.56721
G1 X120.36 Y148.386 E22.59727
G1 X119.469 Y148.531 E22.6273
G1 X118.568 Y148.597 E22.65734
G1 X117.665 Y148.583 E22.68738
G1 X116.767 Y148.488 E22.71742
G1 X115.98 Y148.339 E22.74406
G1 X115.344 Y148.185 E22.76582
G1 X72.917 Y136.814 E24.22675
G1 X72.084 Y136.579 E24.25554
G1 X70.884 Y136.157 E24.29785
G1 X70.518 Y136.002 E24.31107
G1 X69.703 Y135.614 E24.34109
G1 X68.925 Y135.155 E24.37113
G1 X68.192 Y134.628 E24.40116
G1 X67.415 Y133.952 E24.43541
G1 X67.05 Y133.6 E24.45228
G1 X66.429 Y132.945 E24.4823
G1 X65.867 Y132.237 E24.51237
G1 X65.383 Y131.504 E24.54158
G1 X64.857 Y130.621 E24.57577
G1 X64.328 Y129.689 E24.61141
G1 X63.712 Y128.421 E24.6583
G1 X63.359 Y127.433 E24.69319
G1 X63.11 Y126.457 E24.72669
G1 X63.026 Y126.044 E24.74071
G1 X62.885 Y125.152 E24.77075
G1 X62.824 Y124.251 E24.80078
G1 X62.843 Y123.348 E24.83082
G1 X62.918 Y122.61 E24.8555
G1 X62.97 Y122.235 E24.86809
G1 X63.152 Y121.266 E24.90088
G1 X63.302 Y120.657 E24.92174
G1 X71.019 Y91.862 E25.91326
G1 X71.214 Y91.18 E25.93686
G1 X71.671 Y89.891 E25.98234
G1 X72.117 Y88.959 E26.01671
G1 X72.244 Y88.721 E26.02568
G1 X72.704 Y87.944 E26.05571
G1 X73.231 Y87.21 E26.08577
G1 X73.821 Y86.527 E26.11579
G1 X74.392 Y85.967 E26.14239
G1 X74.66 Y85.724 E26.15442
G1 F1500 E19.65442
;MESH:RAIL_BRACKET_RIGHTRA.stl
G0 F6000 X83.715 Y91.489
G0 X121.377 Y112.324
;TYPE:WALL-INNER
G1 F1500 E26.15442
G1 F1200 X121.654 Y111.952 E26.16984
G1 X122.205 Y111.27 E26.19901
G1 X122.781 Y110.609 E26.22817
G1 X123.392 Y109.961 E26.25779
G1 X124.02 Y109.349 E26.28696
G1 X124.662 Y108.77 E26.31571
G1 X125.335 Y108.209 E26.34485
G1 X125.858 Y107.806 E26.36681
G1 X126.81 Y104.255 E26.48909
G1 X83.995 Y92.784 E27.96334
G1 X83.772 Y92.763 E27.97079
G1 X83.375 Y92.877 E27.98453
G1 X81.913 Y93.726 E28.04076
G1 X81.754 Y93.86 E28.04768
