;FLAVOR:Marlin
;TIME:22627
;Filament used: 17.23m
;Layer height: 0.2
;MINX:0
;MINY:31.095
;MINZ:0.2
;MAXX:220
;MAXY:188.903
;MAXZ:25.4
;TARGET_MACHINE.NAME:Creality Ender-3 Pro
;Generated with Cura_SteamEngine 5.6.0
M82 ;absolute extrusion mode
; Ender 3 Custom Start G-code
G92 E0 ; Reset Extruder
G28 ; Home all axes
G1 Z5.0 F3000 ; Move Z Axis up a bit during heating to not damage bed
M104 S175 ; Start heating up the nozzle most of the way
M190 S60 ; Start heating the bed, wait until target temperature reached
M109 S200 ; Finish heating the nozzle
G1 Z2.0 F3000 ; Move Z Axis up little to prevent scratching of Heat Bed
G1 X0.1 Y20 Z0.3 F5000.0 ; Move to start position
G1 X0.1 Y200.0 Z0.3 F1500.0 E15 ; Draw the first line
G1 X0.4 Y200.0 Z0.3 F5000.0 ; Move to side a little
G1 X0.4 Y20 Z0.3 F1500.0 E30 ; Draw the second line
G92 E0 ; Reset Extruder
G1 Z2.0 F3000 ; Move Z Axis up little to prevent scratching of Heat Bed
G1 X5 Y20 Z0.3 F5000.0 ; Move over to prevent blob squish
G92 E0
G92 E0
G1 F1500 E-6.5
;LAYER_COUNT:127
;LAYER:0
M107
G0 F6000 X0.00 Y37.335 Z0.2
;TYPE:SKIRT
G1 F1500 E0
G1 F1200 X0.539 Y36.86 E0.0239
G1 X1.219 Y36.338 E0.05241
G1 X2.641 Y35.294 E0.11108
G1 X3.392 Y34.792 E0.14113
G1 X3.899 Y34.502 E0.16055
G1 X4.588 Y34.131 E0.18658
G1 X6.276 Y33.275 E0.24953
G1 X7.102 Y32.909 E0.27958
G1 X7.678 Y32.7 E0.29996
G1 X9.378 Y32.139 E0.3595
G1 X10.112 Y31.914 E0.38503
G1 X11.474 Y31.591 E0.43159
G1 X12.266 Y31.46 E0.45829
G1 X13.992 Y31.209 E0.5163
G1 X14.946 Y31.114 E0.54819
G1 X15.489 Y31.098 E0.56626
G1 X16.075 Y31.095 E0.58575
G1 X18.061 Y31.131 E0.65181
G1 X19.032 Y31.196 E0.68418
G1 X19.995 Y31.346 E0.7166
G1 X20.94 Y31.58 E0.74898
G1 X21.86 Y31.897 E0.78134
G1 X22.685 Y32.263 E0.81136
G1 X23.175 Y32.52 E0.82976
G1 X23.802 Y32.87 E0.85365
G1 X220 Y146.148 E8.38878
G1 F1500 E1.88878
G0 F6000 X18.003 Y41.456
G0 X0.00 Y37.869
G1 F1500 E8.38878
G1 F1200 X0.804 Y37.16 E8.42443
G1 X1.456 Y36.66 E8.45176
G1 X2.863 Y35.627 E8.50982
G1 X3.614 Y35.125 E8.53986
G1 X4.089 Y34.854 E8.55805
G1 X4.769 Y34.488 E8.58373
G1 X6.438 Y33.641 E8.64598
G1 X7.264 Y33.275 E8.67603
G1 X7.803 Y33.08 E8.6951
G1 X9.496 Y32.521 E8.7544
G1 X10.204 Y32.303 E8.77904
G1 X11.539 Y31.986 E8.82467
G1 X12.324 Y31.856 E8.85114
G1 X14.032 Y31.607 E8.90855
G1 X14.958 Y31.514 E8.9395
G1 X15.491 Y31.498 E8.95724
G1 X16.068 Y31.495 E8.97643
G1 X18.035 Y31.53 E9.04186
G1 X18.971 Y31.591 E9.07306
G1 X19.899 Y31.734 E9.10429
G1 X20.81 Y31.958 E9.13549
G1 X21.698 Y32.263 E9.16672
G1 X22.523 Y32.629 E9.19674
G1 X22.98 Y32.869 E9.21391
G1 X23.602 Y33.216 E9.2376
G1 X220 Y146.61 E16.78042
G1 F1500 E10.28042
G0 F6000 X18.003 Y41.456
G0 X0.00 Y38.412
G1 F1500 E16.78042
G1 F1200 X0.077 Y38.335 E16.78404
G1 X1.069 Y37.46 E16.82803
G1 X1.693 Y36.982 E16.85418
G1 X3.085 Y35.96 E16.91161
G1 X3.836 Y35.458 E16.94166
G1 X4.278 Y35.206 E16.95858
G1 X4.952 Y34.844 E16.98403
G1 X5.986 Y34.312 E17.0227
G1 X6.6 Y34.007 E17.04551
G1 X7.426 Y33.641 E17.07556
G1 X7.928 Y33.46 E17.0933
G1 X9.614 Y32.903 E17.15236
G1 X10.297 Y32.692 E17.17614
G1 X11.604 Y32.381 E17.22082
G1 X12.382 Y32.252 E17.24705
G1 X14.072 Y32.005 E17.30386
G1 X14.97 Y31.914 E17.33388
G1 X15.493 Y31.898 E17.35128
G1 X16.061 Y31.895 E17.37017
G1 X18.01 Y31.929 E17.43501
G1 X18.911 Y31.986 E17.46504
G1 X19.804 Y32.122 E17.49508
G1 X20.681 Y32.337 E17.52511
G1 X21.536 Y32.629 E17.55516
G1 X22.361 Y32.995 E17.58518
G1 X22.785 Y33.218 E17.60112
G1 X23.402 Y33.562 E17.62461
G1 X219.51 Y146.784 E25.15622
G1 X220 Y147.076 E25.17519
G1 F1500 E18.67519
G0 F6000 X220 Y182.663
G1 F1500 E25.17519
G1 F1200 X219.443 Y183.154 E25.19989
G1 X218.781 Y183.662 E25.22764
G1 X217.359 Y184.706 E25.28631
G1 X216.608 Y185.208 E25.31636
G1 X216.1 Y185.5 E25.33585
G1 X215.355 Y185.898 E25.36394
G1 X213.811 Y186.68 E25.42151
G1 X212.934 Y187.077 E25.45352
G1 X212.324 Y187.3 E25.47513
G1 X210.826 Y187.796 E25.52761
G1 X209.942 Y188.071 E25.5584
G1 X208.526 Y188.409 E25.60682
G1 X207.734 Y188.54 E25.63352
G1 X206.008 Y188.791 E25.69153
G1 X205.054 Y188.886 E25.72342
G1 X204.507 Y188.902 E25.74162
G1 X203.677 Y188.903 E25.76923
G1 X201.939 Y188.869 E25.82704
G1 X200.968 Y188.804 E25.85941
G1 X200.005 Y188.654 E25.89183
G1 X199.06 Y188.42 E25.92421
G1 X198.14 Y188.103 E25.95657
G1 X197.315 Y187.737 E25.98659
G1 X196.825 Y187.48 E26.00499
G1 X196.189 Y187.125 E26.02922
G1 X0.00 Y73.852 E33.56401
G0 F6000 X0.00 Y73.39
G1 F1200 X196.389 Y186.779 E41.10649
G1 X197.02 Y187.131 E41.13052
G1 X197.477 Y187.371 E41.14769
G1 X198.302 Y187.737 E41.17771
G1 X199.19 Y188.042 E41.20894
G1 X200.101 Y188.266 E41.24014
G1 X201.029 Y188.409 E41.27137
G1 X201.965 Y188.47 E41.30257
G1 X203.685 Y188.503 E41.35978
G1 X204.507 Y188.502 E41.38712
G1 X205.042 Y188.486 E41.40493
G1 X205.968 Y188.393 E41.43588
G1 X207.676 Y188.144 E41.49329
G1 X208.461 Y188.014 E41.51975
G1 X209.823 Y187.689 E41.56633
G1 X210.707 Y187.414 E41.59712
G1 X212.198 Y186.92 E41.64936
G1 X212.797 Y186.701 E41.67057
G1 X213.646 Y186.316 E41.70158
G1 X215.174 Y185.541 E41.75856
G1 X215.911 Y185.147 E41.78636
G1 X216.386 Y184.875 E41.80456
G1 X217.137 Y184.373 E41.83461
G1 X218.544 Y183.34 E41.89266
G1 X219.199 Y182.837 E41.92013
G1 X220 Y182.131 E41.95564
G1 F1500 E35.45564
G0 F6000 X201.997 Y178.544
G0 X0.00 Y72.924
G1 F1500 E41.95564
G1 F1200 X0.49 Y73.216 E41.97462
G1 X196.589 Y186.433 E49.50588
G1 X197.215 Y186.782 E49.52972
G1 X197.639 Y187.005 E49.54565
G1 X198.464 Y187.371 E49.57567
G1 X199.319 Y187.663 E49.60572
G1 X200.196 Y187.878 E49.63576
G1 X201.089 Y188.014 E49.6658
G1 X201.99 Y188.071 E49.69583
G1 X203.693 Y188.103 E49.75248
G1 X204.507 Y188.102 E49.77955
G1 X205.03 Y188.086 E49.79696
G1 X205.928 Y187.995 E49.82698
G1 X207.618 Y187.748 E49.88378
G1 X208.396 Y187.619 E49.91001
G1 X209.704 Y187.307 E49.95474
G1 X210.588 Y187.032 E49.98553
G1 X212.072 Y186.54 E50.03753
G1 X212.659 Y186.325 E50.05832
G1 X213.481 Y185.952 E50.08834
G1 X214.993 Y185.184 E50.14475
G1 X215.722 Y184.794 E50.17225
G1 X216.164 Y184.542 E50.18917
G1 X216.915 Y184.04 E50.21921
G1 X218.307 Y183.018 E50.27665
G1 X218.934 Y182.537 E50.30293
G1 X219.924 Y181.664 E50.34684
G1 X220 Y181.588 E50.35041
G1 F1500 E43.85041
;MESH:Long_Bar.STL
G0 F6000 X206.939 Y178.191
G0 X202.343 Y177.285
;TYPE:WALL-INNER
G1 F1500 E50.35041
G1 F1200 X204.411 Y177.311 E50.4192
G1 X206.56 Y176.984 E50.4915
G1 X208.628 Y176.314 E50.5638
G1 X210.572 Y175.311 E50.63655
G1 X212.308 Y174.017 E50.70857
G1 X213.826 Y172.447 E50.78121
G1 X215.065 Y170.656 E50.85364
G1 X215.995 Y168.694 E50.92586
G1 X216.596 Y166.597 E50.99841
G1 X216.846 Y164.438 E51.0707
G1 X216.742 Y162.255 E51.14339
G1 X216.294 Y160.143 E51.2152
G1 X215.496 Y158.104 E51.28802
G1 X214.441 Y156.327 E51.35676
G1 X17.657 Y42.715 E58.91432
G1 X15.589 Y42.689 E58.98311
G1 X13.44 Y43.016 E59.05541
G1 X11.372 Y43.686 E59.12771
G1 X9.429 Y44.689 E59.20044
G1 X7.692 Y45.983 E59.27248
G1 X6.174 Y47.553 E59.34511
G1 X4.935 Y49.344 E59.41755
G1 X4.005 Y51.306 E59.48976
G1 X3.404 Y53.402 E59.56229
G1 X3.154 Y55.562 E59.63461
G1 X3.258 Y57.745 E59.7073
G1 X3.706 Y59.857 E59.77911
G1 X4.505 Y61.896 E59.85194
G1 X5.559 Y63.673 E59.92066
G1 X202.343 Y177.285 E67.47823
G1 F1500 E60.97823
G0 F6000 X202.325 Y177.158
G0 X194.322 Y172.446
G0 X197.88 Y168.384
G0 X197.372 Y167.283
G1 F1500 E67.47823
G1 F1200 X196.9 Y166.202 E67.51746
G1 X196.619 Y165.059 E67.55661
G1 X196.534 Y163.874 E67.59612
G1 X196.651 Y162.705 E67.6352
G1 X196.967 Y161.571 E67.67435
G1 X197.467 Y160.504 E67.71354
G1 X198.142 Y159.532 E67.7529
G1 X198.961 Y158.699 E67.79176
G1 X199.924 Y158.005 E67.83124
G1 X200.984 Y157.489 E67.87045
G1 X202.112 Y157.16 E67.90953
G1 X203.289 Y157.024 E67.94894
G1 X204.456 Y157.09 E67.98781
G1 X205.641 Y157.366 E68.02828
G1 X206.708 Y157.812 E68.06675
G1 X207.695 Y158.44 E68.10566
G1 X208.569 Y159.229 E68.14482
G1 X209.305 Y160.166 E68.18445
G1 X209.863 Y161.202 E68.22358
G1 X210.242 Y162.329 E68.26313
G1 X210.422 Y163.492 E68.30227
G1 X210.403 Y164.671 E68.34149
G1 X210.19 Y165.82 E68.38036
G1 X209.779 Y166.93 E68.41973
G1 X209.193 Y167.945 E68.45871
G1 X208.444 Y168.846 E68.49768
G1 X207.546 Y169.617 E68.53704
G1 X206.549 Y170.216 E68.57573
G1 X205.452 Y170.641 E68.61486
G1 X204.299 Y170.878 E68.65401
G1 X203.095 Y170.916 E68.69407
G1 X201.924 Y170.75 E68.73341
G1 X200.858 Y170.406 E68.77067
G1 X200.05 Y170.014 E68.80054
G1 X199.712 Y169.81 E68.81367
G1 X198.824 Y169.131 E68.85085
G1 X198.024 Y168.274 E68.88984
G1 X197.372 Y167.283 E68.9293
G1 F1500 E62.4293
G0 F6000 X197.28 Y167.324
G0 X196.729 Y166.265
G0 X20.67 Y61.818
G0 X19.564 Y62.273
G1 F1500 E68.9293
G1 F1200 X18.456 Y62.7 E68.96879
G1 X17.305 Y62.932 E69.00784
G1 X16.119 Y62.966 E69.0473
G1 X14.949 Y62.8 E69.08661
G1 X13.883 Y62.456 E69.12386
G1 X13.07 Y62.062 E69.15391
G1 X12.741 Y61.863 E69.1667
G1 X11.849 Y61.181 E69.20405
G1 X11.047 Y60.32 E69.24318
G1 X10.409 Y59.351 E69.28177
G1 X9.937 Y58.279 E69.32073
G1 X9.652 Y57.14 E69.35978
G1 X9.559 Y55.924 E69.40034
G1 X9.683 Y54.733 E69.44017
G1 X9.991 Y53.619 E69.47861
G1 X10.492 Y52.554 E69.51776
G1 X11.162 Y51.589 E69.55683
G1 X11.973 Y50.76 E69.5954
G1 X12.982 Y50.039 E69.63665
G1 X14.005 Y49.542 E69.67448
G1 X15.169 Y49.207 E69.71476
G1 X16.314 Y49.074 E69.7531
G1 X17.487 Y49.14 E69.79218
G1 X18.666 Y49.416 E69.83245
G1 X19.733 Y49.862 E69.87092
G1 X20.72 Y50.49 E69.90983
G1 X21.595 Y51.281 E69.94906
G1 X22.324 Y52.21 E69.98833
G1 X22.888 Y53.253 E70.02777
G1 X23.263 Y54.356 E70.06652
G1 X23.448 Y55.526 E70.10592
G1 X23.431 Y56.711 E70.14534
G1 X23.216 Y57.865 E70.18438
G1 X22.804 Y58.979 E70.22388
G1 X22.219 Y59.994 E70.26285
G1 X21.466 Y60.899 E70.302
G1 X20.564 Y61.672 E70.34151
G1 X19.564 Y62.273 E70.38032
G0 F6000 X19.37 Y61.919
;TYPE:WALL-OUTER
G1 F1200 X18.331 Y62.317 E70.41733
G1 X17.273 Y62.531 E70.45323
G1 X16.129 Y62.563 E70.49129
G1 X15.056 Y62.411 E70.52734
G1 X13.979 Y62.064 E70.56497
G1 X13.233 Y61.695 E70.59265
G1 X12.984 Y61.545 E70.60232
G1 X12.107 Y60.872 E70.63909
G1 X11.353 Y60.058 E70.67599
G1 X10.753 Y59.147 E70.71227
G1 X10.309 Y58.133 E70.74909
G1 X10.039 Y57.03 E70.78686
G1 X9.962 Y55.945 E70.82304
G1 X10.073 Y54.821 E70.8606
G1 X10.368 Y53.757 E70.89733
G1 X10.838 Y52.754 E70.93417
G1 X11.474 Y51.839 E70.97123
G1 X12.243 Y51.056 E71.00773
G1 X13.17 Y50.393 E71.04564
G1 X14.138 Y49.922 E71.08144
G1 X15.203 Y49.608 E71.11837
G1 X16.309 Y49.478 E71.15541
G1 X17.444 Y49.541 E71.19322
G1 X18.538 Y49.795 E71.23058
G1 X19.529 Y50.21 E71.26631
G1 X20.49 Y50.821 E71.30419
G1 X21.289 Y51.543 E71.34
G1 X21.98 Y52.42 E71.37714
G1 X22.524 Y53.426 E71.41518
G1 X22.877 Y54.473 E71.45193
G1 X23.045 Y55.539 E71.48782
G1 X23.032 Y56.655 E71.52494
G1 X22.83 Y57.758 E71.56224
G1 X22.435 Y58.822 E71.59999
G1 X21.879 Y59.781 E71.63686
G1 X21.18 Y60.619 E71.67315
G1 X20.33 Y61.348 E71.7104
G1 X19.37 Y61.919 E71.74755
G1 F1500 E65.24755
G0 F6000 X19.477 Y62.198
G0 X20.67 Y61.818
G0 X196.729 Y166.265
G0 X197.717 Y167.075
G1 F1500 E71.74755
G1 F1200 X197.287 Y166.09 E71.78329
G1 X197.019 Y165.013 E71.82021
G1 X196.937 Y163.865 E71.85849
G1 X197.044 Y162.795 E71.89425
G1 X197.342 Y161.711 E71.93164
G1 X197.813 Y160.704 E71.96862
G1 X198.451 Y159.786 E72.0058
G1 X199.222 Y159.002 E72.04237
G1 X200.116 Y158.36 E72.07898
G1 X201.141 Y157.86 E72.11691
G1 X202.176 Y157.558 E72.15277
G1 X203.319 Y157.427 E72.19104
G1 X204.386 Y157.487 E72.22658
G1 X205.513 Y157.745 E72.26504
G1 X206.504 Y158.16 E72.30077
G1 X207.465 Y158.771 E72.33865
G1 X208.287 Y159.517 E72.37557
G1 X208.976 Y160.399 E72.41279
G1 X209.499 Y161.376 E72.44965
G1 X209.852 Y162.423 E72.4864
G1 X210.02 Y163.489 E72.52229
G1 X210.007 Y164.605 E72.55941
G1 X209.805 Y165.71 E72.59678
G1 X209.41 Y166.772 E72.63446
G1 X208.853 Y167.732 E72.67138
G1 X208.156 Y168.568 E72.70758
G1 X207.307 Y169.296 E72.74478
G1 X206.365 Y169.86 E72.78129
G1 X205.328 Y170.261 E72.81827
G1 X204.239 Y170.482 E72.85523
G1 X203.104 Y170.513 E72.893
G1 X202.031 Y170.361 E72.92904
G1 X200.954 Y170.014 E72.96668
G1 X200.213 Y169.647 E72.99418
G1 X199.955 Y169.492 E73.00419
G1 X199.082 Y168.822 E73.04079
G1 X198.328 Y168.008 E73.07769
G1 X197.717 Y167.075 E73.11479
G1 F1500 E66.61479
G0 F6000 X197.259 Y167.276
G0 X199.602 Y169.953
G0 X197.212 Y174.092
G0 X202.233 Y177.684
G1 F1500 E73.11479
G1 F1200 X204.439 Y177.711 E73.18817
G1 X206.652 Y177.374 E73.26262
G1 X208.782 Y176.684 E73.33709
G1 X210.784 Y175.651 E73.41202
G1 X212.573 Y174.319 E73.4862
G1 X214.136 Y172.701 E73.56102
G1 X215.413 Y170.857 E73.63563
G1 X216.371 Y168.836 E73.71001
G1 X216.99 Y166.676 E73.78475
G1 X217.247 Y164.452 E73.85921
G1 X217.14 Y162.203 E73.9341
G1 X216.678 Y160.028 E74.00805
G1 X215.856 Y157.928 E74.08306
G1 X214.732 Y156.033 E74.15634
G1 X17.767 Y42.316 E81.72086
G1 X15.561 Y42.289 E81.79424
G1 X13.348 Y42.626 E81.86869
G1 X11.218 Y43.316 E81.94316
G1 X9.216 Y44.349 E82.01809
G1 X7.427 Y45.681 E82.09228
G1 X5.864 Y47.299 E82.1671
G1 X4.587 Y49.143 E82.2417
G1 X3.629 Y51.164 E82.31609
G1 X3.01 Y53.324 E82.39082
G1 X2.753 Y55.548 E82.46529
G1 X2.86 Y57.797 E82.54017
G1 X3.322 Y59.972 E82.61413
G1 X4.144 Y62.072 E82.68913
G1 X5.268 Y63.967 E82.76242
G1 X202.233 Y177.684 E90.32694
G1 F1500 E83.82694
G0 F6000 X202.325 Y177.158
G0 X15.618 Y69.272
G0 X17.326 Y63.113
G0 X19.734 Y62.592
;TYPE:SKIN
G1 F1500 E90.32694
G1 F1200 X20.762 Y61.973 E90.36685
G1 X21.723 Y61.151 E90.40891
G1 X22.519 Y60.2 E90.45016
G1 X23.131 Y59.13 E90.49116
G1 X23.565 Y57.968 E90.53242
G1 X23.788 Y56.759 E90.57331
G1 X23.806 Y55.483 E90.61575
G1 X23.617 Y54.284 E90.65612
G1 X23.224 Y53.121 E90.69695
G1 X22.64 Y52.033 E90.73802
G1 X21.847 Y51.022 E90.78076
G1 X20.95 Y50.211 E90.82098
G1 X19.935 Y49.563 E90.86103
G1 X18.796 Y49.081 E90.90217
G1 X17.523 Y48.781 E90.94567
G1 X16.285 Y48.715 E90.9869
G1 X15.073 Y48.858 E91.02749
G1 X13.891 Y49.2 E91.06842
G1 X12.771 Y49.74 E91.10977
G1 X11.733 Y50.493 E91.15242
G1 X10.877 Y51.368 E91.19314
G1 X10.18 Y52.375 E91.23387
G1 X9.668 Y53.462 E91.27383
G1 X9.325 Y54.67 E91.3156
G1 X9.198 Y55.904 E91.35686
G1 X9.288 Y57.171 E91.39911
G1 X9.598 Y58.407 E91.44149
G1 X10.103 Y59.54 E91.48275
G1 X10.755 Y60.533 E91.52226
G1 X11.59 Y61.434 E91.56311
G1 X12.527 Y62.154 E91.60242
G1 X12.846 Y62.351 E91.61489
G1 X13.719 Y62.778 E91.64721
G1 X14.884 Y63.154 E91.68793
G1 X16.087 Y63.324 E91.72834
G1 X17.368 Y63.29 E91.77096
G1 X18.542 Y63.051 E91.81081
G1 X19.734 Y62.592 E91.85329
G1 F1500 E85.35329
G0 F6000 X19.607 Y62.365
G0 X20.67 Y61.818
G0 X196.729 Y166.265
G0 X197.06 Y167.468
G1 F1500 E91.85329
G1 F1200 X197.731 Y168.484 E91.89379
G1 X198.562 Y169.382 E91.93448
G1 X199.505 Y170.105 E91.974
G1 X199.881 Y170.332 E91.98861
G1 X200.697 Y170.729 E92.01879
G1 X201.859 Y171.104 E92.0594
G1 X203.062 Y171.274 E92.09981
G1 X204.358 Y171.233 E92.14294
G1 X205.562 Y170.985 E92.18383
G1 X206.725 Y170.531 E92.22535
G1 X207.767 Y169.903 E92.26582
G1 X208.7 Y169.101 E92.30674
G1 X209.49 Y168.15 E92.34786
G1 X210.105 Y167.082 E92.38885
G1 X210.538 Y165.916 E92.43022
G1 X210.763 Y164.7 E92.47135
G1 X210.78 Y163.456 E92.51273
G1 X210.596 Y162.265 E92.55281
G1 X210.203 Y161.086 E92.59414
G1 X209.598 Y159.952 E92.63689
G1 X208.83 Y158.98 E92.6781
G1 X207.921 Y158.158 E92.71886
G1 X206.886 Y157.497 E92.7597
G1 X205.772 Y157.029 E92.79989
G1 X204.495 Y156.731 E92.84351
G1 X203.265 Y156.664 E92.88448
G1 X202.05 Y156.806 E92.92516
G1 X200.869 Y157.149 E92.96607
G1 X199.721 Y157.707 E93.00852
G1 X198.726 Y158.424 E93.04931
G1 X197.862 Y159.299 E93.09021
G1 X197.156 Y160.323 E93.13158
G1 X196.625 Y161.451 E93.17305
