;FLAVOR:Marlin
;TIME:978
;Filament used: 0.536542m
;Layer height: 0.2
;MINX:73.121
;MINY:93.116
;MINZ:0.2
;MAXX:146.879
;MAXY:126.884
;MAXZ:4
;TARGET_MACHINE.NAME:Creality Ender-3 Pro
;Generated with Cura_SteamEngine 5.6.0
M82 ;absolute extrusion mode
; Ender 3 Custom Start G-code
G92 E0 ; Reset Extruder
G28 ; Home all axes
G1 Z5.0 F3000 ; Move Z Axis up a bit during heating to not damage bed
M104 S175 ; Start heating up the nozzle most of the way
M190 S60 ; Start heating the bed, wait until target temperature reached
M109 S200 ; Finish heating the nozzle
G1 Z2.0 F3000 ; Move Z Axis up little to prevent scratching of Heat Bed
G1 X0.1 Y20 Z0.3 F5000.0 ; Move to start position
G1 X0.1 Y200.0 Z0.3 F1500.0 E15 ; Draw the first line
G1 X0.4 Y200.0 Z0.3 F5000.0 ; Move to side a little
G1 X0.4 Y20 Z0.3 F1500.0 E30 ; Draw the second line
G92 E0 ; Reset Extruder
G1 Z2.0 F3000 ; Move Z Axis up little to prevent scratching of Heat Bed
G1 X5 Y20 Z0.3 F5000.0 ; Move over to prevent blob squish
G92 E0
G92 E0
G1 F1500 E-6.5
;LAYER_COUNT:20
;LAYER:0
M107
G0 F6000 X79.281 Y96.954 Z0.2
;TYPE:SKIRT
G1 F1500 E0
G1 F1200 X80.064 Y96.344 E0.03301
G1 X80.459 Y96.067 E0.04906
G1 X81.167 Y95.612 E0.07705
G1 X81.746 Y95.27 E0.09942
G1 X82.69 Y94.775 E0.13487
G1 X83.047 Y94.61 E0.14795
G1 X83.726 Y94.326 E0.17243
G1 X84.299 Y94.108 E0.19282
G1 X85.519 Y93.723 E0.23537
G1 X86.339 Y93.517 E0.26349
G1 X87.281 Y93.325 E0.29547
G1 X87.864 Y93.249 E0.31502
G1 X88.515 Y93.183 E0.33678
G1 X89.356 Y93.13 E0.36481
G1 X89.989 Y93.116 E0.38587
G1 X90.98 Y93.14 E0.41884
G1 X91.927 Y93.222 E0.45046
G1 X95.003 Y93.599 E0.55353
G1 X97.506 Y93.83 E0.63713
G1 X99.972 Y93.987 E0.71932
G1 X102.584 Y94.08 E0.80625
G1 X104.416 Y94.099 E0.86719
G1 X115.39 Y94.1 E1.23218
G1 X117.981 Y94.063 E1.31837
G1 X120.535 Y93.956 E1.40339
G1 X122.974 Y93.783 E1.48471
G1 X126.333 Y93.436 E1.59703
G1 X128.211 Y93.208 E1.65995
G1 X129.119 Y93.136 E1.69025
G1 X129.81 Y93.118 E1.71324
G1 X130.494 Y93.124 E1.73599
G1 X131.586 Y93.187 E1.77237
G1 X132.097 Y93.244 E1.78947
G1 X132.831 Y93.352 E1.81414
G1 X133.222 Y93.423 E1.82736
G1 X133.944 Y93.58 E1.85194
G1 X134.321 Y93.677 E1.86488
G1 X134.97 Y93.864 E1.88735
G1 X135.369 Y93.993 E1.9013
G1 X136.027 Y94.23 E1.92456
G1 X136.419 Y94.385 E1.93858
G1 X137.064 Y94.666 E1.96198
G1 X137.527 Y94.885 E1.97901
G1 X138.465 Y95.389 E2.01443
G1 X138.96 Y95.687 E2.03365
G1 X139.661 Y96.147 E2.06153
G1 X140.355 Y96.661 E2.09026
G1 X140.625 Y96.876 E2.10174
G1 X141.23 Y97.395 E2.12825
G1 X141.748 Y97.876 E2.15176
G1 X142.447 Y98.588 E2.18495
G1 X142.707 Y98.879 E2.19792
G1 X143.285 Y99.577 E2.22807
G1 X143.678 Y100.105 E2.24996
G1 X144.066 Y100.661 E2.27251
G1 X144.613 Y101.533 E2.30675
G1 X144.806 Y101.878 E2.31989
G1 X145.233 Y102.713 E2.35109
G1 X145.515 Y103.343 E2.37404
G1 X145.752 Y103.92 E2.39479
G1 X146.067 Y104.799 E2.42585
G1 X146.197 Y105.221 E2.44053
G1 X146.418 Y106.052 E2.46913
G1 X146.575 Y106.802 E2.49462
G1 X146.666 Y107.331 E2.51247
G1 X146.769 Y108.083 E2.53772
G1 X146.822 Y108.621 E2.5557
G1 X146.878 Y109.581 E2.58768
G1 X146.879 Y110.28 E2.61093
G1 X146.857 Y110.945 E2.63306
G1 X146.777 Y111.943 E2.66636
G1 X146.732 Y112.288 E2.67793
G1 X146.593 Y113.117 E2.70589
G1 X146.465 Y113.728 E2.72665
G1 X146.29 Y114.44 E2.75104
G1 X146.169 Y114.866 E2.76577
G1 X145.962 Y115.516 E2.78846
G1 X145.709 Y116.201 E2.81275
G1 X145.583 Y116.51 E2.82384
G1 X145.219 Y117.316 E2.85326
G1 X144.89 Y117.961 E2.87734
G1 X144.674 Y118.349 E2.89211
G1 X144.337 Y118.914 E2.91399
G1 X143.993 Y119.45 E2.93518
G1 X143.324 Y120.38 E2.97328
G1 X143.055 Y120.715 E2.98757
G1 X142.564 Y121.287 E3.01264
G1 X142.157 Y121.722 E3.03246
G1 X141.867 Y122.015 E3.04617
G1 X141.242 Y122.596 E3.07455
G1 X140.719 Y123.046 E3.0975
G1 X139.936 Y123.656 E3.13051
G1 X139.541 Y123.933 E3.14656
G1 X138.833 Y124.388 E3.17455
G1 X138.254 Y124.73 E3.19691
G1 X137.31 Y125.225 E3.23237
G1 X136.953 Y125.39 E3.24545
G1 X136.274 Y125.674 E3.26993
G1 X135.701 Y125.892 E3.29032
G1 X134.481 Y126.277 E3.33287
G1 X133.661 Y126.483 E3.36099
G1 X132.719 Y126.675 E3.39296
G1 X132.136 Y126.751 E3.41252
G1 X131.485 Y126.817 E3.43428
G1 X130.644 Y126.87 E3.46231
G1 X130.011 Y126.884 E3.48337
G1 X129.02 Y126.86 E3.51634
G1 X128.073 Y126.778 E3.54795
G1 X124.997 Y126.401 E3.65103
G1 X122.494 Y126.17 E3.73463
G1 X120.028 Y126.013 E3.81682
G1 X117.416 Y125.92 E3.90375
G1 X115.584 Y125.901 E3.96468
G1 X104.612 Y125.9 E4.32961
G1 X102.021 Y125.937 E4.4158
G1 X99.467 Y126.044 E4.50082
G1 X97.035 Y126.216 E4.58191
G1 X93.634 Y126.568 E4.69563
G1 X91.669 Y126.803 E4.76145
G1 X90.746 Y126.872 E4.79224
G1 X90.378 Y126.883 E4.80448
G1 X89.741 Y126.884 E4.82567
G1 X89.36 Y126.872 E4.83835
G1 X88.665 Y126.829 E4.86151
G1 X88.122 Y126.777 E4.87965
G1 X87.183 Y126.649 E4.91117
G1 X86.515 Y126.518 E4.93381
G1 X85.859 Y126.368 E4.95619
G1 X85.005 Y126.134 E4.98565
G1 X84.061 Y125.803 E5.01892
G1 X83.472 Y125.568 E5.04001
G1 X82.782 Y125.262 E5.06511
G1 X82.327 Y125.042 E5.08192
G1 X81.486 Y124.585 E5.11376
G1 X81.08 Y124.339 E5.12955
G1 X80.377 Y123.876 E5.15755
G1 X80 Y123.606 E5.17297
G1 X79.333 Y123.09 E5.20102
G1 X78.79 Y122.621 E5.22488
G1 X78.257 Y122.129 E5.24901
G1 X77.561 Y121.422 E5.282
G1 X77.289 Y121.117 E5.2956
G1 X76.705 Y120.411 E5.32607
G1 X76.306 Y119.874 E5.34832
G1 X75.975 Y119.398 E5.3676
G1 X75.503 Y118.666 E5.39657
G1 X75.094 Y117.927 E5.42467
G1 X74.795 Y117.341 E5.44655
G1 X74.366 Y116.384 E5.48143
G1 X74.19 Y115.934 E5.4975
G1 X73.887 Y115.052 E5.52852
G1 X73.719 Y114.476 E5.54847
G1 X73.489 Y113.539 E5.58056
G1 X73.372 Y112.946 E5.60067
G1 X73.231 Y112.029 E5.63153
G1 X73.194 Y111.68 E5.6432
G1 X73.139 Y110.911 E5.66884
G1 X73.123 Y110.44 E5.68452
G1 X73.121 Y109.72 E5.70846
G1 X73.143 Y109.054 E5.73063
G1 X73.224 Y108.052 E5.76406
G1 X73.268 Y107.708 E5.7756
G1 X73.407 Y106.88 E5.80352
G1 X73.533 Y106.278 E5.82398
G1 X73.71 Y105.561 E5.84854
G1 X73.832 Y105.127 E5.86354
G1 X74.13 Y104.231 E5.89494
G1 X74.345 Y103.67 E5.91492
G1 X74.658 Y102.943 E5.94125
G1 X74.805 Y102.633 E5.95266
G1 X75.109 Y102.042 E5.97477
G1 X75.324 Y101.657 E5.98943
G1 X75.687 Y101.049 E6.01298
G1 X76.015 Y100.543 E6.03304
G1 X76.56 Y99.774 E6.06439
G1 X76.839 Y99.416 E6.07949
G1 X77.283 Y98.882 E6.10258
G1 X77.859 Y98.261 E6.13076
G1 X78.147 Y97.972 E6.14433
G1 X78.758 Y97.404 E6.17207
G1 X79.281 Y96.954 E6.19502
G0 F6000 X79.527 Y97.27
G1 F1200 X80.31 Y96.66 E6.22803
G1 X80.676 Y96.403 E6.24291
G1 X81.37 Y95.956 E6.27036
G1 X81.932 Y95.624 E6.29207
G1 X82.858 Y95.138 E6.32686
G1 X83.202 Y94.979 E6.33946
G1 X83.868 Y94.7 E6.36348
G1 X84.441 Y94.482 E6.38387
G1 X85.617 Y94.111 E6.42488
G1 X86.419 Y93.909 E6.45239
G1 X87.333 Y93.722 E6.48342
G1 X87.905 Y93.647 E6.50261
G1 X88.54 Y93.582 E6.52384
G1 X89.365 Y93.53 E6.55133
G1 X89.979 Y93.516 E6.57176
G1 X90.97 Y93.54 E6.60473
G1 X91.878 Y93.619 E6.63504
G1 X94.954 Y93.996 E6.73812
G1 X97.477 Y94.229 E6.82239
G1 X99.958 Y94.387 E6.90508
G1 X102.57 Y94.48 E6.99201
G1 X104.412 Y94.499 E7.05327
G1 X115.396 Y94.5 E7.4186
G1 X117.998 Y94.463 E7.50516
G1 X120.552 Y94.356 E7.59018
G1 X123.013 Y94.181 E7.67224
G1 X126.374 Y93.834 E7.78462
G1 X128.243 Y93.607 E7.84724
G1 X129.13 Y93.536 E7.87683
G1 X129.807 Y93.518 E7.89936
G1 X130.471 Y93.523 E7.92144
G1 X131.542 Y93.585 E7.95713
G1 X132.039 Y93.64 E7.97376
G1 X132.759 Y93.745 E7.99796
G1 X133.137 Y93.814 E8.01074
G1 X133.844 Y93.967 E8.0348
G1 X134.21 Y94.061 E8.04737
G1 X134.847 Y94.245 E8.06942
G1 X135.246 Y94.374 E8.08337
G1 X135.88 Y94.602 E8.10577
G1 X136.259 Y94.752 E8.11933
G1 X136.893 Y95.028 E8.14233
G1 X137.356 Y95.247 E8.15936
G1 X138.259 Y95.732 E8.19346
G1 X138.741 Y96.022 E8.21217
G1 X139.423 Y96.469 E8.23929
G1 X140.106 Y96.974 E8.26754
G1 X140.365 Y97.18 E8.27855
G1 X140.958 Y97.688 E8.30452
G1 X141.463 Y98.156 E8.32742
G1 X142.149 Y98.854 E8.35997
G1 X142.399 Y99.134 E8.37245
G1 X142.964 Y99.816 E8.40191
G1 X143.35 Y100.334 E8.42339
G1 X143.727 Y100.874 E8.4453
G1 X144.264 Y101.729 E8.47888
G1 X144.45 Y102.06 E8.49151
G1 X144.868 Y102.876 E8.522
G1 X145.145 Y103.495 E8.54456
G1 X145.375 Y104.055 E8.56469
G1 X145.69 Y104.934 E8.59575
G1 X145.81 Y105.324 E8.60932
G1 X146.031 Y106.155 E8.63792
G1 X146.181 Y106.87 E8.66222
G1 X146.27 Y107.385 E8.6796
G1 X146.371 Y108.123 E8.70438
G1 X146.423 Y108.644 E8.72179
G1 X146.478 Y109.582 E8.75304
G1 X146.479 Y110.267 E8.77583
G1 X146.458 Y110.913 E8.79732
G1 X146.38 Y111.891 E8.82996
G1 X146.337 Y112.222 E8.84106
G1 X146.201 Y113.035 E8.86847
G1 X146.076 Y113.633 E8.88879
G1 X145.905 Y114.331 E8.9127
G1 X145.788 Y114.745 E8.927
G1 X145.587 Y115.378 E8.94909
G1 X145.339 Y116.05 E8.97292
G1 X145.218 Y116.346 E8.98355
G1 X144.863 Y117.134 E9.0123
G1 X144.54 Y117.767 E9.03594
G1 X144.331 Y118.144 E9.05027
G1 X144 Y118.698 E9.07174
G1 X143.668 Y119.217 E9.09223
G1 X143.012 Y120.13 E9.12962
G1 X142.751 Y120.455 E9.14349
G1 X142.272 Y121.014 E9.16797
G1 X141.872 Y121.441 E9.18743
G1 X141.595 Y121.722 E9.20055
G1 X140.981 Y122.293 E9.22844
G1 X140.473 Y122.73 E9.25073
G1 X139.69 Y123.34 E9.28374
G1 X139.324 Y123.597 E9.29862
G1 X138.63 Y124.044 E9.32607
G1 X138.068 Y124.376 E9.34778
G1 X137.142 Y124.862 E9.38257
G1 X136.798 Y125.021 E9.39517
G1 X136.132 Y125.3 E9.41919
G1 X135.559 Y125.518 E9.43958
G1 X134.383 Y125.889 E9.48059
G1 X133.581 Y126.091 E9.5081
G1 X132.667 Y126.278 E9.53913
G1 X132.095 Y126.353 E9.55832
G1 X131.46 Y126.418 E9.57955
G1 X130.635 Y126.47 E9.60704
G1 X130.021 Y126.484 E9.62747
G1 X129.03 Y126.46 E9.66044
G1 X128.122 Y126.381 E9.69075
G1 X125.046 Y126.004 E9.79383
G1 X122.523 Y125.771 E9.8781
G1 X120.042 Y125.613 E9.96078
G1 X117.43 Y125.52 E10.04772
G1 X115.588 Y125.501 E10.10898
G1 X104.606 Y125.5 E10.47425
G1 X102.004 Y125.537 E10.5608
G1 X99.45 Y125.644 E10.64582
G1 X96.996 Y125.818 E10.72764
G1 X93.593 Y126.17 E10.84143
G1 X91.639 Y126.404 E10.90689
G1 X90.734 Y126.472 E10.93707
G1 X90.377 Y126.483 E10.94895
G1 X89.753 Y126.484 E10.96971
G1 X89.385 Y126.473 E10.98195
G1 X88.703 Y126.431 E11.00468
G1 X88.176 Y126.381 E11.02228
G1 X87.26 Y126.257 E11.05303
G1 X86.604 Y126.128 E11.07527
G1 X85.965 Y125.982 E11.09707
G1 X85.111 Y125.748 E11.12652
G1 X84.209 Y125.431 E11.15832
G1 X83.634 Y125.202 E11.1789
G1 X82.956 Y124.902 E11.20356
G1 X82.518 Y124.69 E11.21975
G1 X81.693 Y124.242 E11.25097
G1 X81.3 Y124.005 E11.26623
G1 X80.61 Y123.551 E11.29371
G1 X80.244 Y123.289 E11.30868
G1 X79.594 Y122.787 E11.33599
G1 X79.061 Y122.327 E11.35941
G1 X78.542 Y121.848 E11.3829
G1 X77.846 Y121.141 E11.4159
G1 X77.597 Y120.862 E11.42834
G1 X77.026 Y120.173 E11.4581
G1 X76.634 Y119.645 E11.47997
G1 X76.311 Y119.181 E11.49877
G1 X75.853 Y118.472 E11.52685
G1 X75.45 Y117.745 E11.55449
G1 X75.16 Y117.177 E11.57571
G1 X74.739 Y116.238 E11.60993
G1 X74.563 Y115.788 E11.626
G1 X74.271 Y114.939 E11.65587
G1 X74.107 Y114.38 E11.67524
G1 X73.881 Y113.461 E11.70672
G1 X73.767 Y112.885 E11.72625
G1 X73.629 Y111.986 E11.7565
G1 X73.593 Y111.651 E11.7677
G1 X73.539 Y110.897 E11.79285
G1 X73.523 Y110.439 E11.80809
G1 X73.521 Y109.733 E11.83157
G1 X73.542 Y109.086 E11.8531
G1 X73.621 Y108.103 E11.8859
G1 X73.663 Y107.774 E11.89693
G1 X73.799 Y106.962 E11.92432
G1 X73.925 Y106.36 E11.94477
G1 X74.095 Y105.669 E11.96844
G1 X74.212 Y105.253 E11.98281
G1 X74.51 Y104.357 E12.01422
G1 X74.713 Y103.828 E12.03307
G1 X75.019 Y103.115 E12.05887
G1 X75.161 Y102.816 E12.06988
G1 X75.459 Y102.236 E12.09157
G1 X75.667 Y101.862 E12.1058
G1 X76.023 Y101.266 E12.12889
G1 X76.341 Y100.774 E12.14838
G1 X76.875 Y100.02 E12.17911
G1 X77.147 Y99.672 E12.1938
G1 X77.591 Y99.138 E12.2169
G1 X78.142 Y98.543 E12.24387
G1 X78.419 Y98.265 E12.25692
G1 X79.019 Y97.707 E12.28417
G1 X79.527 Y97.27 E12.30646
G0 F6000 X79.773 Y97.586
G1 F1200 X80.556 Y96.976 E12.33948
G1 X80.893 Y96.739 E12.35318
G1 X81.573 Y96.3 E12.3801
G1 X82.118 Y95.978 E12.40115
G1 X83.026 Y95.501 E12.43527
G1 X83.357 Y95.348 E12.44739
G1 X84.01 Y95.074 E12.47095
G1 X84.583 Y94.856 E12.49134
G1 X85.715 Y94.499 E12.53082
G1 X86.5 Y94.301 E12.55774
G1 X87.385 Y94.119 E12.5878
G1 X87.946 Y94.045 E12.60662
G1 X88.565 Y93.981 E12.62731
G1 X89.374 Y93.93 E12.65427
G1 X89.969 Y93.916 E12.67407
G1 X90.936 Y93.939 E12.70624
G1 X91.829 Y94.016 E12.73605
G1 X94.905 Y94.393 E12.83913
G1 X97.448 Y94.628 E12.92407
G1 X99.944 Y94.787 E13.00725
G1 X102.556 Y94.88 E13.09418
G1 X104.408 Y94.899 E13.15578
G1 X115.402 Y94.9 E13.52145
G1 X118.015 Y94.863 E13.60836
G1 X120.569 Y94.756 E13.69339
G1 X123.052 Y94.579 E13.77618
G1 X126.415 Y94.232 E13.88863
G1 X128.275 Y94.006 E13.95095
G1 X129.141 Y93.936 E13.97984
G1 X129.805 Y93.918 E14.00194
G1 X130.448 Y93.922 E14.02332
G1 X131.498 Y93.983 E14.0583
G1 X131.981 Y94.036 E14.07447
G1 X132.688 Y94.139 E14.09823
G1 X133.052 Y94.205 E14.11053
G1 X133.745 Y94.355 E14.13412
G1 X134.099 Y94.445 E14.14626
G1 X134.724 Y94.626 E14.16791
G1 X135.123 Y94.755 E14.18185
G1 X135.733 Y94.974 E14.20341
G1 X136.1 Y95.119 E14.21654
G1 X136.722 Y95.389 E14.23909
G1 X137.167 Y95.6 E14.25547
G1 X138.053 Y96.075 E14.2889
G1 X138.522 Y96.357 E14.30711
G1 X139.185 Y96.791 E14.33346
G1 X139.857 Y97.287 E14.36124
G1 X140.105 Y97.484 E14.37178
G1 X140.686 Y97.982 E14.39723
G1 X141.178 Y98.437 E14.41952
G1 X141.851 Y99.121 E14.45143
G1 X142.091 Y99.389 E14.4634
G1 X142.643 Y100.055 E14.49217
G1 X143.022 Y100.563 E14.51325
G1 X143.388 Y101.087 E14.53451
G1 X143.915 Y101.925 E14.56743
G1 X144.094 Y102.243 E14.57957
G1 X144.503 Y103.04 E14.60936
G1 X144.775 Y103.647 E14.63149
G1 X144.998 Y104.19 E14.65101
G1 X145.313 Y105.069 E14.68207
G1 X145.423 Y105.427 E14.69452
G1 X145.644 Y106.258 E14.72312
G1 X145.787 Y106.939 E14.74627
G1 X145.874 Y107.439 E14.76315
G1 X145.973 Y108.163 E14.78745
G1 X146.024 Y108.668 E14.80433
G1 X146.078 Y109.583 E14.83482
G1 X146.079 Y110.254 E14.85714
G1 X146.059 Y110.881 E14.878
G1 X145.983 Y111.841 E14.91003
G1 X145.943 Y112.156 E14.92059
G1 X145.809 Y112.953 E14.94747
G1 X145.687 Y113.538 E14.96735
G1 X145.52 Y114.223 E14.9908
G1 X145.407 Y114.624 E15.00466
G1 X145.212 Y115.239 E15.02612
G1 X144.968 Y115.899 E15.04952
G1 X144.853 Y116.182 E15.05968
G1 X144.507 Y116.952 E15.08776
G1 X144.19 Y117.573 E15.11095
G1 X143.987 Y117.939 E15.12487
G1 X143.663 Y118.483 E15.14593
G1 X143.343 Y118.984 E15.1657
G1 X142.7 Y119.88 E15.20238
G1 X142.447 Y120.195 E15.21582
G1 X141.98 Y120.741 E15.23971
G1 X141.588 Y121.16 E15.2588
G1 X141.322 Y121.429 E15.27138
G1 X140.72 Y121.99 E15.29875
G1 X140.227 Y122.414 E15.32038
G1 X139.444 Y123.024 E15.35339
G1 X139.107 Y123.261 E15.36709
G1 X138.427 Y123.7 E15.39401
G1 X137.882 Y124.022 E15.41507
G1 X136.974 Y124.499 E15.44918
G1 X136.643 Y124.652 E15.46131
G1 X135.99 Y124.926 E15.48486
G1 X135.417 Y125.144 E15.50525
G1 X134.285 Y125.501 E15.54473
G1 X133.5 Y125.699 E15.57166
G1 X132.615 Y125.881 E15.60171
G1 X132.054 Y125.955 E15.62053
G1 X131.435 Y126.019 E15.64123
G1 X130.626 Y126.07 E15.66819
G1 X130.031 Y126.084 E15.68799
G1 X129.064 Y126.061 E15.72016
G1 X128.171 Y125.984 E15.74997
G1 X125.095 Y125.607 E15.85304
G1 X122.552 Y125.372 E15.93798
G1 X120.056 Y125.213 E16.02117
G1 X117.444 Y125.12 E16.1081
G1 X115.592 Y125.101 E16.1697
G1 X104.6 Y125.1 E16.5353
G1 X101.987 Y125.137 E16.62221
G1 X99.433 Y125.244 E16.70723
G1 X96.957 Y125.42 E16.78979
G1 X93.552 Y125.772 E16.90365
G1 X91.609 Y126.005 E16.96874
G1 X90.721 Y126.072 E16.99835
G1 X90.376 Y126.083 E17.00983
G1 X89.764 Y126.084 E17.03019
G1 X89.409 Y126.074 E17.042
G1 X88.74 Y126.033 E17.06429
G1 X88.23 Y125.985 E17.08133
G1 X87.337 Y125.864 E17.11131
G1 X86.693 Y125.738 E17.13313
