;FLAVOR:Marlin
;TIME:4662
;Filament used: 2.5143m
;Layer height: 0.2
;MINX:76.061
;MINY:89.716
;MINZ:0.2
;MAXX:133.727
;MAXY:137.451
;MAXZ:31
;TARGET_MACHINE.NAME:Creality Ender-3 Pro
;Generated with Cura_SteamEngine 5.6.0
M82 ;absolute extrusion mode
; Ender 3 Custom Start G-code
G92 E0 ; Reset Extruder
G28 ; Home all axes
G1 Z5.0 F3000 ; Move Z Axis up a bit during heating to not damage bed
M104 S175 ; Start heating up the nozzle most of the way
M190 S60 ; Start heating the bed, wait until target temperature reached
M109 S200 ; Finish heating the nozzle
G1 Z2.0 F3000 ; Move Z Axis up little to prevent scratching of Heat Bed
G1 X0.1 Y20 Z0.3 F5000.0 ; Move to start position
G1 X0.1 Y200.0 Z0.3 F1500.0 E15 ; Draw the first line
G1 X0.4 Y200.0 Z0.3 F5000.0 ; Move to side a little
G1 X0.4 Y20 Z0.3 F1500.0 E30 ; Draw the second line
G92 E0 ; Reset Extruder
G1 Z2.0 F3000 ; Move Z Axis up little to prevent scratching of Heat Bed
G1 X5 Y20 Z0.3 F5000.0 ; Move over to prevent blob squish
G92 E0
G92 E0
G1 F1500 E-6.5
;LAYER_COUNT:155
;LAYER:0
M107
G0 F6000 X80.919 Y112.025 Z0.2
;TYPE:SKIRT
G1 F1500 E0
G1 F1200 X81.75 Y111.518 E0.03238
G1 X82.622 Y111.087 E0.06473
G1 X83.531 Y110.732 E0.09719
G1 X84.466 Y110.462 E0.12956
G1 X85.421 Y110.273 E0.16193
G1 X86.389 Y110.171 E0.19431
G1 X87.292 Y110.153 E0.22435
G1 X88.349 Y110.227 E0.25959
G1 X89.667 Y110.463 E0.30412
G1 X90.252 Y110.612 E0.3242
G1 X108.667 Y115.711 E0.95973
G1 X109.319 Y115.902 E0.98233
G1 X110.239 Y116.218 E1.01469
G1 X111.064 Y116.584 E1.0447
G1 X111.979 Y117.089 E1.07946
G1 X112.727 Y117.594 E1.10948
G1 X113.538 Y118.255 E1.14428
G1 X114.235 Y118.936 E1.17669
G1 X114.867 Y119.675 E1.20903
G1 X115.433 Y120.468 E1.24144
G1 X115.926 Y121.308 E1.27383
G1 X116.343 Y122.188 E1.30622
G1 X116.68 Y123.101 E1.33859
G1 X116.936 Y124.042 E1.37103
G1 X117.097 Y124.931 E1.40108
G1 X117.192 Y125.971 E1.43581
G1 X117.191 Y126.944 E1.46817
G1 X117.105 Y127.915 E1.50059
G1 X116.932 Y128.872 E1.53294
G1 X116.676 Y129.812 E1.56534
G1 X116.338 Y130.726 E1.59775
G1 X115.921 Y131.605 E1.63011
G1 X115.466 Y132.385 E1.66015
G1 X114.861 Y133.235 E1.69485
G1 X114.275 Y133.923 E1.72491
G1 X113.529 Y134.656 E1.75969
G1 X112.803 Y135.25 E1.79089
G1 X111.968 Y135.818 E1.82448
G1 X111.116 Y136.292 E1.85691
G1 X110.227 Y136.688 E1.88928
G1 X109.305 Y137.003 E1.92168
G1 X108.36 Y137.236 E1.95406
G1 X107.468 Y137.377 E1.98409
G1 X106.203 Y137.451 E2.02624
G1 X105.369 Y137.45 E2.05398
G1 X92.373 Y137.258 E2.48627
G1 X91.499 Y137.231 E2.51536
G1 X90.957 Y137.202 E2.53341
G1 X90.434 Y137.158 E2.55087
G1 X89.103 Y136.962 E2.59561
G1 X88.375 Y136.806 E2.62037
G1 X87.495 Y136.575 E2.65064
G1 X86.566 Y136.262 E2.68324
G1 X86.064 Y136.07 E2.70112
G1 X85.162 Y135.675 E2.73387
G1 X84.631 Y135.412 E2.75358
G1 X83.783 Y134.945 E2.78578
G1 X83.116 Y134.503 E2.81239
G1 X82.516 Y134.073 E2.83694
G1 X81.751 Y133.468 E2.86938
G1 X81.444 Y133.202 E2.88289
G1 X80.782 Y132.577 E2.91317
G1 X80.329 Y132.109 E2.93483
G1 X79.712 Y131.412 E2.9658
G1 X79.373 Y130.972 E2.98427
G1 X79.028 Y130.499 E3.00374
G1 X78.547 Y129.782 E3.03246
G1 X78.326 Y129.421 E3.04654
G1 X77.885 Y128.626 E3.07677
G1 X77.605 Y128.063 E3.09769
G1 X77.215 Y127.188 E3.12955
G1 X77.036 Y126.697 E3.14693
G1 X76.827 Y126.08 E3.1686
G1 X76.47 Y124.76 E3.21408
G1 X76.354 Y124.189 E3.23346
G1 X76.185 Y123.035 E3.27225
G1 X76.1 Y122.078 E3.30421
G1 X76.061 Y121.106 E3.33656
G1 X76.102 Y120.204 E3.36659
G1 X76.242 Y119.168 E3.40136
G1 X76.459 Y118.219 E3.43374
G1 X76.747 Y117.326 E3.46495
G1 X77.142 Y116.396 E3.49856
G1 X77.602 Y115.538 E3.53094
G1 X78.135 Y114.723 E3.56332
G1 X78.738 Y113.958 E3.59572
G1 X79.407 Y113.25 E3.62812
G1 X80.108 Y112.627 E3.65931
G1 X80.919 Y112.025 E3.69291
G0 F6000 X81.128 Y112.366
G1 F1200 X81.928 Y111.876 E3.72411
G1 X82.768 Y111.459 E3.7553
G1 X83.643 Y111.116 E3.78656
G1 X84.544 Y110.854 E3.81777
G1 X85.464 Y110.671 E3.84897
G1 X86.397 Y110.571 E3.88018
G1 X87.3 Y110.553 E3.91022
G1 X88.279 Y110.621 E3.94286
G1 X89.569 Y110.851 E3.98644
G1 X90.145 Y110.997 E4.0062
G1 X108.555 Y116.095 E4.64156
G1 X109.189 Y116.28 E4.66353
G1 X110.077 Y116.584 E4.69475
G1 X110.902 Y116.95 E4.72477
G1 X111.755 Y117.421 E4.75718
G1 X112.503 Y117.926 E4.78719
G1 X113.259 Y118.541 E4.81961
G1 X113.931 Y119.196 E4.85082
G1 X114.542 Y119.908 E4.88202
G1 X115.088 Y120.671 E4.91323
G1 X115.565 Y121.48 E4.94447
G1 X115.968 Y122.327 E4.97566
G1 X116.294 Y123.207 E5.00688
G1 X116.542 Y124.113 E5.03812
G1 X116.703 Y125.002 E5.06817
G1 X116.792 Y125.971 E5.10053
G1 X116.793 Y126.909 E5.13173
G1 X116.711 Y127.845 E5.16298
G1 X116.546 Y128.768 E5.19417
G1 X116.301 Y129.674 E5.22538
G1 X115.976 Y130.555 E5.25662
G1 X115.575 Y131.403 E5.28782
G1 X115.12 Y132.183 E5.31785
G1 X114.556 Y132.976 E5.35022
G1 X113.97 Y133.664 E5.38027
G1 X113.275 Y134.347 E5.41268
G1 X112.577 Y134.92 E5.44272
G1 X111.773 Y135.469 E5.4751
G1 X110.953 Y135.927 E5.50634
G1 X110.097 Y136.31 E5.53753
G1 X109.209 Y136.615 E5.56876
G1 X108.298 Y136.841 E5.59998
G1 X107.406 Y136.982 E5.63001
G1 X106.203 Y137.051 E5.67009
G1 X105.375 Y137.05 E5.69763
G1 X92.385 Y136.858 E6.12973
G1 X91.521 Y136.832 E6.15848
G1 X90.99 Y136.803 E6.17616
G1 X90.492 Y136.762 E6.19278
G1 X89.161 Y136.566 E6.23753
G1 X88.477 Y136.419 E6.2608
G1 X87.597 Y136.188 E6.29106
G1 X86.709 Y135.888 E6.32223
G1 X86.207 Y135.696 E6.34011
G1 X85.339 Y135.316 E6.37163
G1 X84.824 Y135.062 E6.39073
G1 X84.004 Y134.611 E6.42185
G1 X83.349 Y134.178 E6.44797
G1 X82.764 Y133.759 E6.4719
G1 X82.013 Y133.166 E6.50373
G1 X81.719 Y132.911 E6.51667
G1 X81.057 Y132.286 E6.54695
G1 X80.629 Y131.844 E6.56742
G1 X80.012 Y131.147 E6.59838
G1 X79.696 Y130.736 E6.61562
G1 X79.36 Y130.276 E6.63457
G1 X78.888 Y129.573 E6.66273
G1 X78.676 Y129.227 E6.67622
G1 X78.243 Y128.447 E6.7059
G1 X77.97 Y127.9 E6.72623
G1 X77.591 Y127.051 E6.75715
G1 X77.415 Y126.569 E6.77422
G1 X77.206 Y125.952 E6.79589
G1 X76.862 Y124.68 E6.83971
G1 X76.75 Y124.131 E6.85835
G1 X76.581 Y122.977 E6.89714
G1 X76.5 Y122.061 E6.92773
G1 X76.461 Y121.124 E6.95892
G1 X76.502 Y120.222 E6.98895
G1 X76.632 Y119.257 E7.02134
G1 X76.84 Y118.342 E7.05255
G1 X77.128 Y117.449 E7.08375
G1 X77.495 Y116.584 E7.11501
G1 X77.937 Y115.756 E7.14622
G1 X78.449 Y114.97 E7.17742
G1 X79.029 Y114.232 E7.20864
G1 X79.673 Y113.549 E7.23987
G1 X80.374 Y112.926 E7.27106
G1 X81.128 Y112.366 E7.3023
G0 F6000 X81.338 Y112.707
G1 F1200 X82.107 Y112.234 E7.33232
G1 X82.915 Y111.831 E7.36236
G1 X83.755 Y111.5 E7.39238
G1 X84.622 Y111.246 E7.42243
G1 X85.507 Y111.069 E7.45245
G1 X86.405 Y110.971 E7.4825
G1 X87.308 Y110.953 E7.51254
G1 X88.209 Y111.015 E7.54257
G1 X89.471 Y111.239 E7.5852
G1 X90.038 Y111.382 E7.60465
G1 X108.443 Y116.479 E8.23985
G1 X109.06 Y116.659 E8.26122
G1 X109.915 Y116.95 E8.29126
G1 X110.74 Y117.316 E8.32128
G1 X111.531 Y117.753 E8.35134
G1 X112.279 Y118.258 E8.38136
G1 X112.98 Y118.828 E8.41141
G1 X113.628 Y119.457 E8.44144
G1 X114.217 Y120.141 E8.47147
G1 X114.744 Y120.875 E8.50152
G1 X115.204 Y121.652 E8.53155
G1 X115.593 Y122.467 E8.56159
G1 X115.908 Y123.313 E8.59161
G1 X116.148 Y124.184 E8.62166
G1 X116.309 Y125.073 E8.65171
G1 X116.392 Y125.972 E8.68174
G1 X116.394 Y126.875 E8.71177
G1 X116.317 Y127.775 E8.74182
G1 X116.16 Y128.664 E8.77184
G1 X115.925 Y129.536 E8.80188
G1 X115.614 Y130.384 E8.83192
G1 X115.229 Y131.201 E8.86196
G1 X114.774 Y131.981 E8.892
G1 X114.251 Y132.717 E8.92203
G1 X113.665 Y133.405 E8.95208
G1 X113.021 Y134.038 E8.98212
G1 X112.323 Y134.611 E9.01216
G1 X111.577 Y135.12 E9.04219
G1 X110.789 Y135.562 E9.07224
G1 X109.966 Y135.932 E9.10226
G1 X109.112 Y136.227 E9.13231
G1 X108.236 Y136.446 E9.16234
G1 X107.344 Y136.587 E9.19238
G1 X106.203 Y136.651 E9.23038
G1 X105.381 Y136.65 E9.25772
G1 X92.397 Y136.458 E9.68962
G1 X91.543 Y136.433 E9.71804
G1 X91.022 Y136.404 E9.73539
G1 X90.55 Y136.366 E9.75114
G1 X89.219 Y136.17 E9.79589
G1 X88.579 Y136.032 E9.81766
G1 X87.699 Y135.801 E9.84793
G1 X86.852 Y135.515 E9.87766
G1 X86.367 Y135.329 E9.89494
G1 X85.516 Y134.957 E9.92583
G1 X85.016 Y134.711 E9.94436
G1 X84.224 Y134.277 E9.9744
G1 X83.582 Y133.853 E9.99999
G1 X83.012 Y133.445 E10.0233
G1 X82.275 Y132.864 E10.05452
G1 X81.993 Y132.62 E10.06692
G1 X81.344 Y132.008 E10.09659
G1 X80.928 Y131.579 E10.11646
G1 X80.329 Y130.903 E10.1465
G1 X80.019 Y130.5 E10.16342
G1 X79.692 Y130.053 E10.18184
G1 X79.229 Y129.364 E10.20945
G1 X79.026 Y129.033 E10.22236
G1 X78.601 Y128.268 E10.25147
G1 X78.335 Y127.737 E10.27122
G1 X77.967 Y126.913 E10.30124
G1 X77.794 Y126.441 E10.31796
G1 X77.585 Y125.824 E10.33962
G1 X77.254 Y124.6 E10.3818
G1 X77.146 Y124.073 E10.39969
G1 X76.977 Y122.919 E10.43848
G1 X76.9 Y122.044 E10.46769
G1 X76.861 Y121.142 E10.49772
G1 X76.902 Y120.24 E10.52775
G1 X77.022 Y119.345 E10.55779
G1 X77.221 Y118.464 E10.58783
G1 X77.497 Y117.604 E10.61787
G1 X77.848 Y116.772 E10.6479
G1 X78.272 Y115.974 E10.67796
G1 X78.764 Y115.217 E10.70799
G1 X79.321 Y114.506 E10.73803
G1 X79.939 Y113.848 E10.76805
G1 X80.613 Y113.247 E10.79809
G1 X81.338 Y112.707 E10.82816
G1 F1500 E4.32816
;MESH:Marker_holder_18RA.stl
G0 F6000 X93.223 Y125.232
G0 X93.001 Y126.04
;TYPE:WALL-OUTER
G1 F1500 E10.82816
G1 F1391.3 X92.002 Y126.026 E10.85682
G1 X91.563 Y126 E10.86943
G1 F1344.5 X91.177 Y125.929 E10.88108
G1 F1283.4 X90.656 Y125.803 E10.89775
G1 F1318.7 X90.066 Y125.592 E10.91672
G1 F1371.4 X89.583 Y125.33 E10.93271
G1 X89.258 Y125.115 E10.94405
G1 X89.051 Y124.951 E10.95173
G1 X90.186 Y125.264 E10.986
G1 F1318.7 X90.763 Y125.438 E11.00424
G1 F1326 X91.627 Y125.66 E11.03109
G1 F1391.3 X93.001 Y126.04 E11.07199
M104 S200
G1 F1500 E4.57199
;MESH:NONMESH
G0 F300 X93.001 Y126.04 Z0.4
G0 F6000 X93.223 Y125.232
G0 X81.338 Y112.707
;TIME_ELAPSED:23.098831
;LAYER:1
M106 S85
;TYPE:SKIRT
G1 F1500 E11.07199
G1 F1036.9 X82.107 Y112.234 E11.10201
G1 X82.915 Y111.831 E11.13205
G1 X83.755 Y111.5 E11.16208
G1 X84.622 Y111.246 E11.19212
G1 X85.507 Y111.069 E11.22214
G1 X86.405 Y110.971 E11.25219
G1 X87.308 Y110.953 E11.28223
G1 X88.209 Y111.015 E11.31227
G1 X89.471 Y111.239 E11.3549
G1 X90.038 Y111.382 E11.37434
G1 X108.443 Y116.479 E12.00954
G1 X109.06 Y116.659 E12.03091
G1 X109.915 Y116.95 E12.06095
G1 X110.74 Y117.316 E12.09097
G1 X111.531 Y117.753 E12.12103
G1 X112.279 Y118.258 E12.15105
G1 X112.98 Y118.828 E12.1811
G1 X113.628 Y119.457 E12.21113
G1 X114.217 Y120.141 E12.24116
G1 X114.744 Y120.875 E12.27121
G1 X115.204 Y121.652 E12.30124
G1 X115.593 Y122.467 E12.33128
G1 X115.908 Y123.313 E12.3613
G1 X116.148 Y124.184 E12.39135
G1 X116.309 Y125.073 E12.4214
G1 X116.392 Y125.972 E12.45143
G1 X116.394 Y126.875 E12.48146
G1 X116.317 Y127.775 E12.51151
G1 X116.16 Y128.664 E12.54153
G1 X115.925 Y129.536 E12.57157
G1 X115.614 Y130.384 E12.60161
G1 X115.229 Y131.201 E12.63165
G1 X114.774 Y131.981 E12.66169
G1 X114.251 Y132.717 E12.69172
G1 X113.665 Y133.405 E12.72178
G1 X113.021 Y134.038 E12.75181
G1 X112.323 Y134.611 E12.78185
G1 X111.577 Y135.12 E12.81188
G1 X110.789 Y135.562 E12.84193
G1 X109.966 Y135.932 E12.87195
G1 X109.112 Y136.227 E12.902
G1 X108.236 Y136.446 E12.93203
G1 X107.344 Y136.587 E12.96207
G1 X106.203 Y136.651 E13.00008
G1 X105.381 Y136.65 E13.02742
G1 X92.397 Y136.458 E13.45931
G1 X91.543 Y136.433 E13.48773
G1 X91.022 Y136.404 E13.50508
G1 X90.55 Y136.366 E13.52083
G1 X89.219 Y136.17 E13.56558
G1 X88.579 Y136.032 E13.58736
G1 X87.699 Y135.801 E13.61762
G1 X86.852 Y135.515 E13.64735
G1 X86.367 Y135.329 E13.66463
G1 X85.516 Y134.957 E13.69552
G1 X85.016 Y134.711 E13.71405
G1 X84.224 Y134.277 E13.74409
G1 X83.582 Y133.853 E13.76968
G1 X83.012 Y133.445 E13.79299
G1 X82.275 Y132.864 E13.82421
G1 X81.993 Y132.62 E13.83661
G1 X81.344 Y132.008 E13.86628
G1 X80.928 Y131.579 E13.88615
G1 X80.329 Y130.903 E13.9162
G1 X80.019 Y130.5 E13.93311
G1 X79.692 Y130.053 E13.95153
G1 X79.229 Y129.364 E13.97914
G1 X79.026 Y129.033 E13.99205
G1 X78.601 Y128.268 E14.02116
G1 X78.335 Y127.737 E14.04091
G1 X77.967 Y126.913 E14.07093
G1 X77.794 Y126.441 E14.08765
G1 X77.585 Y125.824 E14.10931
G1 X77.254 Y124.6 E14.15149
G1 X77.146 Y124.073 E14.16938
G1 X76.977 Y122.919 E14.20817
G1 X76.9 Y122.044 E14.23739
G1 X76.861 Y121.142 E14.26741
G1 X76.902 Y120.24 E14.29745
G1 X77.022 Y119.345 E14.32748
G1 X77.221 Y118.464 E14.35752
G1 X77.497 Y117.604 E14.38756
G1 X77.848 Y116.772 E14.4176
G1 X78.272 Y115.974 E14.44765
G1 X78.764 Y115.217 E14.47768
G1 X79.321 Y114.506 E14.50772
G1 X79.939 Y113.848 E14.53774
G1 X80.613 Y113.247 E14.56778
G1 X81.338 Y112.707 E14.59785
G1 F1500 E8.09785
;MESH:Marker_holder_18RA.stl
G0 F7500 X88.291 Y122.329
G0 X95.645 Y125.677
;TYPE:WALL-INNER
G1 F1500 E14.59785
G1 F1036.9 X88.403 Y123.672 E14.84778
G1 X88.786 Y124.148 E14.8681
G1 X89.041 Y124.413 E14.88033
G1 X89.398 Y124.726 E14.89612
G1 X89.879 Y125.048 E14.91537
G1 X90.403 Y125.304 E14.93477
G1 X90.853 Y125.454 E14.95055
G1 X91.265 Y125.55 E14.96462
G1 X91.595 Y125.599 E14.97571
G1 X92.02 Y125.625 E14.98988
G1 X95.645 Y125.677 E15.11046
G1 F1500 E8.61046
G0 F7500 X97.184 Y125.899
G0 X98.752 Y126.122
;TYPE:WALL-OUTER
G1 F1500 E15.11046
G1 F1036.9 X87.64 Y123.047 E15.49393
G1 X87.81 Y123.438 E15.50811
G1 X88.148 Y123.993 E15.52973
G1 X88.479 Y124.406 E15.54733
G1 X88.755 Y124.695 E15.56062
G1 X89.154 Y125.044 E15.57825
G1 X89.679 Y125.396 E15.59928
G1 X90.251 Y125.676 E15.62046
G1 X90.744 Y125.84 E15.63774
G1 X91.189 Y125.944 E15.65294
G1 X91.553 Y125.998 E15.66518
G1 X91.995 Y126.025 E15.67991
G1 X98.752 Y126.122 E15.90467
G1 F1500 E9.40467
G0 F7500 X97.184 Y125.899
G0 X93.06 Y125.307
;TYPE:SKIN
G1 F1500 E15.90467
G1 F1202.2 X92.038 Y125.293 E15.93399
G1 X91.618 Y125.266 E15.94606
G1 F1171.6 X91.355 Y125.218 E15.95393
G1 F1133.2 X90.967 Y125.126 E15.96607
G1 F1136.3 X90.521 Y124.984 E15.98027
G1 F1152.1 X90.056 Y124.756 E15.99577
G1 X89.607 Y124.455 E16.01196
G1 X89.446 Y124.315 E16.01834
G1 F1136.3 X91.067 Y124.769 E16.06943
G1 F1161.8 X91.683 Y124.926 E16.0883
G1 F1202.2 X93.06 Y125.307 E16.12929
G1 F1500 E9.62929
;MESH:NONMESH
G0 F300 X93.06 Y125.307 Z0.6
G0 F7500 X93.122 Y125.084
G0 X88.006 Y123.363
G0 X88.291 Y122.329
G0 X81.338 Y112.707
;TIME_ELAPSED:35.805290
;LAYER:2
M106 S170
;TYPE:SKIRT
G1 F1500 E16.12929
G1 F1200 X82.107 Y112.234 E16.15932
G1 X82.915 Y111.831 E16.18935
G1 X83.755 Y111.5 E16.21938
G1 X84.622 Y111.246 E16.24943
G1 X85.507 Y111.069 E16.27944
G1 X86.405 Y110.971 E16.30949
G1 X87.308 Y110.953 E16.33953
G1 X88.209 Y111.015 E16.36957
G1 X89.471 Y111.239 E16.4122
G1 X90.038 Y111.382 E16.43165
G1 X108.443 Y116.479 E17.06684
G1 X109.06 Y116.659 E17.08822
G1 X109.915 Y116.95 E17.11826
G1 X110.74 Y117.316 E17.14827
G1 X111.531 Y117.753 E17.17833
G1 X112.279 Y118.258 E17.20835
G1 X112.98 Y118.828 E17.2384
G1 X113.628 Y119.457 E17.26844
G1 X114.217 Y120.141 E17.29846
G1 X114.744 Y120.875 E17.32851
G1 X115.204 Y121.652 E17.35854
G1 X115.593 Y122.467 E17.38858
G1 X115.908 Y123.313 E17.41861
G1 X116.148 Y124.184 E17.44866
G1 X116.309 Y125.073 E17.4787
G1 X116.392 Y125.972 E17.50873
G1 X116.394 Y126.875 E17.53877
G1 X116.317 Y127.775 E17.56881
G1 X116.16 Y128.664 E17.59884
G1 X115.925 Y129.536 E17.62887
G1 X115.614 Y130.384 E17.65891
G1 X115.229 Y131.201 E17.68895
G1 X114.774 Y131.981 E17.71899
G1 X114.251 Y132.717 E17.74902
G1 X113.665 Y133.405 E17.77908
G1 X113.021 Y134.038 E17.80911
G1 X112.323 Y134.611 E17.83915
G1 X111.577 Y135.12 E17.86919
G1 X110.789 Y135.562 E17.89924
G1 X109.966 Y135.932 E17.92925
G1 X109.112 Y136.227 E17.9593
G1 X108.236 Y136.446 E17.98933
G1 X107.344 Y136.587 E18.01937
G1 X106.203 Y136.651 E18.05738
G1 X105.381 Y136.65 E18.08472
