;FLAVOR:Marlin
;TIME:3457
;Filament used: 1.64691m
;Layer height: 0.2
;MINX:77.23
;MINY:81.491
;MINZ:0.2
;MAXX:137.138
;MAXY:139.12
;MAXZ:36
;TARGET_MACHINE.NAME:Creality Ender-3 Pro
;Generated with Cura_SteamEngine 5.6.0
M82 ;absolute extrusion mode
; Ender 3 Custom Start G-code
G92 E0 ; Reset Extruder
G28 ; Home all axes
G1 Z5.0 F3000 ; Move Z Axis up a bit during heating to not damage bed
M104 S175 ; Start heating up the nozzle most of the way
M190 S60 ; Start heating the bed, wait until target temperature reached
M109 S200 ; Finish heating the nozzle
G1 Z2.0 F3000 ; Move Z Axis up little to prevent scratching of Heat Bed
G1 X0.1 Y20 Z0.3 F5000.0 ; Move to start position
G1 X0.1 Y200.0 Z0.3 F1500.0 E15 ; Draw the first line
G1 X0.4 Y200.0 Z0.3 F5000.0 ; Move to side a little
G1 X0.4 Y20 Z0.3 F1500.0 E30 ; Draw the second line
G92 E0 ; Reset Extruder
G1 Z2.0 F3000 ; Move Z Axis up little to prevent scratching of Heat Bed
G1 X5 Y20 Z0.3 F5000.0 ; Move over to prevent blob squish
G92 E0
G92 E0
G1 F1500 E-6.5
;LAYER_COUNT:180
;LAYER:0
M107
G0 F6000 X81.801 Y92.898 Z0.2
;TYPE:SKIRT
G1 F1500 E0
G1 F1200 X82.702 Y92.211 E0.03768
G1 X83.084 Y91.95 E0.05307
G1 X83.923 Y91.433 E0.08585
G1 X85.147 Y90.841 E0.13107
G1 X86.026 Y90.513 E0.16228
G1 X87.144 Y90.142 E0.20146
G1 X108.165 Y83.617 E0.93353
G1 X110.037 Y83.075 E0.99835
G1 X114.041 Y82.001 E1.13623
G1 X114.781 Y81.816 E1.1616
G1 X115.744 Y81.623 E1.19426
G1 X117.026 Y81.496 E1.23711
G1 X118.045 Y81.491 E1.271
G1 X119.217 Y81.597 E1.31014
G1 X119.747 Y81.675 E1.32796
G1 X120.702 Y81.861 E1.36032
G1 X121.638 Y82.13 E1.39271
G1 X122.509 Y82.464 E1.42374
G1 X122.853 Y82.615 E1.43624
G1 X123.726 Y83.045 E1.4686
G1 X124.556 Y83.548 E1.50088
G1 X125.247 Y84.05 E1.52929
G1 X125.516 Y84.264 E1.54072
G1 X126.523 Y85.169 E1.58575
G1 X126.754 Y85.406 E1.59676
G1 X127.401 Y86.132 E1.62911
G1 X127.943 Y86.855 E1.65916
G1 X128.651 Y88.035 E1.70493
G1 X128.847 Y88.416 E1.71918
G1 X129.26 Y89.318 E1.75218
G1 X129.579 Y90.216 E1.78387
G1 X129.796 Y90.967 E1.80987
G1 X129.942 Y91.549 E1.82983
G1 X130.151 Y92.588 E1.86508
G1 X130.576 Y95.435 E1.96082
G1 X131.032 Y97.97 E2.04649
G1 X131.54 Y100.396 E2.12893
G1 X132.12 Y102.833 E2.21224
G1 X132.774 Y105.261 E2.29588
G1 X133.505 Y107.698 E2.3805
G1 X134.3 Y110.099 E2.46462
G1 X135.133 Y112.401 E2.54605
G1 X135.641 Y113.667 E2.59142
G1 X135.732 Y113.929 E2.60064
G1 X136.178 Y115.065 E2.64123
G1 X136.464 Y115.894 E2.6704
G1 X136.661 Y116.587 E2.69436
G1 X136.801 Y117.144 E2.71346
G1 X136.983 Y118.028 E2.74348
G1 X137.117 Y119.305 E2.78619
G1 X137.138 Y119.788 E2.80227
G1 X137.136 Y120.744 E2.83407
G1 X137.047 Y121.748 E2.86759
G1 X136.889 Y122.637 E2.89762
G1 X136.573 Y123.776 E2.93694
G1 X136.426 Y124.21 E2.95218
G1 X136.083 Y125.091 E2.98362
G1 X135.436 Y126.357 E3.03091
G1 X134.868 Y127.233 E3.06563
G1 X134.395 Y127.858 E3.0917
G1 X133.784 Y128.569 E3.12288
G1 X133.146 Y129.198 E3.15268
G1 X132.859 Y129.457 E3.16554
G1 X132.109 Y130.076 E3.19788
G1 X131.338 Y130.606 E3.229
G1 X130.643 Y131.008 E3.25571
G1 X130.326 Y131.175 E3.26762
G1 X129.472 Y131.578 E3.29903
G1 X128.228 Y132.017 E3.34291
G1 X127.203 Y132.307 E3.37834
G1 X123.593 Y133.274 E3.50264
G1 X121.414 Y133.81 E3.57727
G1 X99.948 Y138.67 E4.30931
G1 X99.056 Y138.859 E4.33963
G1 X98.213 Y138.999 E4.36805
G1 X97.818 Y139.048 E4.38129
G1 X96.918 Y139.12 E4.41132
G1 X95.599 Y139.094 E4.4552
G1 X95.218 Y139.062 E4.46792
G1 X94.285 Y138.943 E4.4992
G1 X93.247 Y138.713 E4.53456
G1 X92.854 Y138.605 E4.54812
G1 X91.925 Y138.303 E4.58061
G1 X90.972 Y137.895 E4.61509
G1 X90.565 Y137.696 E4.63016
G1 X89.7 Y137.222 E4.66296
G1 X88.672 Y136.515 E4.70446
G1 X88.288 Y136.214 E4.72069
G1 X87.557 Y135.585 E4.75276
G1 X87.048 Y135.074 E4.77675
G1 X86.832 Y134.841 E4.78732
G1 X86.199 Y134.093 E4.81991
G1 X85.576 Y133.2 E4.85613
G1 X85.339 Y132.819 E4.87105
G1 X84.865 Y131.978 E4.90316
G1 X84.546 Y131.293 E4.92829
G1 X84.446 Y131.056 E4.93685
G1 X83.999 Y129.779 E4.98185
G1 X83.785 Y129.019 E5.00811
G1 X77.784 Y106.636 E5.77886
G1 X77.56 Y105.733 E5.8098
G1 X77.369 Y104.774 E5.84233
G1 X77.262 Y103.762 E5.87617
G1 X77.238 Y103.326 E5.8907
G1 X77.23 Y102.357 E5.92293
G1 X77.292 Y101.494 E5.95171
G1 X77.431 Y100.489 E5.98545
G1 X77.586 Y99.765 E6.01008
G1 X77.858 Y98.788 E6.04381
G1 X78.164 Y97.955 E6.07332
G1 X78.539 Y97.099 E6.10441
G1 X78.953 Y96.327 E6.13354
G1 X79.441 Y95.538 E6.1644
G1 X79.93 Y94.866 E6.19204
G1 X80.524 Y94.146 E6.22309
G1 X81.093 Y93.553 E6.25042
G1 X81.801 Y92.898 E6.2825
G0 F6000 X82.073 Y93.192
G1 F1200 X82.928 Y92.541 E6.31824
G1 X83.295 Y92.29 E6.33303
G1 X84.098 Y91.793 E6.36444
G1 X85.287 Y91.216 E6.4084
G1 X86.152 Y90.893 E6.43911
G1 X87.263 Y90.524 E6.47804
G1 X108.276 Y84.001 E7.20984
G1 X110.141 Y83.461 E7.27442
G1 X114.138 Y82.389 E7.41206
G1 X114.86 Y82.208 E7.43681
G1 X115.784 Y82.021 E7.46817
G1 X117.028 Y81.896 E7.50975
G1 X118.047 Y81.891 E7.54364
G1 X119.159 Y81.993 E7.58079
G1 X119.671 Y82.068 E7.598
G1 X120.592 Y82.246 E7.6292
G1 X121.495 Y82.504 E7.66043
G1 X122.349 Y82.831 E7.69085
G1 X122.677 Y82.974 E7.70275
G1 X123.519 Y83.387 E7.73394
G1 X124.321 Y83.872 E7.76511
G1 X124.999 Y84.364 E7.79298
G1 X125.249 Y84.562 E7.80358
G1 X126.237 Y85.449 E7.84774
G1 X126.456 Y85.673 E7.85816
G1 X127.081 Y86.372 E7.88935
G1 X127.623 Y87.095 E7.9194
G1 X128.295 Y88.218 E7.96293
G1 X128.491 Y88.599 E7.97718
G1 X128.883 Y89.452 E8.00841
G1 X129.202 Y90.35 E8.0401
G1 X129.408 Y91.065 E8.06485
G1 X129.55 Y91.628 E8.08416
G1 X129.755 Y92.647 E8.11873
G1 X130.182 Y95.506 E8.21488
G1 X130.64 Y98.052 E8.30092
G1 X131.148 Y100.478 E8.38336
G1 X131.734 Y102.937 E8.46743
G1 X132.391 Y105.376 E8.55145
G1 X133.125 Y107.824 E8.63645
G1 X133.92 Y110.225 E8.72057
G1 X134.762 Y112.55 E8.80281
G1 X135.263 Y113.798 E8.84754
G1 X135.354 Y114.06 E8.85677
G1 X135.8 Y115.195 E8.89733
G1 X136.079 Y116.004 E8.92579
G1 X136.273 Y116.685 E8.94934
G1 X136.409 Y117.225 E8.96786
G1 X136.591 Y118.109 E8.99788
G1 X136.717 Y119.323 E9.03848
G1 X136.738 Y119.787 E9.05393
G1 X136.736 Y120.743 E9.08572
G1 X136.653 Y121.678 E9.11694
G1 X136.495 Y122.567 E9.14697
G1 X136.194 Y123.648 E9.1843
G1 X136.053 Y124.065 E9.19894
G1 X135.71 Y124.946 E9.23038
G1 X135.1 Y126.139 E9.27495
G1 X134.532 Y127.015 E9.30967
G1 X134.092 Y127.597 E9.33394
G1 X133.481 Y128.308 E9.36512
G1 X132.878 Y128.901 E9.39325
G1 X132.604 Y129.149 E9.40554
G1 X131.882 Y129.746 E9.4367
G1 X131.111 Y130.276 E9.46782
G1 X130.456 Y130.654 E9.49297
G1 X130.155 Y130.813 E9.50429
G1 X129.301 Y131.216 E9.5357
G1 X128.119 Y131.632 E9.57738
G1 X127.1 Y131.921 E9.61261
G1 X123.497 Y132.886 E9.73667
G1 X121.326 Y133.42 E9.81103
G1 X99.865 Y138.279 E10.54289
G1 X98.99 Y138.464 E10.57264
G1 X98.164 Y138.602 E10.60049
G1 X97.786 Y138.649 E10.61316
G1 X96.886 Y138.721 E10.64319
G1 X95.632 Y138.695 E10.6849
G1 X95.269 Y138.665 E10.69702
G1 X94.336 Y138.546 E10.7283
G1 X93.353 Y138.327 E10.7618
G1 X92.977 Y138.224 E10.77477
G1 X92.082 Y137.935 E10.80605
G1 X91.147 Y137.535 E10.83987
G1 X90.757 Y137.345 E10.8543
G1 X89.927 Y136.892 E10.88575
G1 X88.899 Y136.185 E10.92725
G1 X88.549 Y135.911 E10.94203
G1 X87.84 Y135.302 E10.97312
G1 X87.341 Y134.802 E10.99661
G1 X87.137 Y134.582 E11.00659
G1 X86.527 Y133.864 E11.03793
G1 X85.915 Y132.988 E11.07347
G1 X85.687 Y132.623 E11.08778
G1 X85.228 Y131.809 E11.11886
G1 X84.915 Y131.137 E11.14352
G1 X84.815 Y130.9 E11.15208
G1 X84.384 Y129.671 E11.19539
G1 X84.171 Y128.915 E11.22152
G1 X78.172 Y106.54 E11.992
G1 X77.952 Y105.654 E12.02236
G1 X77.767 Y104.732 E12.05364
G1 X77.66 Y103.72 E12.08748
G1 X77.638 Y103.322 E12.10074
G1 X77.629 Y102.386 E12.13187
G1 X77.691 Y101.523 E12.16065
G1 X77.822 Y100.573 E12.19255
G1 X77.977 Y99.849 E12.21717
G1 X78.234 Y98.926 E12.24904
G1 X78.531 Y98.115 E12.27777
G1 X78.892 Y97.288 E12.30778
G1 X79.306 Y96.516 E12.33692
G1 X79.781 Y95.749 E12.36692
G1 X80.239 Y95.121 E12.39277
G1 X80.833 Y94.401 E12.42382
G1 X81.365 Y93.847 E12.44936
G1 X82.073 Y93.192 E12.48144
G0 F6000 X82.316 Y93.51
G1 F1200 X83.154 Y92.871 E12.5165
G1 X83.506 Y92.63 E12.53068
G1 X84.273 Y92.153 E12.56073
G1 X85.462 Y91.576 E12.60468
G1 X86.278 Y91.273 E12.63363
G1 X87.382 Y90.906 E12.67233
G1 X108.387 Y84.385 E13.40385
G1 X110.245 Y83.847 E13.46819
G1 X114.235 Y82.777 E13.60558
G1 X114.94 Y82.6 E13.62976
G1 X115.825 Y82.419 E13.6598
G1 X117.03 Y82.296 E13.70009
G1 X118.049 Y82.291 E13.73398
G1 X119.101 Y82.389 E13.76912
G1 X119.596 Y82.461 E13.78576
G1 X120.483 Y82.631 E13.8158
G1 X121.352 Y82.878 E13.84585
G1 X122.19 Y83.198 E13.87568
G1 X122.501 Y83.333 E13.88696
G1 X123.312 Y83.729 E13.91698
G1 X124.086 Y84.196 E13.94704
G1 X124.751 Y84.678 E13.97436
G1 X124.982 Y84.86 E13.98414
G1 X125.951 Y85.729 E14.02743
G1 X126.158 Y85.94 E14.03726
G1 X126.761 Y86.612 E14.06729
G1 X127.303 Y87.335 E14.09735
G1 X127.94 Y88.402 E14.13868
G1 X128.128 Y88.766 E14.1523
G1 X128.506 Y89.586 E14.18234
G1 X128.825 Y90.484 E14.21403
G1 X129.02 Y91.163 E14.23753
G1 X129.158 Y91.707 E14.2562
G1 X129.359 Y92.706 E14.29009
G1 X129.788 Y95.577 E14.38664
G1 X130.248 Y98.134 E14.47305
G1 X130.756 Y100.56 E14.55549
G1 X131.348 Y103.041 E14.64032
G1 X132.008 Y105.491 E14.72472
G1 X132.745 Y107.95 E14.8101
G1 X133.54 Y110.351 E14.89422
G1 X134.391 Y112.699 E14.97728
G1 X134.885 Y113.929 E15.02137
G1 X134.977 Y114.194 E15.0307
G1 X135.422 Y115.326 E15.07116
G1 X135.694 Y116.114 E15.09888
G1 X135.885 Y116.783 E15.12202
G1 X136.017 Y117.306 E15.13996
G1 X136.199 Y118.19 E15.16998
G1 X136.317 Y119.341 E15.20846
G1 X136.338 Y119.805 E15.22391
G1 X136.338 Y120.708 E15.25395
G1 X136.259 Y121.608 E15.284
G1 X136.101 Y122.497 E15.31403
G1 X135.815 Y123.52 E15.34936
G1 X135.68 Y123.921 E15.36343
G1 X135.354 Y124.764 E15.39349
G1 X134.764 Y125.921 E15.43669
G1 X134.196 Y126.797 E15.47141
G1 X133.788 Y127.337 E15.49392
G1 X133.2 Y128.023 E15.52397
G1 X132.609 Y128.605 E15.55156
G1 X132.349 Y128.841 E15.56324
G1 X131.655 Y129.417 E15.59324
G1 X130.911 Y129.93 E15.6233
G1 X130.269 Y130.301 E15.64796
G1 X129.984 Y130.452 E15.65869
G1 X129.168 Y130.839 E15.68872
G1 X128.01 Y131.247 E15.72956
G1 X126.997 Y131.535 E15.76459
G1 X123.401 Y132.498 E15.88841
G1 X121.238 Y133.03 E15.96249
G1 X99.783 Y137.888 E16.69415
G1 X98.924 Y138.069 E16.72335
G1 X98.098 Y138.207 E16.7512
G1 X97.754 Y138.25 E16.76273
G1 X96.854 Y138.322 E16.79276
G1 X95.664 Y138.296 E16.83235
G1 X95.319 Y138.268 E16.84386
G1 X94.423 Y138.155 E16.8739
G1 X93.458 Y137.941 E16.90678
G1 X93.099 Y137.843 E16.91915
G1 X92.239 Y137.567 E16.9492
G1 X91.322 Y137.175 E16.98236
G1 X90.948 Y136.993 E16.9962
G1 X90.154 Y136.562 E17.02625
G1 X89.126 Y135.855 E17.06774
G1 X88.809 Y135.607 E17.08113
G1 X88.123 Y135.019 E17.11118
G1 X87.634 Y134.529 E17.13421
G1 X87.441 Y134.322 E17.14362
G1 X86.855 Y133.635 E17.17365
G1 X86.254 Y132.776 E17.20852
G1 X86.035 Y132.426 E17.22225
G1 X85.591 Y131.64 E17.25228
G1 X85.284 Y130.981 E17.27646
G1 X85.184 Y130.744 E17.28501
G1 X84.769 Y129.562 E17.32668
G1 X84.557 Y128.811 E17.35264
G1 X78.56 Y106.443 E18.12287
G1 X78.344 Y105.575 E18.15262
G1 X78.165 Y104.69 E18.18265
G1 X78.058 Y103.678 E18.2165
G1 X78.038 Y103.318 E18.22849
G1 X78.028 Y102.415 E18.25853
G1 X78.09 Y101.552 E18.28731
G1 X78.213 Y100.657 E18.31735
G1 X78.368 Y99.933 E18.34198
G1 X78.61 Y99.063 E18.37201
G1 X78.898 Y98.275 E18.39992
G1 X79.259 Y97.448 E18.42993
G1 X79.646 Y96.727 E18.45715
G1 X80.121 Y95.96 E18.48716
G1 X80.548 Y95.375 E18.51124
G1 X81.122 Y94.678 E18.54128
G1 X81.654 Y94.124 E18.56682
G1 X82.316 Y93.51 E18.59685
G1 F1500 E12.09685
;MESH:stand_pi-cam_s01RA.stl
G0 F6000 X90.551 Y102.914
G0 X92.506 Y105.592
;TYPE:WALL-INNER
G1 F1500 E18.59685
G1 F1200 X92.296 Y105.611 E18.60387
G1 X91.732 Y105.559 E18.6227
G1 X91.241 Y105.354 E18.6404
G1 X91.055 Y105.206 E18.64831
G1 X90.693 Y104.775 E18.66703
G1 X90.482 Y104.251 E18.68582
G1 X90.464 Y104.041 E18.69283
G1 X90.514 Y103.474 E18.71176
G1 X90.747 Y102.919 E18.73178
G1 X91.311 Y102.394 E18.75741
G1 X92.005 Y102.208 E18.7813
G1 X92.479 Y102.229 E18.79708
G1 X93.021 Y102.428 E18.81629
G1 X93.475 Y102.809 E18.836
G1 X93.765 Y103.315 E18.8554
G1 X93.856 Y103.802 E18.87188
G1 X93.844 Y104.218 E18.88572
G1 X93.647 Y104.762 E18.90496
G1 X93.277 Y105.205 E18.92416
G1 X92.97 Y105.407 E18.93638
G1 X92.506 Y105.592 E18.953
G1 F1500 E12.453
G0 F6000 X92.195 Y105.703
G0 X93.852 Y104.727
G0 X103.322 Y102.309
G0 X104.37 Y102.376
G1 F1500 E18.953
G1 F1200 X103.898 Y102.333 E18.96876
G1 X103.506 Y102.217 E18.98236
G1 X103.042 Y101.89 E19.00124
G1 X102.764 Y101.526 E19.01647
G1 X102.525 Y100.955 E19.03706
G1 X102.588 Y100.243 E19.06083
G1 X102.772 Y99.802 E19.07673
G1 X102.92 Y99.59 E19.08532
G1 X103.263 Y99.276 E19.10079
G1 X103.652 Y99.074 E19.11537
G1 X104.09 Y98.973 E19.13032
G1 X104.552 Y98.994 E19.1457
G1 X105.081 Y99.187 E19.16443
G1 X105.462 Y99.477 E19.18036
G1 X105.631 Y99.679 E19.18912
G1 X105.85 Y100.117 E19.2054
G1 X105.948 Y100.654 E19.22356
G1 X105.929 Y100.945 E19.23326
G1 X105.781 Y101.408 E19.24943
G1 X105.458 Y101.869 E19.26815
G1 X105.09 Y102.152 E19.28359
G1 X104.58 Y102.357 E19.30187
G1 X104.37 Y102.376 E19.30888
G1 F1500 E12.80888
G0 F6000 X104.352 Y102.475
G0 X104.628 Y102.532
G0 X109.363 Y119.093
G0 X109.798 Y122.659
G1 F1500 E19.30888
G1 F1200 X109.233 Y122.61 E19.32775
G1 X108.703 Y122.362 E19.34721
G1 X108.405 Y122.08 E19.36085
G1 X108.126 Y121.682 E19.37702
G1 X107.971 Y121.108 E19.3968
G1 X108.023 Y120.526 E19.41623
G1 X108.198 Y120.104 E19.43142
G1 X108.474 Y119.744 E19.44651
G1 X108.922 Y119.427 E19.46477
G1 X109.391 Y119.274 E19.48117
G1 X109.865 Y119.274 E19.49694
G1 X110.274 Y119.357 E19.51082
G1 X110.774 Y119.648 E19.53006
G1 X111.087 Y120.021 E19.54626
G1 X111.284 Y120.384 E19.55999
G1 X111.386 Y120.958 E19.57938
G1 X111.284 Y121.527 E19.59861
G1 X111.065 Y121.951 E19.61448
G1 X110.656 Y122.359 E19.6337
G1 X110.137 Y122.598 E19.6527
G1 X109.798 Y122.659 E19.66416
G1 F1500 E13.16416
G0 F6000 X109.81 Y122.762
G0 X108.257 Y122.182
G0 X99.522 Y124.051
G0 X97.921 Y125.901
G1 F1500 E19.66416
G1 F1200 X97.299 Y125.872 E19.68487
G1 X96.847 Y125.721 E19.70072
G1 X96.405 Y125.411 E19.71867
G1 X96.122 Y125.043 E19.73412
G1 X95.917 Y124.536 E19.7523
G1 X95.899 Y124.325 E19.75935
G1 X95.949 Y123.762 E19.77815
G1 X96.191 Y123.18 E19.79911
G1 X96.737 Y122.718 E19.8229
G1 X97.258 Y122.509 E19.84157
G1 X97.468 Y122.49 E19.84858
G1 X98.034 Y122.542 E19.86749
G1 X98.473 Y122.724 E19.88329
G1 X98.683 Y122.873 E19.89186
G1 X99.012 Y123.229 E19.90798
G1 X99.141 Y123.453 E19.91658
G1 X99.335 Y124.063 E19.93787
G1 X99.21 Y124.764 E19.96155
G1 X98.991 Y125.187 E19.97739
G1 X98.581 Y125.594 E19.99661
G1 X97.921 Y125.901 E20.02082
G1 F1500 E13.52082
G0 F6000 X98.075 Y125.939
G0 X96.896 Y125.929
G0 X97.181 Y127.193
G0 X96.442 Y127.532
G1 F1500 E20.02082
G1 F1200 X96.669 Y127.513 E20.0284
G1 X119.711 Y122.302 E20.81413
G1 X124.95 Y120.903 E20.99449
G1 X125.222 Y120.737 E21.00508
G1 X125.428 Y120.511 E21.01526
G1 X125.551 Y120.139 E21.02829
G1 X125.54 Y119.89 E21.03658
G1 X125.35 Y119.182 E21.06096
G1 X125.079 Y118.855 E21.07508
G1 X124.791 Y118.717 E21.08571
G1 X124.434 Y118.658 E21.09774
G1 X120.413 Y119.737 E21.23621
G1 X120.001 Y119.756 E21.24993
G1 X119.517 Y119.676 E21.26624
G1 X119.144 Y119.543 E21.27942
G1 X118.656 Y119.211 E21.29905
G1 X118.29 Y118.766 E21.31821
G1 X118.097 Y118.395 E21.33212
G1 X117.617 Y116.599 E21.39395
G1 X117.391 Y116.322 E21.40584
G1 X117.123 Y116.142 E21.41658
G1 X116.808 Y116.089 E21.4272
G1 X116.507 Y116.124 E21.43728
G1 X95.221 Y121.828 E22.17024
G1 X94.806 Y121.766 E22.18419
