;FLAVOR:Marlin
;TIME:416
;Filament used: 0.142421m
;Layer height: 0.2
;MINX:94.521
;MINY:94.514
;MINZ:0.2
;MAXX:125.486
;MAXY:125.486
;MAXZ:10.8
;TARGET_MACHINE.NAME:Creality Ender-3 Pro
;Generated with Cura_SteamEngine 5.6.0
M82 ;absolute extrusion mode
; Ender 3 Custom Start G-code
G92 E0 ; Reset Extruder
G28 ; Home all axes
G1 Z5.0 F3000 ; Move Z Axis up a bit during heating to not damage bed
M104 S175 ; Start heating up the nozzle most of the way
M190 S60 ; Start heating the bed, wait until target temperature reached
M109 S200 ; Finish heating the nozzle
G1 Z2.0 F3000 ; Move Z Axis up little to prevent scratching of Heat Bed
G1 X0.1 Y20 Z0.3 F5000.0 ; Move to start position
G1 X0.1 Y200.0 Z0.3 F1500.0 E15 ; Draw the first line
G1 X0.4 Y200.0 Z0.3 F5000.0 ; Move to side a little
G1 X0.4 Y20 Z0.3 F1500.0 E30 ; Draw the second line
G92 E0 ; Reset Extruder
G1 Z2.0 F3000 ; Move Z Axis up little to prevent scratching of Heat Bed
G1 X5 Y20 Z0.3 F5000.0 ; Move over to prevent blob squish
G92 E0
G92 E0
G1 F1500 E-6.5
;LAYER_COUNT:54
;LAYER:0
M107
G0 F6000 X99.048 Y99.051 Z0.2
;TYPE:SKIRT
G1 F1500 E0
G1 F1200 X99.348 Y98.759 E0.01392
G1 X100.113 Y98.082 E0.0479
G1 X100.55 Y97.73 E0.06656
G1 X101.329 Y97.158 E0.09871
G1 X102.174 Y96.635 E0.13176
G1 X102.896 Y96.238 E0.15917
G1 X103.325 Y96.026 E0.17508
G1 X104.382 Y95.57 E0.21337
G1 X104.979 Y95.35 E0.23453
G1 X105.894 Y95.059 E0.26647
G1 X106.453 Y94.924 E0.28559
G1 X107 Y94.807 E0.3042
G1 X107.971 Y94.648 E0.33692
G1 X108.505 Y94.587 E0.3548
G1 X109.563 Y94.514 E0.39007
G1 X110.481 Y94.522 E0.42061
G1 X111.031 Y94.549 E0.43892
G1 X112.276 Y94.683 E0.48057
G1 X112.965 Y94.8 E0.50381
G1 X114.162 Y95.079 E0.54469
G1 X114.641 Y95.222 E0.56132
G1 X115.686 Y95.595 E0.59822
G1 X116.197 Y95.808 E0.61664
G1 X117.173 Y96.275 E0.65262
G1 X117.724 Y96.575 E0.67349
G1 X118.552 Y97.073 E0.70563
G1 X119.117 Y97.476 E0.72871
G1 X119.488 Y97.758 E0.74421
G1 X120 Y98.174 E0.76615
G1 X120.282 Y98.419 E0.77858
G1 X120.935 Y99.034 E0.80841
G1 X121.24 Y99.346 E0.82292
G1 X121.916 Y100.108 E0.8568
G1 X122.251 Y100.524 E0.87457
G1 X123.05 Y101.659 E0.92073
G1 X123.333 Y102.122 E0.93878
G1 X123.772 Y102.917 E0.96899
G1 X123.974 Y103.324 E0.9841
G1 X124.43 Y104.382 E1.02242
G1 X124.65 Y104.979 E1.04358
G1 X124.941 Y105.894 E1.07552
G1 X125.076 Y106.453 E1.09464
G1 X125.193 Y107 E1.11325
G1 X125.352 Y107.969 E1.14591
G1 X125.413 Y108.503 E1.16378
G1 X125.486 Y109.562 E1.19909
G1 X125.478 Y110.479 E1.22959
G1 X125.451 Y111.03 E1.24794
G1 X125.317 Y112.276 E1.28962
G1 X125.2 Y112.965 E1.31286
G1 X124.921 Y114.162 E1.35374
G1 X124.778 Y114.641 E1.37037
G1 X124.405 Y115.686 E1.40727
G1 X124.192 Y116.196 E1.42566
G1 X123.72 Y117.183 E1.46205
G1 X123.422 Y117.731 E1.48279
G1 X122.94 Y118.53 E1.51383
G1 X122.543 Y119.091 E1.53669
G1 X122.26 Y119.463 E1.55223
G1 X121.826 Y120.002 E1.57525
G1 X121.603 Y120.26 E1.58659
G1 X120.966 Y120.935 E1.61746
G1 X120.654 Y121.24 E1.63197
G1 X119.886 Y121.92 E1.66609
G1 X119.455 Y122.267 E1.68449
G1 X118.676 Y122.838 E1.71662
G1 X117.838 Y123.356 E1.74939
G1 X117.074 Y123.776 E1.77838
G1 X116.675 Y123.974 E1.7932
G1 X115.618 Y124.43 E1.83149
G1 X115.021 Y124.65 E1.85265
G1 X114.106 Y124.941 E1.88458
G1 X113.547 Y125.076 E1.90371
G1 X113 Y125.193 E1.92231
G1 X112.029 Y125.352 E1.95504
G1 X111.495 Y125.413 E1.97292
G1 X110.437 Y125.486 E2.00819
G1 X109.519 Y125.478 E2.03872
G1 X108.969 Y125.451 E2.05704
G1 X107.724 Y125.317 E2.09869
G1 X107.035 Y125.2 E2.12193
G1 X105.844 Y124.923 E2.1626
G1 X105.364 Y124.78 E2.17926
G1 X104.306 Y124.402 E2.21663
G1 X103.795 Y124.189 E2.23504
G1 X102.836 Y123.73 E2.2704
G1 X102.268 Y123.421 E2.29191
G1 X101.442 Y122.922 E2.324
G1 X100.885 Y122.524 E2.34677
G1 X100.506 Y122.236 E2.36261
G1 X99.958 Y121.791 E2.38609
G1 X99.702 Y121.568 E2.39738
G1 X99.044 Y120.944 E2.42754
G1 X98.731 Y120.621 E2.4425
G1 X98.086 Y119.893 E2.47485
G1 X97.747 Y119.472 E2.49283
G1 X97.175 Y118.693 E2.52497
G1 X96.662 Y117.869 E2.55725
G1 X96.21 Y117.05 E2.58837
G1 X96.027 Y116.68 E2.6021
G1 X95.568 Y115.612 E2.64076
G1 X95.349 Y115.017 E2.66185
G1 X95.058 Y114.102 E2.69378
G1 X94.924 Y113.546 E2.7128
G1 X94.809 Y113.004 E2.73123
G1 X94.66 Y112.134 E2.76059
G1 X94.612 Y111.757 E2.77323
G1 X94.537 Y110.87 E2.80284
G1 X94.521 Y110.47 E2.81615
G1 X94.522 Y109.521 E2.84772
G1 X94.549 Y108.97 E2.86606
G1 X94.683 Y107.724 E2.90775
G1 X94.8 Y107.036 E2.93096
G1 X95.081 Y105.828 E2.97221
G1 X95.218 Y105.37 E2.98811
G1 X95.605 Y104.288 E3.02633
G1 X95.819 Y103.777 E3.04475
G1 X96.275 Y102.828 E3.07977
G1 X96.544 Y102.334 E3.09848
G1 X97.043 Y101.505 E3.13066
G1 X97.633 Y100.68 E3.1644
G1 X98.173 Y100.001 E3.19325
G1 X98.419 Y99.716 E3.20578
G1 X99.048 Y99.051 E3.23622
G0 F6000 X99.327 Y99.338
G1 F1200 X99.627 Y99.046 E3.25014
G1 X100.364 Y98.393 E3.28289
G1 X100.787 Y98.052 E3.30097
G1 X101.54 Y97.498 E3.33206
G1 X102.367 Y96.986 E3.36441
G1 X103.089 Y96.589 E3.39181
G1 X103.484 Y96.393 E3.40648
G1 X104.52 Y95.945 E3.44402
G1 X105.1 Y95.731 E3.46458
G1 X105.988 Y95.448 E3.49558
G1 X106.537 Y95.315 E3.51437
G1 X107.065 Y95.202 E3.53233
G1 X108.036 Y95.043 E3.56506
G1 X108.533 Y94.986 E3.58169
G1 X109.559 Y94.914 E3.6159
G1 X110.462 Y94.922 E3.64594
G1 X110.988 Y94.947 E3.66345
G1 X112.233 Y95.081 E3.7051
G1 X112.874 Y95.19 E3.72673
G1 X114.071 Y95.469 E3.76761
G1 X114.507 Y95.599 E3.78274
G1 X115.532 Y95.964 E3.81893
G1 X116.024 Y96.169 E3.83665
G1 X116.982 Y96.627 E3.87197
G1 X117.518 Y96.918 E3.89226
G1 X118.32 Y97.399 E3.92336
G1 X118.875 Y97.795 E3.94604
G1 X119.236 Y98.069 E3.96111
G1 X119.738 Y98.476 E3.98261
G1 X120.008 Y98.71 E3.99449
G1 X120.649 Y99.314 E4.02378
G1 X120.954 Y99.626 E4.03829
G1 X121.604 Y100.359 E4.07088
G1 X121.939 Y100.775 E4.08864
G1 X122.709 Y101.868 E4.13311
G1 X122.983 Y102.315 E4.15055
G1 X123.414 Y103.095 E4.18019
G1 X123.607 Y103.483 E4.1946
G1 X124.055 Y104.52 E4.23218
G1 X124.269 Y105.1 E4.25274
G1 X124.552 Y105.988 E4.28374
G1 X124.685 Y106.537 E4.30252
G1 X124.798 Y107.065 E4.32048
G1 X124.957 Y108.034 E4.35314
G1 X125.014 Y108.531 E4.36978
G1 X125.086 Y109.558 E4.40402
G1 X125.078 Y110.46 E4.43403
G1 X125.053 Y110.987 E4.45157
G1 X124.919 Y112.233 E4.49326
G1 X124.81 Y112.874 E4.51488
G1 X124.531 Y114.071 E4.55576
G1 X124.401 Y114.507 E4.57089
G1 X124.036 Y115.532 E4.60708
G1 X123.831 Y116.024 E4.62481
G1 X123.369 Y116.992 E4.66048
G1 X123.079 Y117.525 E4.68067
G1 X122.613 Y118.299 E4.71071
G1 X122.224 Y118.849 E4.73312
G1 X121.949 Y119.212 E4.74827
G1 X121.523 Y119.74 E4.77083
G1 X121.3 Y119.998 E4.78217
G1 X120.686 Y120.649 E4.81194
G1 X120.374 Y120.954 E4.82645
G1 X119.635 Y121.609 E4.85929
G1 X119.218 Y121.945 E4.87711
G1 X118.465 Y122.498 E4.90818
G1 X117.645 Y123.006 E4.94026
G1 X116.896 Y123.418 E4.96869
G1 X116.516 Y123.607 E4.98281
G1 X115.48 Y124.055 E5.02035
G1 X114.9 Y124.269 E5.04091
G1 X114.012 Y124.552 E5.07191
G1 X113.463 Y124.685 E5.0907
G1 X112.935 Y124.798 E5.10866
G1 X111.964 Y124.957 E5.14138
G1 X111.467 Y125.014 E5.15802
G1 X110.441 Y125.086 E5.19223
G1 X109.538 Y125.078 E5.22227
G1 X109.012 Y125.053 E5.23978
G1 X107.767 Y124.919 E5.28143
G1 X107.126 Y124.81 E5.30306
G1 X105.935 Y124.533 E5.34373
G1 X105.498 Y124.403 E5.35889
G1 X104.46 Y124.033 E5.39554
G1 X103.968 Y123.828 E5.41327
G1 X103.009 Y123.369 E5.44863
G1 X102.474 Y123.078 E5.46889
G1 X101.674 Y122.596 E5.49995
G1 X101.127 Y122.206 E5.52229
G1 X100.758 Y121.925 E5.53772
G1 X100.221 Y121.489 E5.56073
G1 X99.965 Y121.266 E5.57202
G1 X99.331 Y120.665 E5.60108
G1 X99.03 Y120.355 E5.61545
G1 X98.397 Y119.642 E5.64716
G1 X98.069 Y119.235 E5.66454
G1 X97.515 Y118.482 E5.69564
G1 X97.002 Y117.658 E5.72792
G1 X96.569 Y116.873 E5.75774
G1 X96.386 Y116.503 E5.77147
G1 X95.943 Y115.473 E5.80876
G1 X95.73 Y114.896 E5.82922
G1 X95.447 Y114.008 E5.86022
G1 X95.315 Y113.463 E5.87887
G1 X95.203 Y112.937 E5.89675
G1 X95.057 Y112.083 E5.92557
G1 X95.011 Y111.723 E5.93764
G1 X94.937 Y110.853 E5.96668
G1 X94.921 Y110.47 E5.97943
G1 X94.922 Y109.54 E6.01036
G1 X94.947 Y109.013 E6.02791
G1 X95.081 Y107.767 E6.06959
G1 X95.19 Y107.127 E6.09119
G1 X95.471 Y105.919 E6.13244
G1 X95.595 Y105.504 E6.14684
G1 X95.974 Y104.442 E6.18435
G1 X96.18 Y103.95 E6.20209
G1 X96.627 Y103.019 E6.23644
G1 X96.887 Y102.54 E6.25456
G1 X97.368 Y101.738 E6.28567
G1 X97.946 Y100.929 E6.31874
G1 X98.476 Y100.262 E6.34707
G1 X98.71 Y99.991 E6.35898
G1 X99.327 Y99.338 E6.38886
G0 F6000 X99.606 Y99.625
G1 F1200 X99.906 Y99.333 E6.40279
G1 X100.615 Y98.704 E6.43431
G1 X101.024 Y98.374 E6.45179
G1 X101.751 Y97.838 E6.48183
G1 X102.56 Y97.337 E6.51348
G1 X103.282 Y96.94 E6.54088
G1 X103.643 Y96.76 E6.5543
G1 X104.659 Y96.32 E6.59113
G1 X105.222 Y96.112 E6.61109
G1 X106.082 Y95.837 E6.64112
G1 X106.621 Y95.706 E6.65957
G1 X107.13 Y95.597 E6.67688
G1 X108.101 Y95.438 E6.70961
G1 X108.562 Y95.385 E6.72504
G1 X109.555 Y95.314 E6.75815
G1 X110.444 Y95.322 E6.78772
G1 X110.945 Y95.345 E6.8044
G1 X112.19 Y95.479 E6.84605
G1 X112.783 Y95.58 E6.86606
G1 X113.98 Y95.859 E6.90694
G1 X114.373 Y95.976 E6.92058
G1 X115.378 Y96.333 E6.95605
G1 X115.852 Y96.53 E6.97312
G1 X116.792 Y96.979 E7.00777
G1 X117.313 Y97.261 E7.02747
G1 X118.088 Y97.725 E7.05752
G1 X118.633 Y98.113 E7.07977
G1 X118.984 Y98.38 E7.09444
G1 X119.477 Y98.779 E7.11553
G1 X119.734 Y99.001 E7.12683
G1 X120.363 Y99.593 E7.15556
G1 X120.655 Y99.892 E7.16946
G1 X121.293 Y100.61 E7.2014
G1 X121.612 Y101.005 E7.21829
G1 X122.382 Y102.098 E7.26276
G1 X122.633 Y102.509 E7.27878
G1 X123.056 Y103.273 E7.30782
G1 X123.24 Y103.642 E7.32154
G1 X123.68 Y104.659 E7.35839
G1 X123.888 Y105.222 E7.37835
G1 X124.163 Y106.082 E7.40838
G1 X124.294 Y106.621 E7.42683
G1 X124.403 Y107.13 E7.44415
G1 X124.562 Y108.099 E7.47681
G1 X124.615 Y108.559 E7.49221
G1 X124.686 Y109.554 E7.52539
G1 X124.678 Y110.442 E7.55492
G1 X124.655 Y110.944 E7.57164
G1 X124.521 Y112.19 E7.61332
G1 X124.42 Y112.783 E7.63332
G1 X124.141 Y113.98 E7.6742
G1 X124.024 Y114.373 E7.68784
G1 X123.667 Y115.378 E7.72331
G1 X123.47 Y115.852 E7.74039
G1 X123.017 Y116.801 E7.77536
G1 X122.736 Y117.319 E7.79496
G1 X122.27 Y118.093 E7.82501
G1 X121.905 Y118.608 E7.84601
G1 X121.638 Y118.961 E7.86073
G1 X121.22 Y119.478 E7.88284
G1 X120.997 Y119.736 E7.89418
G1 X120.407 Y120.363 E7.92282
G1 X120.108 Y120.655 E7.93672
G1 X119.384 Y121.298 E7.96892
G1 X118.981 Y121.623 E7.98614
G1 X118.254 Y122.158 E8.01617
G1 X117.452 Y122.656 E8.04756
G1 X116.718 Y123.06 E8.07543
G1 X116.357 Y123.24 E8.08885
G1 X115.341 Y123.68 E8.12567
G1 X114.778 Y123.888 E8.14564
G1 X113.918 Y124.163 E8.17567
G1 X113.379 Y124.294 E8.19412
G1 X112.87 Y124.403 E8.21143
G1 X111.899 Y124.562 E8.24415
G1 X111.438 Y124.615 E8.25959
G1 X110.445 Y124.686 E8.2927
G1 X109.556 Y124.678 E8.32227
G1 X109.055 Y124.655 E8.33895
G1 X107.81 Y124.521 E8.3806
G1 X107.217 Y124.42 E8.40061
G1 X106.026 Y124.143 E8.44128
G1 X105.632 Y124.026 E8.45495
G1 X104.614 Y123.664 E8.49088
G1 X104.141 Y123.467 E8.50792
G1 X103.2 Y123.017 E8.54262
G1 X102.68 Y122.735 E8.56229
G1 X101.906 Y122.27 E8.59232
G1 X101.369 Y121.888 E8.61424
G1 X101.01 Y121.615 E8.62924
G1 X100.484 Y121.187 E8.6518
G1 X100.228 Y120.964 E8.66309
G1 X99.618 Y120.386 E8.69104
G1 X99.329 Y120.089 E8.70482
G1 X98.708 Y119.39 E8.73592
G1 X98.391 Y118.998 E8.75269
G1 X97.855 Y118.271 E8.78273
G1 X97.342 Y117.447 E8.81501
G1 X96.927 Y116.695 E8.84358
G1 X96.753 Y116.345 E8.85658
G1 X96.318 Y115.335 E8.89316
G1 X96.111 Y114.774 E8.91305
G1 X95.836 Y113.914 E8.94308
G1 X95.706 Y113.379 E8.96139
G1 X95.597 Y112.87 E8.9787
G1 X95.454 Y112.032 E9.00698
G1 X95.41 Y111.689 E9.01848
G1 X95.337 Y110.836 E9.04695
G1 X95.321 Y110.47 E9.05914
G1 X95.322 Y109.558 E9.08947
G1 X95.345 Y109.056 E9.10618
G1 X95.479 Y107.81 E9.14787
G1 X95.58 Y107.217 E9.16787
G1 X95.855 Y106.033 E9.2083
G1 X95.972 Y105.638 E9.222
G1 X96.343 Y104.596 E9.25879
G1 X96.541 Y104.123 E9.27585
G1 X96.979 Y103.209 E9.30956
G1 X97.23 Y102.745 E9.3271
G1 X97.694 Y101.97 E9.35715
G1 X98.259 Y101.178 E9.3895
G1 X98.779 Y100.523 E9.41732
G1 X99.001 Y100.266 E9.42862
G1 X99.606 Y99.625 E9.45793
G1 F1500 E2.95793
;MESH:FLANGE_BUSHRA.stl
G0 F6000 X106.647 Y106.615
G0 X107.772 Y107.363
;TYPE:WALL-INNER
G1 F1500 E9.45793
G1 F923.1 X108.074 Y107.16 E9.47367
G1 F877.5 X108.399 Y106.971 E9.49076
G1 F900.6 X108.739 Y106.793 E9.50777
G0 F6000 X110 Y106.323
G0 X111.237 Y106.781
G1 F909.1 X111.57 Y106.954 E9.52425
G1 F877.5 X111.892 Y107.139 E9.54114
G1 F916 X112.2 Y107.344 E9.55726
G0 F6000 X113.184 Y108.161
G0 X113.398 Y109.395
G1 F932 X113.417 Y109.665 E9.56885
G1 F888.9 X113.425 Y110.008 E9.58426
G1 F885.6 X113.42 Y110.264 E9.5958
G1 F928.4 X113.399 Y110.589 E9.6098
G0 F6000 X113.184 Y111.839
G0 X112.228 Y112.637
G1 F923.1 X111.926 Y112.84 E9.62553
G1 F879.1 X111.601 Y113.029 E9.6426
G1 F902.3 X111.261 Y113.207 E9.65957
G0 F6000 X110 Y113.677
G0 X108.763 Y113.219
G1 F909.1 X108.43 Y113.046 E9.67605
G1 F879.1 X108.108 Y112.861 E9.69291
G1 F917.8 X107.8 Y112.656 E9.709
G0 F6000 X106.816 Y111.839
G0 X106.602 Y110.605
G1 F932 X106.583 Y110.333 E9.72068
G1 F885.6 X106.575 Y109.991 E9.73609
G1 F880.7 X106.58 Y109.735 E9.7477
G1 F924.9 X106.601 Y109.407 E9.76188
G1 F1500 E3.26188
G0 F6000 X106.816 Y111.839
G0 X109.858 Y113.67
G0 X110 Y113.426
;TYPE:WALL-OUTER
G1 F1500 E9.76188
G1 F1179.4 X109.581 Y113.166 E9.77857
G1 F1200 X107.483 Y111.954 E9.85915
G1 F1108.5 X107.072 Y111.738 E9.87587
G1 F1023.5 X107.02 Y111.64 E9.8802
G1 F1100.9 X107.05 Y111.3 E9.89257
G1 F1200 X107.05 Y108.73 E9.97805
G1 F1111.1 X107.031 Y108.334 E9.99229
G1 F1073.8 X107.062 Y108.272 E9.99487
G1 F1156.6 X107.459 Y108.061 E10.01038
G1 F1200 X109.562 Y106.846 E10.09116
G1 F1111.1 X109.95 Y106.596 E10.10774
G1 F1036.7 X110.05 Y106.595 E10.11159
G1 F1116.3 X110.419 Y106.834 E10.12731
G1 F1200 X112.517 Y108.047 E10.20792
G1 F1156.6 X112.938 Y108.274 E10.22442
G1 F1076.2 X112.969 Y108.331 E10.22683
G1 F1113.7 X112.95 Y108.7 E10.24007
G1 F1200 X112.95 Y111.271 E10.32558
G1 F1153.8 X112.964 Y111.621 E10.3377
G1 F1073.8 X112.93 Y111.736 E10.34215
G1 F1113.7 X112.541 Y111.94 E10.3579
G1 F1200 X110.439 Y113.154 E10.43863
G1 F1179.4 X110 Y113.426 E10.45611
G0 F6000 X110.359 Y113.878
G1 F1185.2 X110.673 Y113.841 E10.46675
G1 F1200 X111.051 Y113.756 E10.47964
G1 X111.43 Y113.634 E10.49288
G1 X111.804 Y113.457 E10.50665
G1 X112.191 Y113.232 E10.52153
G1 X112.518 Y112.978 E10.53531
G1 X112.771 Y112.743 E10.54679
G1 X113.011 Y112.476 E10.55873
G1 F1145.6 X113.24 Y112.143 E10.57281
G1 F1066.7 X113.309 Y112 E10.57875
G1 F1073.8 X113.447 Y111.789 E10.58812
G1 F1153.8 X113.645 Y111.399 E10.60325
G1 F1200 X113.769 Y110.998 E10.61721
G1 X113.841 Y110.665 E10.62855
G1 X113.888 Y110.303 E10.64069
G1 X113.899 Y110.007 E10.65054
G1 X113.884 Y109.644 E10.66262
G1 X113.836 Y109.297 E10.67427
G1 X113.758 Y108.955 E10.68594
G1 X113.634 Y108.569 E10.69943
G1 F1116.3 X113.348 Y108.065 E10.72014
G1 F1090.9 X113.224 Y107.814 E10.73039
G1 F1170.7 X112.984 Y107.488 E10.74419
G1 F1200 X112.743 Y107.229 E10.75596
G1 X112.488 Y106.998 E10.7674
G1 X112.154 Y106.744 E10.78136
G1 X111.787 Y106.534 E10.79542
G1 X111.4 Y106.355 E10.8096
G1 X111.005 Y106.233 E10.82335
G1 X110.664 Y106.158 E10.83496
G1 F1156.6 X110.312 Y106.129 E10.84715
G1 F1071.4 X109.89 Y106.137 E10.86287
G1 F1081.1 X109.641 Y106.127 E10.87207
G1 F1165 X109.311 Y106.161 E10.88344
G1 F1200 X108.949 Y106.244 E10.89579
G1 X108.57 Y106.366 E10.90903
G1 X108.178 Y106.552 E10.92347
G1 X107.809 Y106.768 E10.93769
G1 X107.482 Y107.022 E10.95146
G1 X107.229 Y107.257 E10.96294
G1 X106.997 Y107.512 E10.97441
G1 F1162.2 X106.754 Y107.852 E10.98876
