;FLAVOR:Marlin
;TIME:7696
;Filament used: 4.30165m
;Layer height: 0.2
;MINX:78.012
;MINY:73.207
;MINZ:0.2
;MAXX:141.992
;MAXY:148.623
;MAXZ:33.2
;TARGET_MACHINE.NAME:Creality Ender-3 Pro
;Generated with Cura_SteamEngine 5.6.0
M82 ;absolute extrusion mode
; Ender 3 Custom Start G-code
G92 E0 ; Reset Extruder
G28 ; Home all axes
G1 Z5.0 F3000 ; Move Z Axis up a bit during heating to not damage bed
M104 S175 ; Start heating up the nozzle most of the way
M190 S60 ; Start heating the bed, wait until target temperature reached
M109 S200 ; Finish heating the nozzle
G1 Z2.0 F3000 ; Move Z Axis up little to prevent scratching of Heat Bed
G1 X0.1 Y20 Z0.3 F5000.0 ; Move to start position
G1 X0.1 Y200.0 Z0.3 F1500.0 E15 ; Draw the first line
G1 X0.4 Y200.0 Z0.3 F5000.0 ; Move to side a little
G1 X0.4 Y20 Z0.3 F1500.0 E30 ; Draw the second line
G92 E0 ; Reset Extruder
G1 Z2.0 F3000 ; Move Z Axis up little to prevent scratching of Heat Bed
G1 X5 Y20 Z0.3 F5000.0 ; Move over to prevent blob squish
G92 E0
G92 E0
G1 F1500 E-6.5
;LAYER_COUNT:166
;LAYER:0
M107
G0 F6000 X86.908 Y83.055 Z0.2
;TYPE:SKIRT
G1 F1500 E0
G1 F1200 X87.928 Y82.041 E0.04784
G1 X88.251 Y81.736 E0.06261
G1 X88.925 Y81.128 E0.0928
G1 X89.289 Y80.814 E0.10879
G1 X90.021 Y80.211 E0.14034
G1 X90.993 Y79.468 E0.18103
G1 X91.433 Y79.154 E0.19901
G1 X92.695 Y78.3 E0.24969
G1 X93.402 Y77.848 E0.2776
G1 X93.807 Y77.608 E0.29326
G1 X94.666 Y77.121 E0.3261
G1 X95.067 Y76.905 E0.34125
G1 X95.861 Y76.499 E0.37091
G1 X96.296 Y76.289 E0.38697
G1 X97.149 Y75.9 E0.41816
G1 X97.563 Y75.723 E0.43313
G1 X98.431 Y75.372 E0.46427
G1 X98.874 Y75.204 E0.48003
G1 X99.766 Y74.888 E0.5115
G1 X101.105 Y74.469 E0.55817
G1 X101.529 Y74.349 E0.57283
G1 X102.388 Y74.125 E0.60235
G1 X102.871 Y74.011 E0.61886
G1 X103.795 Y73.815 E0.65027
G1 X105.162 Y73.575 E0.69644
G1 X105.634 Y73.506 E0.7123
G1 X106.564 Y73.393 E0.74346
G1 X107.908 Y73.276 E0.78833
G1 X108.372 Y73.248 E0.80379
G1 X109.319 Y73.214 E0.83531
G1 X109.789 Y73.207 E0.85094
G1 X110.717 Y73.214 E0.88181
G1 X112.12 Y73.278 E0.92852
G1 X112.581 Y73.312 E0.9439
G1 X113.522 Y73.401 E0.97534
G1 X114.884 Y73.582 E1.02103
G1 X115.346 Y73.657 E1.0366
G1 X116.262 Y73.824 E1.06757
G1 X116.727 Y73.922 E1.08338
G1 X118.045 Y74.234 E1.12842
G1 X119.418 Y74.623 E1.17589
G1 X120.288 Y74.905 E1.20631
G1 X120.72 Y75.056 E1.22153
G1 X121.599 Y75.383 E1.25272
G1 X122.039 Y75.56 E1.26849
G1 X123.297 Y76.101 E1.31404
G1 X124.124 Y76.493 E1.34448
G1 X124.554 Y76.71 E1.3605
G1 X125.391 Y77.153 E1.392
G1 X125.795 Y77.378 E1.40738
G1 X126.614 Y77.859 E1.43897
G1 X127.006 Y78.101 E1.45429
G1 X128.159 Y78.859 E1.50018
G1 X128.924 Y79.403 E1.53141
G1 X129.292 Y79.677 E1.54667
G1 X130.005 Y80.232 E1.57672
G1 X130.378 Y80.537 E1.59274
G1 X131.113 Y81.163 E1.62485
G1 X132.094 Y82.06 E1.66907
G1 X132.448 Y82.404 E1.68548
G1 X133.422 Y83.408 E1.73201
G1 X134.045 Y84.097 E1.7629
G1 X134.348 Y84.446 E1.77828
G1 X134.938 Y85.157 E1.80901
G1 X135.228 Y85.525 E1.82459
G1 X135.796 Y86.276 E1.85591
G1 X136.075 Y86.662 E1.87175
G1 X136.613 Y87.444 E1.90332
G1 X137.268 Y88.469 E1.94378
G1 X137.544 Y88.935 E1.96179
G1 X138.255 Y90.206 E2.01023
G1 X138.607 Y90.878 E2.03546
G1 X138.855 Y91.392 E2.05444
G1 X139.473 Y92.772 E2.10473
G1 X139.805 Y93.568 E2.13342
G1 X139.973 Y94.009 E2.14911
G1 X140.293 Y94.91 E2.18092
G1 X140.698 Y96.184 E2.22538
G1 X140.832 Y96.657 E2.24173
G1 X141.07 Y97.572 E2.27318
G1 X141.174 Y98.01 E2.28815
G1 X141.373 Y98.932 E2.31952
G1 X141.593 Y100.163 E2.36111
G1 X141.671 Y100.709 E2.37946
G1 X141.843 Y102.173 E2.42848
G1 X141.922 Y103.06 E2.4581
G1 X141.95 Y103.523 E2.47353
G1 X141.985 Y104.483 E2.50548
G1 X141.992 Y104.947 E2.52092
G1 X141.986 Y105.878 E2.55188
G1 X141.974 Y106.327 E2.56682
G1 X141.928 Y107.245 E2.59739
G1 X141.893 Y107.715 E2.61307
G1 X141.804 Y108.661 E2.64467
G1 X141.751 Y109.121 E2.66007
G1 X141.648 Y109.872 E2.68528
G1 X141.561 Y110.401 E2.70311
G1 X141.279 Y111.886 E2.75339
G1 X141.088 Y112.759 E2.78311
G1 X140.97 Y113.231 E2.79929
G1 X140.591 Y114.572 E2.84564
G1 X140.311 Y115.438 E2.87591
G1 X140.161 Y115.869 E2.89109
G1 X139.83 Y116.762 E2.92277
G1 X139.662 Y117.189 E2.93803
G1 X139.117 Y118.459 E2.984
G1 X138.708 Y119.321 E3.01573
G1 X138.075 Y120.543 E3.0615
G1 X137.461 Y121.613 E3.10253
G1 X137.168 Y122.085 E3.12101
G1 X136.326 Y123.367 E3.17203
G1 X135.83 Y124.078 E3.20086
G1 X135.57 Y124.429 E3.21539
G1 X135.008 Y125.156 E3.24595
G1 X134.692 Y125.545 E3.26262
G1 X134.151 Y126.18 E3.29036
G1 X133.785 Y126.589 E3.30862
G1 X132.696 Y127.741 E3.36135
G1 X132.008 Y128.405 E3.39315
G1 X131.224 Y129.038 E3.42666
G1 X130.475 Y129.543 E3.45671
G1 X129.562 Y130.045 E3.49136
G1 X128.802 Y130.384 E3.51904
G1 X127.364 Y130.96 E3.57056
G1 X125.002 Y131.958 E3.65585
G1 X122.694 Y133.011 E3.74022
G1 X120.435 Y134.12 E3.82392
G1 X118.188 Y135.302 E3.90837
G1 X116.021 Y136.524 E3.99111
G1 X113.872 Y137.816 E4.07451
G1 X111.749 Y139.174 E4.15833
G1 X109.651 Y140.602 E4.24274
G1 X107.623 Y142.067 E4.32595
G1 X105.649 Y143.582 E4.40872
G1 X102.563 Y146.124 E4.5417
G1 X101.783 Y146.707 E4.57408
G1 X100.955 Y147.218 E4.60645
G1 X100.083 Y147.656 E4.6389
G1 X99.178 Y148.012 E4.67125
G1 X98.244 Y148.289 E4.70365
G1 X97.359 Y148.47 E4.73369
G1 X95.93 Y148.608 E4.78144
G1 X95.269 Y148.623 E4.80344
G1 X92.611 Y148.621 E4.89184
G1 X91.909 Y148.609 E4.91519
G1 X90.936 Y148.549 E4.94762
G1 X89.975 Y148.402 E4.97995
G1 X89.027 Y148.171 E5.0124
G1 X88.138 Y147.869 E5.04363
G1 X87.216 Y147.462 E5.07715
G1 X86.364 Y146.991 E5.10953
G1 X85.557 Y146.446 E5.14192
G1 X84.827 Y145.855 E5.17316
G1 X84.102 Y145.152 E5.20675
G1 X83.468 Y144.415 E5.23908
G1 X82.899 Y143.624 E5.27149
G1 X82.402 Y142.785 E5.30393
G1 X82.011 Y141.971 E5.33396
G1 X81.643 Y140.994 E5.36868
G1 X81.393 Y140.09 E5.39988
G1 X81.21 Y139.09 E5.43369
G1 X81.116 Y137.981 E5.47071
G1 X81.1 Y137.291 E5.49367
G1 X81.1 Y132.47 E5.65401
G1 X81.063 Y129.876 E5.7403
G1 X80.954 Y127.33 E5.82506
G1 X80.779 Y124.85 E5.90775
G1 X80.534 Y122.383 E5.9902
G1 X80.206 Y119.82 E6.07614
G1 X79.819 Y117.357 E6.15907
G1 X79.366 Y114.923 E6.24141
G1 X78.971 Y113.12 E6.3028
G1 X78.521 Y110.917 E6.37759
G1 X78.368 Y109.993 E6.40874
G1 X78.302 Y109.531 E6.42426
G1 X78.19 Y108.612 E6.45506
G1 X78.145 Y108.163 E6.47006
G1 X78.043 Y106.731 E6.51781
G1 X78.012 Y105.751 E6.55042
G1 X78.016 Y104.531 E6.591
G1 X78.036 Y103.996 E6.60881
G1 X78.127 Y102.517 E6.65809
G1 X78.206 Y101.639 E6.68741
G1 X78.26 Y101.178 E6.70285
G1 X78.457 Y99.846 E6.74764
G1 X78.627 Y98.92 E6.77895
G1 X78.727 Y98.442 E6.79519
G1 X78.946 Y97.509 E6.82707
G1 X79.307 Y96.176 E6.873
G1 X79.436 Y95.741 E6.88809
G1 X79.716 Y94.879 E6.91824
G1 X79.877 Y94.421 E6.93438
G1 X80.212 Y93.529 E6.96607
G1 X80.744 Y92.255 E7.01199
G1 X80.931 Y91.841 E7.0271
G1 X81.342 Y90.979 E7.05886
G1 X81.898 Y89.911 E7.09891
G1 X82.179 Y89.412 E7.11796
G1 X82.949 Y88.132 E7.16764
G1 X83.408 Y87.41 E7.1961
G1 X83.69 Y86.996 E7.21276
G1 X84.248 Y86.215 E7.24468
G1 X85.073 Y85.143 E7.28967
G1 X85.369 Y84.782 E7.3052
G1 X85.983 Y84.063 E7.33665
G1 X86.287 Y83.721 E7.35187
G1 X86.908 Y83.055 E7.38215
G0 F6000 X87.194 Y83.335
G1 F1200 X87.523 Y82.999 E7.3978
G1 X88.202 Y82.332 E7.42945
G1 X88.519 Y82.033 E7.44395
G1 X89.186 Y81.431 E7.47383
G1 X89.543 Y81.123 E7.48951
G1 X90.264 Y80.529 E7.52058
G1 X91.226 Y79.793 E7.56087
G1 X91.657 Y79.485 E7.57849
G1 X92.91 Y78.637 E7.62881
G1 X93.606 Y78.192 E7.65629
G1 X94.004 Y77.956 E7.67168
G1 X94.856 Y77.473 E7.70425
G1 X95.249 Y77.261 E7.7191
G1 X96.035 Y76.859 E7.74847
G1 X96.462 Y76.653 E7.76423
G1 X97.307 Y76.268 E7.79512
G1 X97.713 Y76.094 E7.80981
G1 X98.573 Y75.746 E7.84067
G1 X99.008 Y75.581 E7.85614
G1 X99.886 Y75.27 E7.88712
G1 X101.214 Y74.854 E7.93341
G1 X101.63 Y74.736 E7.94779
G1 X102.48 Y74.514 E7.97701
G1 X102.954 Y74.402 E7.99321
G1 X103.864 Y74.209 E8.02415
G1 X105.22 Y73.971 E8.06994
G1 X105.683 Y73.903 E8.0855
G1 X106.599 Y73.791 E8.1162
G1 X107.932 Y73.675 E8.1607
G1 X108.386 Y73.648 E8.17583
G1 X109.325 Y73.614 E8.20708
G1 X109.786 Y73.607 E8.22241
G1 X110.699 Y73.614 E8.25278
G1 X112.091 Y73.677 E8.29913
G1 X112.543 Y73.71 E8.3142
G1 X113.469 Y73.798 E8.34514
G1 X114.82 Y73.977 E8.39046
G1 X115.274 Y74.05 E8.40576
G1 X116.18 Y74.216 E8.43639
G1 X116.635 Y74.311 E8.45185
G1 X117.939 Y74.62 E8.49643
G1 X118.853 Y74.872 E8.52796
G1 X119.295 Y75.004 E8.5433
G1 X120.156 Y75.283 E8.5734
G1 X120.581 Y75.431 E8.58837
G1 X121.45 Y75.754 E8.61921
G1 X121.881 Y75.927 E8.63465
G1 X123.126 Y76.463 E8.67974
G1 X123.944 Y76.85 E8.70984
G1 X124.367 Y77.063 E8.72559
G1 X125.196 Y77.502 E8.75679
G1 X125.593 Y77.723 E8.7719
G1 X126.404 Y78.199 E8.80318
G1 X126.789 Y78.437 E8.81823
G1 X127.55 Y78.93 E8.84839
G1 X127.927 Y79.185 E8.86353
G1 X128.685 Y79.724 E8.89446
G1 X129.046 Y79.993 E8.90944
G1 X129.759 Y80.548 E8.93949
G1 X130.119 Y80.841 E8.95493
G1 X130.843 Y81.458 E8.98657
G1 X131.815 Y82.347 E9.03038
G1 X132.161 Y82.683 E9.04642
G1 X133.125 Y83.676 E9.09245
G1 X133.743 Y84.359 E9.12308
G1 X134.04 Y84.701 E9.13815
G1 X134.624 Y85.405 E9.16857
G1 X134.909 Y85.766 E9.18387
G1 X135.472 Y86.51 E9.2149
G1 X135.746 Y86.889 E9.23046
G1 X136.276 Y87.659 E9.26155
G1 X136.924 Y88.673 E9.30157
G1 X137.195 Y89.13 E9.31924
G1 X137.901 Y90.392 E9.36734
G1 X138.247 Y91.052 E9.39213
G1 X138.49 Y91.556 E9.41074
G1 X139.104 Y92.926 E9.46067
G1 X139.431 Y93.71 E9.48892
G1 X139.596 Y94.143 E9.50433
G1 X139.912 Y95.031 E9.53568
G1 X140.313 Y96.293 E9.57973
G1 X140.445 Y96.758 E9.5958
G1 X140.681 Y97.665 E9.62697
G1 X140.783 Y98.094 E9.64164
G1 X140.979 Y99.002 E9.67254
G1 X141.197 Y100.22 E9.71369
G1 X141.274 Y100.756 E9.7317
G1 X141.445 Y102.208 E9.78033
G1 X141.523 Y103.084 E9.80958
G1 X141.55 Y103.538 E9.82471
G1 X141.585 Y104.489 E9.85636
G1 X141.592 Y104.944 E9.87149
G1 X141.586 Y105.867 E9.90219
G1 X141.574 Y106.307 E9.91683
G1 X141.529 Y107.216 E9.9471
G1 X141.495 Y107.678 E9.96251
G1 X141.407 Y108.615 E9.99381
G1 X141.355 Y109.066 E10.00891
G1 X141.253 Y109.807 E10.03379
G1 X141.168 Y110.326 E10.05128
G1 X140.888 Y111.801 E10.10122
G1 X140.7 Y112.662 E10.13053
G1 X140.584 Y113.125 E10.1464
G1 X140.34 Y114.011 E10.17697
G1 X140.21 Y114.449 E10.19217
G1 X139.933 Y115.307 E10.22215
G1 X139.786 Y115.73 E10.23705
G1 X139.458 Y116.615 E10.26844
G1 X139.294 Y117.031 E10.28331
G1 X138.755 Y118.288 E10.3288
G1 X138.353 Y119.137 E10.36005
G1 X137.728 Y120.344 E10.40525
G1 X137.121 Y121.402 E10.44582
G1 X136.834 Y121.865 E10.46394
G1 X135.998 Y123.138 E10.51459
G1 X135.508 Y123.84 E10.54307
G1 X135.254 Y124.184 E10.55729
G1 X134.697 Y124.904 E10.58757
G1 X134.387 Y125.286 E10.60393
G1 X133.853 Y125.913 E10.63132
G1 X133.494 Y126.314 E10.64922
G1 X132.418 Y127.453 E10.70134
G1 X131.73 Y128.117 E10.73314
G1 X131 Y128.706 E10.76434
G1 X130.251 Y129.211 E10.79438
G1 X129.399 Y129.68 E10.82673
G1 X128.653 Y130.013 E10.8539
G1 X127.215 Y130.589 E10.90543
G1 X124.836 Y131.594 E10.99132
G1 X122.528 Y132.647 E11.0757
G1 X120.259 Y133.761 E11.15977
G1 X118.002 Y134.948 E11.24459
G1 X115.815 Y136.181 E11.32809
G1 X113.656 Y137.479 E11.41188
G1 X111.533 Y138.837 E11.4957
G1 X109.426 Y140.271 E11.58047
G1 X107.379 Y141.75 E11.66446
G1 X105.405 Y143.265 E11.74723
G1 X102.323 Y145.804 E11.88004
G1 X101.572 Y146.367 E11.91126
G1 X100.775 Y146.861 E11.94245
G1 X99.936 Y147.284 E11.9737
G1 X99.064 Y147.629 E12.00489
G1 X98.164 Y147.897 E12.03612
G1 X97.279 Y148.078 E12.06616
G1 X95.921 Y148.208 E12.11154
G1 X95.269 Y148.223 E12.13323
G1 X92.617 Y148.221 E12.22144
G1 X91.933 Y148.21 E12.24419
G1 X90.996 Y148.153 E12.27541
G1 X90.069 Y148.013 E12.30659
G1 X89.156 Y147.792 E12.33784
G1 X88.267 Y147.49 E12.36906
G1 X87.409 Y147.112 E12.40025
G1 X86.587 Y146.659 E12.43146
G1 X85.809 Y146.135 E12.46266
G1 X85.079 Y145.544 E12.4939
G1 X84.405 Y144.891 E12.52511
G1 X83.792 Y144.181 E12.55631
G1 X83.243 Y143.42 E12.58752
G1 X82.763 Y142.612 E12.61878
G1 X82.372 Y141.798 E12.64882
G1 X82.029 Y140.887 E12.68119
G1 X81.779 Y139.983 E12.71239
G1 X81.609 Y139.056 E12.74374
G1 X81.515 Y137.947 E12.78075
G1 X81.5 Y137.282 E12.80288
G1 X81.5 Y132.47 E12.96292
G1 X81.463 Y129.87 E13.04941
G1 X81.354 Y127.313 E13.13453
G1 X81.178 Y124.822 E13.21759
G1 X80.931 Y122.332 E13.30082
G1 X80.603 Y119.769 E13.38676
G1 X80.214 Y117.295 E13.47005
G1 X79.757 Y114.837 E13.55321
G1 X79.363 Y113.04 E13.6144
G1 X78.916 Y110.851 E13.6887
G1 X78.764 Y109.936 E13.71955
G1 X78.699 Y109.483 E13.73478
G1 X78.588 Y108.572 E13.7653
G1 X78.544 Y108.132 E13.78001
G1 X78.471 Y107.198 E13.81117
G1 X78.443 Y106.718 E13.82716
G1 X78.412 Y105.752 E13.8593
G1 X78.416 Y104.545 E13.89945
G1 X78.435 Y104.02 E13.91692
G1 X78.525 Y102.553 E13.96581
G1 X78.603 Y101.686 E13.99476
G1 X78.656 Y101.237 E14.0098
G1 X78.853 Y99.905 E14.05458
G1 X79.019 Y99.002 E14.08512
G1 X79.117 Y98.533 E14.10105
G1 X79.332 Y97.613 E14.13248
G1 X79.69 Y96.29 E14.17806
G1 X79.817 Y95.864 E14.19285
G1 X80.093 Y95.012 E14.22264
G1 X80.251 Y94.562 E14.2385
G1 X80.581 Y93.683 E14.26973
G1 X81.108 Y92.42 E14.31525
G1 X81.292 Y92.013 E14.3301
G1 X81.697 Y91.164 E14.36139
G1 X82.247 Y90.107 E14.40102
G1 X82.522 Y89.618 E14.41968
G1 X83.286 Y88.347 E14.469
G1 X83.739 Y87.635 E14.49707
G1 X84.016 Y87.228 E14.51344
G1 X84.568 Y86.455 E14.54504
G1 X84.832 Y86.102 E14.5597
G1 X85.382 Y85.397 E14.58944
G1 X85.673 Y85.042 E14.6047
G1 X86.282 Y84.329 E14.63589
G1 X86.58 Y83.994 E14.6508
G1 X87.194 Y83.335 E14.68076
G0 F6000 X87.487 Y83.608
G1 F1200 X87.803 Y83.284 E14.69582
G1 X88.476 Y82.623 E14.72719
G1 X88.787 Y82.33 E14.7414
G1 X89.447 Y81.734 E14.77098
G1 X89.797 Y81.432 E14.78635
G1 X90.507 Y80.847 E14.81695
G1 X91.459 Y80.118 E14.85683
G1 X91.881 Y79.816 E14.87409
G1 X93.125 Y78.974 E14.92406
G1 X93.811 Y78.536 E14.95113
G1 X94.201 Y78.304 E14.96622
G1 X95.046 Y77.825 E14.99853
G1 X95.431 Y77.617 E15.01308
G1 X96.209 Y77.219 E15.04215
G1 X96.628 Y77.017 E15.05762
G1 X97.465 Y76.636 E15.0882
G1 X97.863 Y76.465 E15.10261
G1 X98.715 Y76.12 E15.13318
G1 X99.141 Y75.958 E15.14834
G1 X100.006 Y75.652 E15.17886
G1 X101.324 Y75.239 E15.2248
G1 X101.731 Y75.123 E15.23887
G1 X102.572 Y74.903 E15.26779
G1 X103.037 Y74.793 E15.28368
G1 X103.933 Y74.603 E15.31414
G1 X105.278 Y74.367 E15.35956
G1 X105.732 Y74.3 E15.37483
G1 X106.634 Y74.189 E15.40505
G1 X107.955 Y74.074 E15.44916
G1 X108.401 Y74.048 E15.46401
G1 X109.331 Y74.014 E15.49497
G1 X109.783 Y74.007 E15.51
G1 X110.686 Y74.014 E15.54004
G1 X111.133 Y74.028 E15.55491
G1 X112.062 Y74.076 E15.58585
G1 X112.505 Y74.108 E15.60062
G1 X113.417 Y74.195 E15.6311
G1 X114.757 Y74.372 E15.67605
G1 X115.202 Y74.443 E15.69104
G1 X116.099 Y74.608 E15.72137
G1 X116.543 Y74.7 E15.73646
G1 X117.833 Y75.006 E15.78055
G1 X118.738 Y75.255 E15.81177
G1 X119.172 Y75.385 E15.82684
G1 X120.025 Y75.661 E15.85666
G1 X120.442 Y75.806 E15.87134
G1 X121.302 Y76.126 E15.90186
G1 X121.723 Y76.294 E15.91694
G1 X122.955 Y76.825 E15.96156
G1 X123.765 Y77.208 E15.99136
G1 X124.18 Y77.416 E16.0068
G1 X125.001 Y77.851 E16.0377
G1 X125.39 Y78.068 E16.05252
G1 X126.194 Y78.54 E16.08353
G1 X126.572 Y78.773 E16.09829
G1 X127.326 Y79.261 E16.12817
G1 X127.695 Y79.511 E16.14299
G1 X128.446 Y80.045 E16.17364
G1 X128.8 Y80.309 E16.18833
G1 X129.513 Y80.864 E16.21838
G1 X129.86 Y81.146 E16.23325
G1 X130.573 Y81.753 E16.2644
G1 X131.536 Y82.634 E16.30781
G1 X131.874 Y82.962 E16.32347
G1 X132.828 Y83.944 E16.36901
G1 X133.441 Y84.621 E16.39938
G1 X133.732 Y84.956 E16.41414
G1 X134.31 Y85.653 E16.44426
G1 X134.59 Y86.007 E16.45927
G1 X135.148 Y86.744 E16.49002
G1 X135.417 Y87.116 E16.50529
