;FLAVOR:Marlin
;TIME:9461
;Filament used: 5.17143m
;Layer height: 0.2
;MINX:66.713
;MINY:64.536
;MINZ:0.2
;MAXX:153.492
;MAXY:158.165
;MAXZ:31
;TARGET_MACHINE.NAME:Creality Ender-3 Pro
;Generated with Cura_SteamEngine 5.6.0
M82 ;absolute extrusion mode
; Ender 3 Custom Start G-code
G92 E0 ; Reset Extruder
G28 ; Home all axes
G1 Z5.0 F3000 ; Move Z Axis up a bit during heating to not damage bed
M104 S175 ; Start heating up the nozzle most of the way
M190 S60 ; Start heating the bed, wait until target temperature reached
M109 S200 ; Finish heating the nozzle
G1 Z2.0 F3000 ; Move Z Axis up little to prevent scratching of Heat Bed
G1 X0.1 Y20 Z0.3 F5000.0 ; Move to start position
G1 X0.1 Y200.0 Z0.3 F1500.0 E15 ; Draw the first line
G1 X0.4 Y200.0 Z0.3 F5000.0 ; Move to side a little
G1 X0.4 Y20 Z0.3 F1500.0 E30 ; Draw the second line
G92 E0 ; Reset Extruder
G1 Z2.0 F3000 ; Move Z Axis up little to prevent scratching of Heat Bed
G1 X5 Y20 Z0.3 F5000.0 ; Move over to prevent blob squish
G92 E0
G92 E0
G1 F1500 E-6.5
;LAYER_COUNT:155
;LAYER:0
M107
G0 F6000 X93.569 Y69.859 Z0.2
;TYPE:SKIRT
G1 F1500 E0
G1 F1200 X93.885 Y69.474 E0.01657
G1 X94.738 Y68.548 E0.05844
G1 X95.032 Y68.266 E0.07199
G1 X95.96 Y67.469 E0.11268
G1 X96.227 Y67.265 E0.12385
G1 X97.046 Y66.697 E0.157
G1 X97.545 Y66.401 E0.1763
G1 X97.903 Y66.202 E0.18992
G1 X99.188 Y65.593 E0.23722
G1 X99.612 Y65.426 E0.25238
G1 X100.525 Y65.113 E0.28448
G1 X101.388 Y64.889 E0.31413
G1 X102.647 Y64.653 E0.35674
G1 X103.769 Y64.548 E0.39422
G1 X104.822 Y64.536 E0.42924
G1 X105.108 Y64.546 E0.43876
G1 X106.061 Y64.621 E0.47055
G1 X106.383 Y64.661 E0.48135
G1 X107.586 Y64.881 E0.52202
G1 X108.001 Y64.983 E0.53624
G1 X108.897 Y65.244 E0.56728
G1 X109.753 Y65.565 E0.59768
G1 X110.879 Y66.08 E0.63886
G1 X111.198 Y66.25 E0.65089
G1 X112.029 Y66.738 E0.68294
G1 X112.596 Y67.132 E0.7059
G1 X112.927 Y67.378 E0.71962
G1 X113.878 Y68.173 E0.76085
G1 X114.491 Y68.773 E0.78938
G1 X114.703 Y68.997 E0.79963
G1 X115.381 Y69.787 E0.83426
G1 X115.591 Y70.058 E0.84566
G1 X116.285 Y71.068 E0.88642
G1 X116.493 Y71.413 E0.89982
G1 X116.855 Y72.063 E0.92457
G1 X117.343 Y73.014 E0.96012
G1 X117.496 Y73.293 E0.9707
G1 X118.228 Y74.705 E1.0236
G1 X119.446 Y76.905 E1.10724
G1 X120.749 Y79.107 E1.19234
G1 X122.075 Y81.209 E1.275
G1 X123.473 Y83.292 E1.35844
G1 X124.949 Y85.364 E1.44305
G1 X126.458 Y87.361 E1.5263
G1 X128.014 Y89.301 E1.60902
G1 X129.679 Y91.261 E1.69455
G1 X131.337 Y93.105 E1.77703
G1 X133.081 Y94.939 E1.86121
G1 X134.864 Y96.709 E1.94477
G1 X136.708 Y98.44 E2.02889
G1 X138.587 Y100.103 E2.11235
G1 X140.522 Y101.724 E2.1963
G1 X142.483 Y103.274 E2.27944
G1 X144.516 Y104.789 E2.36377
G1 X146.886 Y106.447 E2.45997
G1 X147.593 Y106.926 E2.48837
G1 X148.298 Y107.448 E2.51755
G1 X148.548 Y107.65 E2.52824
G1 X149.265 Y108.284 E2.56007
G1 X149.963 Y109.02 E2.59381
G1 X150.231 Y109.332 E2.60749
G1 X150.833 Y110.099 E2.63992
G1 X151.363 Y110.914 E2.67225
G1 X151.789 Y111.711 E2.70231
G1 X152.083 Y112.377 E2.72653
G1 X152.216 Y112.711 E2.73848
G1 X152.577 Y113.758 E2.77532
G1 X152.789 Y114.504 E2.80111
G1 X153.133 Y115.829 E2.84664
G1 X153.318 Y116.713 E2.87668
G1 X153.424 Y117.546 E2.90461
G1 X153.452 Y117.852 E2.91483
G1 X153.492 Y118.823 E2.94715
G1 X153.454 Y119.721 E2.97705
G1 X153.422 Y120.087 E2.98927
G1 X153.3 Y121.017 E3.02046
G1 X153.081 Y122 E3.05396
G1 X152.821 Y122.829 E3.08286
G1 X152.702 Y123.159 E3.09453
G1 X152.359 Y123.995 E3.12458
G1 X151.998 Y124.712 E3.15128
G1 X151.496 Y125.623 E3.18588
G1 X136.76 Y151.138 E4.16587
G1 X136.386 Y151.765 E4.19016
G1 X135.87 Y152.545 E4.22126
G1 X135.32 Y153.249 E4.25098
G1 X134.722 Y153.926 E4.28102
G1 X134.042 Y154.577 E4.31233
G1 X133.738 Y154.843 E4.32577
G1 X133.004 Y155.429 E4.357
G1 X132.163 Y155.985 E4.39054
G1 X131.312 Y156.447 E4.42274
G1 X130.543 Y156.788 E4.45072
G1 X129.268 Y157.239 E4.4957
G1 X128.155 Y157.552 E4.53416
G1 X127.201 Y157.796 E4.56691
G1 X126.258 Y157.994 E4.59896
G1 X125.621 Y158.077 E4.62032
G1 X125.273 Y158.111 E4.63195
G1 X124.298 Y158.165 E4.66443
G1 X123.129 Y158.121 E4.70334
G1 X122.108 Y157.991 E4.73757
G1 X120.961 Y157.733 E4.77667
G1 X120.607 Y157.632 E4.78892
G1 X119.685 Y157.323 E4.82126
G1 X118.832 Y156.954 E4.85217
G1 X118.331 Y156.697 E4.8709
G1 X117.343 Y156.154 E4.9084
G1 X79.557 Y134.338 E6.35959
G1 X78.922 Y133.959 E6.38419
G1 X78.138 Y133.441 E6.41544
G1 X77.351 Y132.813 E6.44893
G1 X76.644 Y132.141 E6.48137
G1 X76.025 Y131.436 E6.51258
G1 X75.428 Y130.623 E6.54612
G1 X74.925 Y129.789 E6.57852
G1 X74.498 Y128.914 E6.6109
G1 X74.146 Y127.996 E6.6436
G1 X73.833 Y126.853 E6.68302
G1 X73.148 Y123.854 E6.78533
G1 X72.518 Y121.439 E6.86834
G1 X71.809 Y119.004 E6.9527
G1 X71.231 Y117.157 E7.01706
G1 X71.054 Y116.505 E7.03954
G1 X70.92 Y115.943 E7.05875
G1 X70.737 Y114.973 E7.09158
G1 X70.631 Y113.748 E7.13248
G1 X70.617 Y113.186 E7.15118
G1 X70.654 Y112 E7.19064
G1 X70.676 Y111.746 E7.19912
G1 X70.821 Y110.688 E7.23464
G1 X70.902 Y110.25 E7.24946
G1 X71.106 Y109.37 E7.2795
G1 X71.484 Y108.241 E7.3191
G1 X71.7 Y107.701 E7.33844
G1 X72.103 Y106.814 E7.37085
G1 X72.583 Y105.968 E7.4032
G1 X73.111 Y105.197 E7.43428
G1 X73.569 Y104.629 E7.45855
G1 X75.26 Y102.665 E7.54475
G1 X76.84 Y100.721 E7.62807
G1 X78.382 Y98.71 E7.71235
G1 X79.832 Y96.701 E7.79476
G1 X81.272 Y94.587 E7.87983
G1 X82.629 Y92.465 E7.96361
G1 X83.916 Y90.324 E8.04669
G1 X85.155 Y88.122 E8.13073
G1 X86.332 Y85.886 E8.21478
G1 X87.441 Y83.627 E8.29848
G1 X88.492 Y81.321 E8.38276
G1 X89.46 Y79.025 E8.46564
G1 X90.38 Y76.666 E8.54985
G1 X91.459 Y73.655 E8.65624
G1 X91.846 Y72.691 E8.69079
G1 X92.354 Y71.689 E8.72815
G1 X92.556 Y71.335 E8.74171
G1 X93.037 Y70.57 E8.77176
G1 X93.569 Y69.859 E8.8013
G0 F6000 X93.889 Y70.099
G1 F1200 X94.179 Y69.745 E8.81652
G1 X95.015 Y68.836 E8.8576
G1 X95.293 Y68.569 E8.87042
G1 X96.203 Y67.787 E8.91032
G1 X96.47 Y67.583 E8.9215
G1 X97.25 Y67.041 E8.95309
G1 X97.739 Y66.751 E8.972
G1 X98.097 Y66.552 E8.98562
G1 X99.335 Y65.965 E9.03119
G1 X99.742 Y65.804 E9.04575
G1 X100.626 Y65.5 E9.07684
G1 X101.462 Y65.282 E9.10558
G1 X102.685 Y65.051 E9.14697
G1 X103.774 Y64.948 E9.18335
G1 X104.809 Y64.936 E9.21778
G1 X105.077 Y64.945 E9.2267
G1 X106.012 Y65.018 E9.25789
G1 X106.311 Y65.055 E9.26791
G1 X107.491 Y65.27 E9.30781
G1 X107.889 Y65.367 E9.32143
G1 X108.757 Y65.619 E9.35149
G1 X109.613 Y65.94 E9.3819
G1 X110.691 Y66.433 E9.42133
G1 X110.996 Y66.595 E9.43281
G1 X111.801 Y67.067 E9.46385
G1 X112.357 Y67.453 E9.48636
G1 X112.688 Y67.699 E9.50008
G1 X113.598 Y68.459 E9.53951
G1 X114.201 Y69.048 E9.56755
G1 X114.4 Y69.258 E9.57717
G1 X115.065 Y70.032 E9.61111
G1 X115.261 Y70.285 E9.62176
G1 X115.942 Y71.275 E9.66172
G1 X116.15 Y71.62 E9.67512
G1 X116.499 Y72.246 E9.69896
G1 X116.987 Y73.197 E9.73451
G1 X117.141 Y73.477 E9.74514
G1 X117.878 Y74.899 E9.79841
G1 X119.102 Y77.109 E9.88244
G1 X120.405 Y79.311 E9.96754
G1 X121.743 Y81.432 E10.05094
G1 X123.147 Y83.524 E10.13474
G1 X124.623 Y85.596 E10.21935
G1 X126.146 Y87.611 E10.30336
G1 X127.709 Y89.56 E10.38646
G1 X129.374 Y91.52 E10.47199
G1 X131.047 Y93.381 E10.55523
G1 X132.799 Y95.223 E10.63978
G1 X134.59 Y97.001 E10.72372
G1 X136.443 Y98.74 E10.80824
G1 X138.33 Y100.41 E10.89205
G1 X140.265 Y102.031 E10.976
G1 X142.244 Y103.595 E11.0599
G1 X144.277 Y105.11 E11.14423
G1 X146.657 Y106.775 E11.24084
G1 X147.355 Y107.248 E11.26888
G1 X148.047 Y107.76 E11.29751
G1 X148.283 Y107.95 E11.30759
G1 X149 Y108.584 E11.33942
G1 X149.66 Y109.281 E11.37135
G1 X149.917 Y109.579 E11.38444
G1 X150.498 Y110.317 E11.41567
G1 X151.01 Y111.103 E11.44687
G1 X151.436 Y111.9 E11.47693
G1 X151.712 Y112.526 E11.49969
G1 X151.838 Y112.841 E11.51097
G1 X152.192 Y113.868 E11.5471
G1 X152.402 Y114.604 E11.57256
G1 X152.741 Y115.911 E11.61747
G1 X152.926 Y116.795 E11.64751
G1 X153.026 Y117.582 E11.67389
G1 X153.052 Y117.869 E11.68348
G1 X153.092 Y118.806 E11.71467
G1 X153.055 Y119.687 E11.744
G1 X153.025 Y120.035 E11.75562
G1 X152.903 Y120.965 E11.78681
G1 X152.699 Y121.88 E11.81799
G1 X152.439 Y122.709 E11.84689
G1 X152.332 Y123.007 E11.85742
G1 X151.989 Y123.843 E11.88748
G1 X151.648 Y124.519 E11.91266
G1 X151.15 Y125.423 E11.94699
G1 X136.417 Y150.933 E12.92679
G1 X136.052 Y151.544 E12.95046
G1 X135.536 Y152.324 E12.98157
G1 X135.02 Y152.984 E13.00943
G1 X134.422 Y153.661 E13.03948
G1 X133.779 Y154.276 E13.06907
G1 X133.488 Y154.53 E13.08192
G1 X132.754 Y155.116 E13.11315
G1 X131.972 Y155.634 E13.14435
G1 X131.15 Y156.081 E13.17547
G1 X130.381 Y156.422 E13.20345
G1 X129.16 Y156.854 E13.24653
G1 X128.056 Y157.165 E13.28468
G1 X127.119 Y157.405 E13.31685
G1 X126.206 Y157.597 E13.34788
G1 X125.581 Y157.679 E13.36885
G1 X125.25 Y157.712 E13.37991
G1 X124.312 Y157.765 E13.41116
G1 X123.18 Y157.724 E13.44883
G1 X122.159 Y157.594 E13.48306
G1 X121.07 Y157.348 E13.5202
G1 X120.734 Y157.253 E13.53181
G1 X119.844 Y156.956 E13.56302
G1 X119.015 Y156.598 E13.59305
G1 X118.524 Y156.346 E13.61141
G1 X117.536 Y155.803 E13.6489
G1 X79.762 Y133.995 E15.09962
G1 X79.143 Y133.625 E15.12361
G1 X78.359 Y133.107 E15.15486
G1 X77.626 Y132.523 E15.18603
G1 X76.945 Y131.877 E15.21725
G1 X76.326 Y131.172 E15.24845
G1 X75.77 Y130.416 E15.27967
G1 X75.284 Y129.613 E15.31089
G1 X74.871 Y128.77 E15.34211
G1 X74.532 Y127.89 E15.37347
G1 X74.223 Y126.764 E15.41231
G1 X73.538 Y123.765 E15.51463
G1 X72.905 Y121.338 E15.59805
G1 X72.193 Y118.892 E15.68278
G1 X71.617 Y117.052 E15.74691
G1 X71.443 Y116.412 E15.76897
G1 X71.313 Y115.868 E15.78757
G1 X71.136 Y114.939 E15.81902
G1 X71.03 Y113.714 E15.85992
G1 X71.017 Y113.198 E15.87709
G1 X71.053 Y112.035 E15.91579
G1 X71.075 Y111.781 E15.92427
G1 X71.214 Y110.761 E15.9585
G1 X71.292 Y110.34 E15.97275
G1 X71.496 Y109.46 E16.00279
G1 X71.863 Y108.369 E16.04108
G1 X72.064 Y107.866 E16.05909
G1 X72.451 Y107.011 E16.09031
G1 X72.913 Y106.194 E16.12152
G1 X73.423 Y105.448 E16.15158
G1 X73.872 Y104.89 E16.1754
G1 X75.563 Y102.926 E16.2616
G1 X77.15 Y100.973 E16.3453
G1 X78.706 Y98.944 E16.43034
G1 X80.163 Y96.926 E16.51313
G1 X81.603 Y94.812 E16.5982
G1 X82.966 Y92.681 E16.68234
G1 X84.259 Y90.53 E16.76581
G1 X85.504 Y88.318 E16.85024
G1 X86.686 Y86.072 E16.93465
G1 X87.8 Y83.803 E17.01872
G1 X88.856 Y81.487 E17.10338
G1 X89.829 Y79.18 E17.18666
G1 X90.753 Y76.811 E17.27123
G1 X91.83 Y73.804 E17.37747
G1 X92.203 Y72.872 E17.41086
G1 X92.702 Y71.887 E17.44758
G1 X92.895 Y71.548 E17.46056
G1 X93.376 Y70.783 E17.49061
G1 X93.889 Y70.099 E17.51905
G0 F6000 X94.199 Y70.352
G1 F1200 X94.473 Y70.016 E17.53347
G1 X95.293 Y69.124 E17.57377
G1 X95.554 Y68.872 E17.58584
G1 X96.446 Y68.105 E17.62497
G1 X96.713 Y67.901 E17.63614
G1 X97.455 Y67.385 E17.6662
G1 X97.934 Y67.1 E17.68474
G1 X98.269 Y66.913 E17.6975
G1 X99.482 Y66.337 E17.74216
G1 X99.873 Y66.182 E17.75615
G1 X100.727 Y65.887 E17.7862
G1 X101.537 Y65.675 E17.81405
G1 X102.723 Y65.449 E17.85421
G1 X103.779 Y65.348 E17.88949
G1 X104.796 Y65.336 E17.92332
G1 X105.046 Y65.344 E17.93164
G1 X105.963 Y65.415 E17.96223
G1 X106.24 Y65.449 E17.97151
G1 X107.397 Y65.659 E18.01062
G1 X107.777 Y65.751 E18.02362
G1 X108.645 Y66.003 E18.05369
G1 X109.447 Y66.304 E18.08218
G1 X110.504 Y66.787 E18.12083
G1 X110.794 Y66.94 E18.13174
G1 X111.573 Y67.396 E18.16176
G1 X112.118 Y67.774 E18.18382
G1 X112.449 Y68.02 E18.19753
G1 X113.319 Y68.745 E18.2352
G1 X113.911 Y69.323 E18.26272
G1 X114.097 Y69.519 E18.27171
G1 X114.749 Y70.278 E18.30499
G1 X114.931 Y70.512 E18.31485
G1 X115.612 Y71.502 E18.35481
G1 X115.801 Y71.815 E18.36697
G1 X116.143 Y72.429 E18.39035
G1 X116.631 Y73.38 E18.4259
G1 X116.786 Y73.661 E18.43657
G1 X117.528 Y75.093 E18.49022
G1 X118.758 Y77.313 E18.57463
G1 X120.061 Y79.515 E18.65973
G1 X121.411 Y81.655 E18.74389
G1 X122.821 Y83.756 E18.82804
G1 X124.297 Y85.828 E18.91266
G1 X125.834 Y87.861 E18.99742
G1 X127.404 Y89.819 E19.0809
G1 X129.069 Y91.779 E19.16643
G1 X130.757 Y93.657 E19.25042
G1 X132.517 Y95.507 E19.33535
G1 X134.316 Y97.293 E19.41966
G1 X136.169 Y99.031 E19.50416
G1 X138.073 Y100.717 E19.58875
G1 X140.008 Y102.338 E19.6727
G1 X142.005 Y103.916 E19.75736
G1 X144.038 Y105.431 E19.84169
G1 X146.428 Y107.103 E19.9387
G1 X147.117 Y107.569 E19.96637
G1 X147.796 Y108.072 E19.99447
G1 X148.032 Y108.262 E20.00455
G1 X148.71 Y108.859 E20.03459
G1 X149.357 Y109.542 E20.06589
G1 X149.603 Y109.827 E20.07841
G1 X150.163 Y110.536 E20.10846
G1 X150.657 Y111.292 E20.13849
G1 X151.083 Y112.089 E20.16855
G1 X151.341 Y112.676 E20.18988
G1 X151.46 Y112.971 E20.20046
G1 X151.807 Y113.978 E20.23588
G1 X152.015 Y114.704 E20.261
G1 X152.349 Y115.993 E20.30529
G1 X152.534 Y116.877 E20.33533
G1 X152.628 Y117.618 E20.36017
G1 X152.652 Y117.887 E20.36915
G1 X152.692 Y118.789 E20.39918
G1 X152.656 Y119.653 E20.42795
G1 X152.628 Y119.984 E20.43899
G1 X152.512 Y120.879 E20.46901
G1 X152.317 Y121.761 E20.49906
G1 X152.063 Y122.574 E20.52738
G1 X151.962 Y122.855 E20.53732
G1 X151.619 Y123.691 E20.56737
G1 X151.298 Y124.326 E20.59104
G1 X150.804 Y125.223 E20.6251
G1 X136.074 Y150.728 E21.60471
G1 X135.718 Y151.324 E21.6278
G1 X135.221 Y152.078 E21.65783
G1 X134.72 Y152.719 E21.68489
G1 X134.122 Y153.396 E21.71493
G1 X133.515 Y153.975 E21.74284
G1 X133.238 Y154.218 E21.75509
G1 X132.533 Y154.783 E21.78514
G1 X131.781 Y155.283 E21.81518
G1 X130.988 Y155.715 E21.84521
G1 X130.219 Y156.056 E21.87319
G1 X129.051 Y156.469 E21.9144
G1 X127.957 Y156.778 E21.95221
G1 X127.037 Y157.014 E21.9838
G1 X126.154 Y157.2 E22.01381
G1 X125.54 Y157.281 E22.03441
G1 X125.227 Y157.313 E22.04487
G1 X124.326 Y157.365 E22.07489
G1 X123.231 Y157.327 E22.11133
G1 X122.21 Y157.197 E22.14556
G1 X121.179 Y156.963 E22.18073
G1 X120.86 Y156.873 E22.19175
G1 X120.003 Y156.589 E22.22178
G1 X119.174 Y156.231 E22.25181
G1 X118.717 Y155.995 E22.26892
G1 X117.729 Y155.452 E22.30642
G1 X79.967 Y133.651 E23.75667
G1 X79.363 Y133.291 E23.78006
G1 X78.608 Y132.794 E23.81012
G1 X77.901 Y132.233 E23.84014
G1 X77.245 Y131.612 E23.87018
G1 X76.648 Y130.935 E23.90021
G1 X76.112 Y130.208 E23.93025
G1 X75.643 Y129.436 E23.96029
G1 X75.244 Y128.626 E23.99032
G1 X74.918 Y127.784 E24.02035
G1 X74.613 Y126.675 E24.05861
G1 X73.928 Y123.676 E24.16092
G1 X73.292 Y121.237 E24.24476
G1 X72.575 Y118.772 E24.33014
G1 X72.003 Y116.947 E24.39375
G1 X71.832 Y116.319 E24.4154
G1 X71.706 Y115.792 E24.43342
G1 X71.535 Y114.905 E24.46347
G1 X71.429 Y113.68 E24.50437
G1 X71.417 Y113.21 E24.52
G1 X71.452 Y112.07 E24.55794
G1 X71.474 Y111.816 E24.56642
G1 X71.607 Y110.834 E24.59938
G1 X71.682 Y110.43 E24.61304
G1 X71.886 Y109.55 E24.64309
G1 X72.235 Y108.517 E24.67935
G1 X72.429 Y108.03 E24.69679
G1 X72.8 Y107.207 E24.72681
G1 X73.243 Y106.42 E24.75685
G1 X73.753 Y105.674 E24.78691
G1 X74.175 Y105.151 E24.80926
G1 X75.866 Y103.187 E24.89546
G1 X77.46 Y101.225 E24.97954
G1 X79.023 Y99.187 E25.06496
G1 X80.494 Y97.151 E25.1485
G1 X81.934 Y95.037 E25.23358
G1 X83.303 Y92.897 E25.31807
G1 X84.602 Y90.736 E25.40194
G1 X85.853 Y88.514 E25.48675
G1 X87.04 Y86.258 E25.57153
G1 X88.159 Y83.979 E25.65598
G1 X89.22 Y81.653 E25.74101
G1 X90.198 Y79.335 E25.82469
G1 X91.126 Y76.956 E25.90962
G1 X91.768 Y75.18 E25.97243
G1 X92.201 Y73.952 E26.01574
G1 X92.56 Y73.053 E26.04794
G1 X93.05 Y72.085 E26.08402
G1 X93.234 Y71.761 E26.09642
G1 X93.715 Y70.996 E26.12647
G1 X94.199 Y70.352 E26.15327
G1 F1500 E19.65327
;MESH:RAIL_BRACKET_LEFTRA.stl
G0 F6000 X101.69 Y93.565
G0 X138.192 Y125.468
;TYPE:WALL-INNER
G1 F1500 E26.15327
G1 F1200 X141.814 Y119.185 E26.39448
G1 X141.884 Y118.994 E26.40124
G1 X141.874 Y118.586 E26.41482
G1 X141.427 Y116.905 E26.47267
G1 X141.286 Y116.704 E26.48084
