;FLAVOR:Marlin
;TIME:5797
;Filament used: 3.07035m
;Layer height: 0.2
;MINX:85.914
;MINY:92.391
;MINZ:0.2
;MAXX:134.085
;MAXY:138.776
;MAXZ:49.6
;TARGET_MACHINE.NAME:Creality Ender-3 Pro
;Generated with Cura_SteamEngine 5.6.0
M82 ;absolute extrusion mode
; Ender 3 Custom Start G-code
G92 E0 ; Reset Extruder
G28 ; Home all axes
G1 Z5.0 F3000 ; Move Z Axis up a bit during heating to not damage bed
M104 S175 ; Start heating up the nozzle most of the way
M190 S60 ; Start heating the bed, wait until target temperature reached
M109 S200 ; Finish heating the nozzle
G1 Z2.0 F3000 ; Move Z Axis up little to prevent scratching of Heat Bed
G1 X0.1 Y20 Z0.3 F5000.0 ; Move to start position
G1 X0.1 Y200.0 Z0.3 F1500.0 E15 ; Draw the first line
G1 X0.4 Y200.0 Z0.3 F5000.0 ; Move to side a little
G1 X0.4 Y20 Z0.3 F1500.0 E30 ; Draw the second line
G92 E0 ; Reset Extruder
G1 Z2.0 F3000 ; Move Z Axis up little to prevent scratching of Heat Bed
G1 X5 Y20 Z0.3 F5000.0 ; Move over to prevent blob squish
G92 E0
G92 E0
G1 F1500 E-6.5
;LAYER_COUNT:248
;LAYER:0
M107
G0 F6000 X90.467 Y99.419 Z0.2
;TYPE:SKIRT
G1 F1500 E0
G1 F1200 X91.203 Y98.783 E0.03235
G1 X91.934 Y98.252 E0.0624
G1 X92.831 Y97.717 E0.09714
G1 X93.709 Y97.296 E0.12953
G1 X94.622 Y96.954 E0.16195
G1 X95.559 Y96.695 E0.19429
G1 X96.518 Y96.519 E0.22672
G1 X97.487 Y96.429 E0.25908
G1 X98.454 Y96.424 E0.29125
G1 X99.194 Y96.477 E0.31592
G1 X100.343 Y96.6 E0.35436
G1 X102.897 Y96.841 E0.43968
G1 X105.408 Y97.006 E0.52338
G1 X107.93 Y97.1 E0.60732
G1 X110.464 Y97.124 E0.6916
G1 X112.936 Y97.075 E0.77384
G1 X115.489 Y96.954 E0.85885
G1 X118.002 Y96.763 E0.94267
G1 X120.824 Y96.468 E1.03704
G1 X121.797 Y96.411 E1.06946
G1 X122.77 Y96.443 E1.10184
G1 X123.737 Y96.559 E1.13423
G1 X124.69 Y96.76 E1.16663
G1 X125.621 Y97.046 E1.19902
G1 X126.521 Y97.411 E1.23132
G1 X127.326 Y97.82 E1.26135
G1 X127.848 Y98.132 E1.28158
G1 X128.692 Y98.716 E1.31572
G1 X129.439 Y99.341 E1.34811
G1 X130.128 Y100.029 E1.3805
G1 X130.754 Y100.775 E1.41289
G1 X131.31 Y101.573 E1.44524
G1 X131.796 Y102.417 E1.47763
G1 X132.177 Y103.235 E1.50764
G1 X132.532 Y104.219 E1.54243
G1 X132.762 Y105.092 E1.57246
G1 X132.893 Y105.786 E1.59595
G1 X133.041 Y106.806 E1.63023
G1 X133.124 Y107.59 E1.65645
G1 X133.232 Y108.975 E1.70266
G1 X133.318 Y110.363 E1.74891
G1 X133.412 Y112.139 E1.80807
G1 X134.056 Y126.079 E2.27221
G1 X134.085 Y126.98 E2.30219
G1 X134.071 Y127.955 E2.33462
G1 X133.971 Y128.922 E2.36696
G1 X133.786 Y129.879 E2.39937
G1 X133.517 Y130.814 E2.43173
G1 X133.194 Y131.658 E2.46179
G1 X132.85 Y132.383 E2.48848
G1 X132.716 Y132.638 E2.49806
G1 X132.226 Y133.479 E2.53044
G1 X131.664 Y134.275 E2.56284
G1 X131.033 Y135.017 E2.59524
G1 X130.337 Y135.702 E2.62772
G1 X129.44 Y136.436 E2.66627
G1 X128.539 Y137.044 E2.70242
G1 X127.688 Y137.513 E2.73474
G1 X126.809 Y137.903 E2.76672
G1 X126.227 Y138.113 E2.7873
G1 X125.894 Y138.221 E2.79895
G1 X124.954 Y138.48 E2.83138
G1 X123.996 Y138.655 E2.86377
G1 X123.024 Y138.745 E2.89623
G1 X122.021 Y138.748 E2.92959
G1 X121.672 Y138.732 E2.94121
G1 X120.917 Y138.67 E2.96641
G1 X120.355 Y138.605 E2.98523
G1 X117.749 Y138.342 E3.07234
G1 X115.257 Y138.161 E3.15545
G1 X112.725 Y138.049 E3.23974
G1 X110.183 Y138.007 E3.3243
G1 X107.719 Y138.038 E3.40626
G1 X105.162 Y138.141 E3.49138
G1 X102.649 Y138.315 E3.57516
G1 X100.119 Y138.561 E3.6597
G1 X99.18 Y138.673 E3.69116
G1 X98.646 Y138.726 E3.70901
G1 X97.48 Y138.776 E3.74782
G1 X96.763 Y138.767 E3.77167
G1 X95.791 Y138.712 E3.80405
G1 X94.862 Y138.576 E3.83528
G1 X93.88 Y138.343 E3.86885
G1 X92.958 Y138.034 E3.90119
G1 X92.065 Y137.645 E3.93359
G1 X91.271 Y137.214 E3.96364
G1 X90.401 Y136.635 E3.99839
G1 X89.641 Y136.024 E4.03083
G1 X88.965 Y135.375 E4.062
G1 X88.302 Y134.615 E4.09554
G1 X87.729 Y133.826 E4.12797
G1 X87.229 Y132.989 E4.1604
G1 X86.806 Y132.113 E4.19276
G1 X86.462 Y131.202 E4.22514
G1 X86.199 Y130.263 E4.25758
G1 X86.021 Y129.307 E4.28992
G1 X85.927 Y128.343 E4.32214
G1 X85.914 Y127.554 E4.34838
G1 X85.93 Y126.899 E4.37017
G1 X86.626 Y111.859 E4.87094
G1 X86.702 Y110.397 E4.91963
G1 X86.793 Y108.943 E4.96809
G1 X86.915 Y107.475 E5.01708
G1 X87.029 Y106.462 E5.05099
G1 X87.148 Y105.699 E5.07667
G1 X87.227 Y105.296 E5.09033
G1 X87.457 Y104.349 E5.12274
G1 X87.77 Y103.427 E5.15513
G1 X88.162 Y102.537 E5.18747
G1 X88.632 Y101.683 E5.2199
G1 X89.175 Y100.875 E5.25227
G1 X89.741 Y100.172 E5.28229
G1 X90.467 Y99.419 E5.31708
G0 F6000 X90.729 Y99.721
G1 F1200 X91.438 Y99.107 E5.34828
G1 X92.169 Y98.576 E5.37833
G1 X93.005 Y98.077 E5.41071
G1 X93.85 Y97.67 E5.44191
G1 X94.729 Y97.339 E5.47315
G1 X95.632 Y97.088 E5.50432
G1 X96.556 Y96.917 E5.53557
G1 X97.49 Y96.829 E5.56677
G1 X98.425 Y96.823 E5.59787
G1 X99.151 Y96.875 E5.62208
G1 X100.3 Y96.998 E5.66052
G1 X102.866 Y97.24 E5.74624
G1 X105.393 Y97.406 E5.83047
G1 X107.915 Y97.5 E5.91441
G1 X110.468 Y97.524 E5.99933
G1 X112.955 Y97.475 E6.08206
G1 X115.508 Y97.354 E6.16707
G1 X118.041 Y97.161 E6.25156
G1 X120.848 Y96.867 E6.34543
G1 X121.785 Y96.811 E6.37665
G1 X122.723 Y96.84 E6.40787
G1 X123.655 Y96.95 E6.43908
G1 X124.573 Y97.143 E6.47028
G1 X125.471 Y97.417 E6.50151
G1 X126.34 Y97.768 E6.53268
G1 X127.145 Y98.177 E6.56271
G1 X127.642 Y98.475 E6.58199
G1 X128.436 Y99.023 E6.61407
G1 X129.157 Y99.624 E6.64529
G1 X129.822 Y100.286 E6.6765
G1 X130.426 Y101.004 E6.70771
G1 X130.964 Y101.773 E6.73892
G1 X131.433 Y102.586 E6.77014
G1 X131.814 Y103.404 E6.80015
G1 X132.145 Y104.321 E6.83258
G1 X132.375 Y105.194 E6.86261
G1 X132.497 Y105.844 E6.8846
G1 X132.643 Y106.848 E6.91835
G1 X132.725 Y107.621 E6.9442
G1 X132.833 Y109 E6.99021
G1 X132.919 Y110.384 E7.03633
G1 X133.012 Y112.157 E7.09538
G1 X133.656 Y126.092 E7.55935
G1 X133.685 Y126.975 E7.58874
G1 X133.673 Y127.914 E7.61997
G1 X133.578 Y128.847 E7.65117
G1 X133.401 Y129.769 E7.68239
G1 X133.143 Y130.671 E7.71359
G1 X132.82 Y131.515 E7.74365
G1 X132.496 Y132.197 E7.76876
G1 X132.37 Y132.437 E7.77778
G1 X131.899 Y133.249 E7.809
G1 X131.359 Y134.016 E7.8402
G1 X130.752 Y134.732 E7.87142
G1 X130.083 Y135.393 E7.9027
G1 X129.216 Y136.105 E7.94002
G1 X128.345 Y136.694 E7.97499
G1 X127.525 Y137.148 E8.00616
G1 X126.673 Y137.527 E8.03718
G1 X126.103 Y137.733 E8.05734
G1 X125.787 Y137.836 E8.06839
G1 X124.882 Y138.087 E8.09963
G1 X123.959 Y138.257 E8.13084
G1 X123.023 Y138.345 E8.16211
G1 X122.039 Y138.348 E8.19484
G1 X121.704 Y138.333 E8.20599
G1 X120.963 Y138.273 E8.23072
G1 X120.395 Y138.207 E8.24974
G1 X117.782 Y137.943 E8.33709
G1 X115.275 Y137.761 E8.42069
G1 X112.743 Y137.649 E8.50499
G1 X110.185 Y137.607 E8.59008
G1 X107.703 Y137.638 E8.67264
G1 X105.146 Y137.741 E8.75775
G1 X102.618 Y137.916 E8.84203
G1 X100.08 Y138.163 E8.92685
G1 X99.14 Y138.275 E8.95833
G1 X98.629 Y138.326 E8.97541
G1 X97.485 Y138.376 E9.0135
G1 X96.785 Y138.368 E9.03678
G1 X95.849 Y138.316 E9.06796
G1 X94.92 Y138.18 E9.09919
G1 X94.007 Y137.964 E9.1304
G1 X93.117 Y137.667 E9.1616
G1 X92.256 Y137.293 E9.19282
G1 X91.462 Y136.862 E9.22287
G1 X90.651 Y136.323 E9.25526
G1 X89.918 Y135.735 E9.28651
G1 X89.242 Y135.086 E9.31768
G1 X88.625 Y134.379 E9.34889
G1 X88.072 Y133.62 E9.38013
G1 X87.589 Y132.815 E9.41135
G1 X87.18 Y131.971 E9.44255
G1 X86.847 Y131.093 E9.47378
G1 X86.592 Y130.189 E9.50502
G1 X86.419 Y129.268 E9.53619
G1 X86.327 Y128.336 E9.56734
G1 X86.314 Y127.564 E9.59302
G1 X86.33 Y126.917 E9.61454
G1 X87.025 Y111.88 E10.11521
G1 X87.101 Y110.422 E10.16377
G1 X87.192 Y108.976 E10.21196
G1 X87.312 Y107.52 E10.26055
G1 X87.424 Y106.524 E10.29388
G1 X87.541 Y105.775 E10.3191
G1 X87.616 Y105.39 E10.33214
G1 X87.836 Y104.477 E10.36338
G1 X88.136 Y103.588 E10.39459
G1 X88.513 Y102.729 E10.42579
G1 X88.964 Y101.906 E10.457
G1 X89.487 Y101.126 E10.48824
G1 X90.053 Y100.423 E10.51825
G1 X90.729 Y99.721 E10.55067
G0 F6000 X90.991 Y100.023
G1 F1200 X91.673 Y99.431 E10.58071
G1 X92.404 Y98.9 E10.61076
G1 X93.179 Y98.437 E10.64078
G1 X93.992 Y98.044 E10.67082
G1 X94.837 Y97.724 E10.70087
G1 X95.706 Y97.481 E10.73088
G1 X96.594 Y97.315 E10.76093
G1 X97.493 Y97.229 E10.79096
G1 X98.396 Y97.222 E10.821
G1 X99.108 Y97.273 E10.84474
G1 X100.257 Y97.396 E10.88318
G1 X102.835 Y97.639 E10.9693
G1 X105.378 Y97.806 E11.05406
G1 X107.9 Y97.9 E11.138
G1 X110.472 Y97.924 E11.22355
G1 X112.974 Y97.875 E11.30679
G1 X115.527 Y97.754 E11.39179
G1 X118.08 Y97.559 E11.47695
G1 X120.872 Y97.266 E11.57033
G1 X121.773 Y97.211 E11.60035
G1 X122.676 Y97.237 E11.6304
G1 X123.573 Y97.342 E11.66043
G1 X124.457 Y97.526 E11.69047
G1 X125.322 Y97.788 E11.72053
G1 X126.159 Y98.125 E11.75054
G1 X126.964 Y98.534 E11.78057
G1 X127.436 Y98.818 E11.79889
G1 X128.18 Y99.331 E11.82895
G1 X128.875 Y99.908 E11.85899
G1 X129.516 Y100.544 E11.88903
G1 X130.099 Y101.234 E11.91907
G1 X130.618 Y101.973 E11.94911
G1 X131.07 Y102.755 E11.97915
G1 X131.451 Y103.573 E12.00916
G1 X131.758 Y104.423 E12.03922
G1 X131.988 Y105.296 E12.06925
G1 X132.101 Y105.902 E12.08975
G1 X132.245 Y106.89 E12.12296
G1 X132.326 Y107.652 E12.14844
G1 X132.434 Y109.025 E12.19425
G1 X132.52 Y110.405 E12.24024
G1 X132.612 Y112.175 E12.29919
G1 X133.256 Y126.105 E12.763
G1 X133.285 Y126.971 E12.79182
G1 X133.275 Y127.874 E12.82185
G1 X133.185 Y128.772 E12.85187
G1 X133.016 Y129.66 E12.88194
G1 X132.769 Y130.528 E12.91195
G1 X132.446 Y131.372 E12.94201
G1 X132.141 Y132.012 E12.96559
G1 X132.024 Y132.237 E12.97402
G1 X131.572 Y133.019 E13.00406
G1 X131.053 Y133.758 E13.0341
G1 X130.47 Y134.448 E13.06414
G1 X129.829 Y135.084 E13.09418
G1 X128.991 Y135.774 E13.13028
G1 X128.151 Y136.344 E13.16405
G1 X127.362 Y136.783 E13.19408
G1 X126.537 Y137.151 E13.22412
G1 X125.978 Y137.353 E13.24389
G1 X125.679 Y137.451 E13.25436
G1 X124.809 Y137.694 E13.2844
G1 X123.921 Y137.859 E13.31444
G1 X123.022 Y137.945 E13.34448
G1 X122.056 Y137.948 E13.37661
G1 X121.736 Y137.934 E13.38726
G1 X121.009 Y137.876 E13.41152
G1 X120.435 Y137.809 E13.43074
G1 X117.815 Y137.544 E13.51833
G1 X115.293 Y137.361 E13.60243
G1 X112.761 Y137.249 E13.68673
G1 X110.187 Y137.207 E13.77235
G1 X107.687 Y137.238 E13.8555
G1 X105.13 Y137.341 E13.94062
G1 X102.587 Y137.517 E14.0254
G1 X100.041 Y137.765 E14.11048
G1 X99.1 Y137.877 E14.142
G1 X98.611 Y137.926 E14.15835
G1 X97.489 Y137.976 E14.1957
G1 X96.807 Y137.969 E14.21839
G1 X95.906 Y137.92 E14.2484
G1 X95.012 Y137.791 E14.27844
G1 X94.133 Y137.584 E14.30848
G1 X93.276 Y137.3 E14.33851
G1 X92.447 Y136.941 E14.36855
G1 X91.653 Y136.51 E14.3986
G1 X90.901 Y136.01 E14.42864
G1 X90.195 Y135.446 E14.45869
G1 X89.543 Y134.822 E14.48871
G1 X88.948 Y134.143 E14.51874
G1 X88.415 Y133.413 E14.5488
G1 X87.949 Y132.64 E14.57882
G1 X87.554 Y131.828 E14.60885
G1 X87.232 Y130.984 E14.6389
G1 X86.985 Y130.115 E14.66895
G1 X86.817 Y129.228 E14.69897
G1 X86.727 Y128.329 E14.72902
G1 X86.714 Y127.574 E14.75414
G1 X86.73 Y126.935 E14.7754
G1 X87.424 Y111.901 E15.27596
G1 X87.5 Y110.447 E15.32439
G1 X87.591 Y109.009 E15.37231
G1 X87.71 Y107.564 E15.42054
G1 X87.819 Y106.586 E15.45327
G1 X87.934 Y105.851 E15.47801
G1 X88.005 Y105.483 E15.49047
G1 X88.215 Y104.604 E15.52053
G1 X88.502 Y103.748 E15.55056
G1 X88.864 Y102.921 E15.58059
G1 X89.297 Y102.128 E15.61064
G1 X89.799 Y101.377 E15.64068
G1 X90.365 Y100.674 E15.6707
G1 X90.991 Y100.023 E15.70074
G1 F1500 E9.20074
;MESH:Mic_Holder_mic.STL
G0 F6000 X96.686 Y127.254
G0 X97.636 Y127.312
;TYPE:WALL-OUTER
G1 F1500 E15.70074
G1 F884 X97.656 Y126.41 E15.74148
G1 F1016.9 X97.667 Y125.588 E15.77374
G1 F1250 X97.69 Y124.755 E15.80035
G1 F1500 E9.30035
G0 F6000 X98.521 Y124.765
G0 X121.435 Y127.214
G0 X122.386 Y127.235
G1 F1500 E15.80035
G1 F905.7 X122.368 Y126.297 E15.84169
G1 F1064.3 X122.35 Y125.359 E15.87688
G1 F1293.8 X122.336 Y124.795 E15.89428
M104 S200
G1 F1500 E9.39428
;MESH:NONMESH
G0 F300 X122.336 Y124.795 Z0.4
G0 F6000 X121.507 Y124.75
G0 X90.991 Y100.023
;TIME_ELAPSED:31.668234
;LAYER:1
M106 S85
;TYPE:SKIRT
G1 F1500 E15.89428
G1 F1200 X91.673 Y99.431 E15.92432
G1 X92.404 Y98.9 E15.95437
G1 X93.179 Y98.437 E15.98439
G1 X93.992 Y98.044 E16.01443
G1 X94.837 Y97.724 E16.04448
G1 X95.706 Y97.481 E16.07449
G1 X96.594 Y97.315 E16.10454
G1 X97.493 Y97.229 E16.13458
G1 X98.396 Y97.222 E16.16461
G1 X99.108 Y97.273 E16.18835
G1 X100.257 Y97.396 E16.22679
G1 X102.835 Y97.639 E16.31291
G1 X105.378 Y97.806 E16.39767
G1 X107.9 Y97.9 E16.48161
G1 X110.472 Y97.924 E16.56716
G1 X112.974 Y97.875 E16.6504
G1 X115.527 Y97.754 E16.7354
G1 X118.08 Y97.559 E16.82056
G1 X120.872 Y97.266 E16.91394
G1 X121.773 Y97.211 E16.94396
G1 X122.676 Y97.237 E16.97401
G1 X123.573 Y97.342 E17.00404
G1 X124.457 Y97.526 E17.03408
G1 X125.322 Y97.788 E17.06414
G1 X126.159 Y98.125 E17.09415
G1 X126.964 Y98.534 E17.12418
G1 X127.436 Y98.818 E17.1425
G1 X128.18 Y99.331 E17.17256
G1 X128.875 Y99.908 E17.2026
G1 X129.516 Y100.544 E17.23264
G1 X130.099 Y101.234 E17.26268
G1 X130.618 Y101.973 E17.29272
G1 X131.07 Y102.755 E17.32276
G1 X131.451 Y103.573 E17.35277
G1 X131.758 Y104.423 E17.38283
G1 X131.988 Y105.296 E17.41286
G1 X132.101 Y105.902 E17.43336
G1 X132.245 Y106.89 E17.46657
G1 X132.326 Y107.652 E17.49205
G1 X132.434 Y109.025 E17.53786
G1 X132.52 Y110.405 E17.58385
G1 X132.612 Y112.175 E17.6428
G1 X133.256 Y126.105 E18.10661
G1 X133.285 Y126.971 E18.13543
G1 X133.275 Y127.874 E18.16546
G1 X133.185 Y128.772 E18.19548
G1 X133.016 Y129.66 E18.22555
G1 X132.769 Y130.528 E18.25556
G1 X132.446 Y131.372 E18.28562
G1 X132.141 Y132.012 E18.3092
G1 X132.024 Y132.237 E18.31763
G1 X131.572 Y133.019 E18.34768
G1 X131.053 Y133.758 E18.37771
G1 X130.47 Y134.448 E18.40776
G1 X129.829 Y135.084 E18.43779
G1 X128.991 Y135.774 E18.47389
G1 X128.151 Y136.344 E18.50766
G1 X127.362 Y136.783 E18.53769
G1 X126.537 Y137.151 E18.56773
G1 X125.978 Y137.353 E18.5875
G1 X125.679 Y137.451 E18.59797
G1 X124.809 Y137.694 E18.62801
G1 X123.921 Y137.859 E18.65805
G1 X123.022 Y137.945 E18.68809
G1 X122.056 Y137.948 E18.72022
G1 X121.736 Y137.934 E18.73087
G1 X121.009 Y137.876 E18.75513
G1 X120.435 Y137.809 E18.77435
G1 X117.815 Y137.544 E18.86194
G1 X115.293 Y137.361 E18.94604
G1 X112.761 Y137.249 E19.03034
G1 X110.187 Y137.207 E19.11596
G1 X107.687 Y137.238 E19.19912
G1 X105.13 Y137.341 E19.28423
G1 X102.587 Y137.517 E19.36901
G1 X100.041 Y137.765 E19.45409
G1 X99.1 Y137.877 E19.48561
G1 X98.611 Y137.926 E19.50196
G1 X97.489 Y137.976 E19.53931
G1 X96.807 Y137.969 E19.562
G1 X95.906 Y137.92 E19.59201
G1 X95.012 Y137.791 E19.62205
G1 X94.133 Y137.584 E19.65209
G1 X93.276 Y137.3 E19.68212
G1 X92.447 Y136.941 E19.71216
G1 X91.653 Y136.51 E19.74221
G1 X90.901 Y136.01 E19.77225
G1 X90.195 Y135.446 E19.8023
G1 X89.543 Y134.822 E19.83232
G1 X88.948 Y134.143 E19.86235
G1 X88.415 Y133.413 E19.89241
G1 X87.949 Y132.64 E19.92243
G1 X87.554 Y131.828 E19.95246
G1 X87.232 Y130.984 E19.98251
G1 X86.985 Y130.115 E20.01256
G1 X86.817 Y129.228 E20.04258
G1 X86.727 Y128.329 E20.07263
G1 X86.714 Y127.574 E20.09775
G1 X86.73 Y126.935 E20.11901
G1 X87.424 Y111.901 E20.61957
G1 X87.5 Y110.447 E20.668
G1 X87.591 Y109.009 E20.71592
G1 X87.71 Y107.564 E20.76415
G1 X87.819 Y106.586 E20.79688
G1 X87.934 Y105.851 E20.82162
G1 X88.005 Y105.483 E20.83409
G1 X88.215 Y104.604 E20.86414
G1 X88.502 Y103.748 E20.89417
G1 X88.864 Y102.921 E20.9242
G1 X89.297 Y102.128 E20.95425
G1 X89.799 Y101.377 E20.98429
G1 X90.365 Y100.674 E21.01431
G1 X90.991 Y100.023 E21.04435
G1 F1500 E14.54435
;MESH:Mic_Holder_mic.STL
G0 F7500 X96.613 Y124.087
G0 X97.365 Y127.535
;TYPE:WALL-OUTER
G1 F1500 E21.04435
G1 F1134.5 X97.409 Y126.255 E21.09504
G1 F1208.1 X97.454 Y124.975 E21.14265
G1 F1288.8 X97.498 Y123.694 E21.1873
G1 F1384.6 X97.543 Y122.414 E21.22884
