;FLAVOR:Marlin
;TIME:6777
;Filament used: 4.41351m
;Layer height: 0.2
;MINX:60.11
;MINY:60.109
;MINZ:0.2
;MAXX:159.89
;MAXY:159.89
;MAXZ:17
;TARGET_MACHINE.NAME:Creality Ender-3 Pro
;Generated with Cura_SteamEngine 5.6.0
M82 ;absolute extrusion mode
; Ender 3 Custom Start G-code
G92 E0 ; Reset Extruder
G28 ; Home all axes
G1 Z5.0 F3000 ; Move Z Axis up a bit during heating to not damage bed
M104 S175 ; Start heating up the nozzle most of the way
M190 S60 ; Start heating the bed, wait until target temperature reached
M109 S200 ; Finish heating the nozzle
G1 Z2.0 F3000 ; Move Z Axis up little to prevent scratching of Heat Bed
G1 X0.1 Y20 Z0.3 F5000.0 ; Move to start position
G1 X0.1 Y200.0 Z0.3 F1500.0 E15 ; Draw the first line
G1 X0.4 Y200.0 Z0.3 F5000.0 ; Move to side a little
G1 X0.4 Y20 Z0.3 F1500.0 E30 ; Draw the second line
G92 E0 ; Reset Extruder
G1 Z2.0 F3000 ; Move Z Axis up little to prevent scratching of Heat Bed
G1 X5 Y20 Z0.3 F5000.0 ; Move over to prevent blob squish
G92 E0
G92 E0
G1 F1500 E-6.5
;LAYER_COUNT:85
;LAYER:0
M107
G0 F6000 X75.225 Y74.224 Z0.2
;TYPE:SKIRT
G1 F1500 E0
G1 F1200 X76.482 Y73.044 E0.05734
G1 X77.347 Y72.281 E0.09571
G1 X78.405 Y71.386 E0.1418
G1 X78.914 Y70.977 E0.16352
G1 X80.181 Y69.999 E0.21675
G1 X81.568 Y69.001 E0.27358
G1 X82.577 Y68.322 E0.31403
G1 X83.785 Y67.551 E0.3617
G1 X85.529 Y66.52 E0.42908
G1 X86.235 Y66.134 E0.45584
G1 X87.574 Y65.433 E0.50611
G1 X89.113 Y64.69 E0.56295
G1 X89.545 Y64.493 E0.57874
G1 X91.45 Y63.683 E0.6476
G1 X92.165 Y63.406 E0.6731
G1 X93.175 Y63.031 E0.70893
G1 X94.27 Y62.655 E0.74744
G1 X95.72 Y62.196 E0.79802
G1 X97.315 Y61.748 E0.85313
G1 X97.751 Y61.635 E0.86811
G1 X99.359 Y61.256 E0.92306
G1 X99.807 Y61.161 E0.93829
G1 X101.909 Y60.767 E1.00942
G1 X102.563 Y60.667 E1.03142
G1 X104.219 Y60.444 E1.087
G1 X105.903 Y60.276 E1.14329
G1 X107.992 Y60.148 E1.2129
G1 X108.454 Y60.132 E1.22827
G1 X110.18 Y60.109 E1.28569
G1 X111.386 Y60.128 E1.3258
G1 X112.799 Y60.186 E1.37284
G1 X114.503 Y60.311 E1.42967
G1 X115.744 Y60.441 E1.47117
G1 X117.158 Y60.624 E1.51859
G1 X118.867 Y60.903 E1.57618
G1 X119.335 Y60.988 E1.592
G1 X121.074 Y61.353 E1.6511
G1 X122.009 Y61.574 E1.68306
G1 X123.134 Y61.868 E1.72173
G1 X124.232 Y62.183 E1.75973
G1 X125.51 Y62.579 E1.80423
G1 X126.111 Y62.783 E1.82534
G1 X127.722 Y63.363 E1.88228
G1 X129.305 Y63.995 E1.93898
G1 X129.731 Y64.175 E1.95436
G1 X131.314 Y64.889 E2.01212
G1 X131.725 Y65.086 E2.02728
G1 X133.508 Y65.992 E2.0938
G1 X134.262 Y66.407 E2.12242
G1 X135.549 Y67.146 E2.17178
G1 X137.061 Y68.086 E2.231
G1 X137.436 Y68.33 E2.24588
G1 X139.067 Y69.448 E2.31165
G1 X139.739 Y69.942 E2.33939
G1 X140.603 Y70.595 E2.37541
G1 X141.335 Y71.177 E2.40651
G1 X142.615 Y72.245 E2.46196
G1 X143.902 Y73.397 E2.51941
G1 X144.732 Y74.183 E2.55743
G1 X145.484 Y74.926 E2.59259
G1 X146.134 Y75.598 E2.62368
G1 X147.188 Y76.739 E2.67535
G1 X147.718 Y77.346 E2.70215
G1 X148.576 Y78.359 E2.7463
G1 X149.088 Y78.997 E2.77351
G1 X149.999 Y80.178 E2.82312
G1 X150.987 Y81.551 E2.87938
G1 X151.248 Y81.932 E2.89474
G1 X152.176 Y83.346 E2.95099
G1 X152.425 Y83.745 E2.96664
G1 X153.307 Y85.229 E3.02405
G1 X153.53 Y85.622 E3.03908
G1 X154.356 Y87.158 E3.09709
G1 X154.57 Y87.577 E3.11274
G1 X155.311 Y89.113 E3.16946
G1 X155.503 Y89.533 E3.18482
G1 X156.172 Y91.094 E3.24131
G1 X156.345 Y91.523 E3.25669
G1 X156.943 Y93.103 E3.31288
G1 X157.325 Y94.207 E3.35173
G1 X157.727 Y95.459 E3.39547
G1 X157.985 Y96.343 E3.4261
G1 X158.366 Y97.751 E3.47461
G1 X158.819 Y99.703 E3.54126
G1 X158.988 Y100.548 E3.56992
G1 X159.248 Y102.007 E3.61921
G1 X159.494 Y103.713 E3.67654
G1 X159.55 Y104.166 E3.69172
G1 X159.721 Y105.861 E3.74839
G1 X159.755 Y106.314 E3.7635
G1 X159.852 Y107.991 E3.81937
G1 X159.884 Y109.174 E3.85873
G1 X159.89 Y110.528 E3.90376
G1 X159.872 Y111.386 E3.93231
G1 X159.814 Y112.799 E3.97934
G1 X159.689 Y114.501 E4.0361
G1 X159.576 Y115.595 E4.07268
G1 X159.372 Y117.182 E4.1259
G1 X159.096 Y118.869 E4.18276
G1 X159.01 Y119.337 E4.19858
G1 X158.574 Y121.399 E4.26868
G1 X158.384 Y122.176 E4.29529
G1 X158.136 Y123.125 E4.32791
G1 X157.817 Y124.232 E4.36623
G1 X157.421 Y125.511 E4.41076
G1 X157.162 Y126.272 E4.4375
G1 X156.637 Y127.723 E4.48882
G1 X156.021 Y129.266 E4.54408
G1 X155.842 Y129.689 E4.55936
G1 X155.12 Y131.291 E4.6178
G1 X154.59 Y132.379 E4.65805
G1 X153.906 Y133.697 E4.70744
G1 X153.092 Y135.145 E4.76269
G1 X152.86 Y135.539 E4.7779
G1 X151.978 Y136.962 E4.83358
G1 X151.386 Y137.861 E4.86938
G1 X150.492 Y139.148 E4.9215
G1 X149.45 Y140.544 E4.97944
G1 X148.828 Y141.329 E5.01275
G1 X147.779 Y142.589 E5.06728
G1 X146.432 Y144.088 E5.13431
G1 X145.953 Y144.591 E5.15741
G1 X144.794 Y145.755 E5.21205
G1 X143.262 Y147.189 E5.28184
G1 X142.792 Y147.601 E5.30263
G1 X141.517 Y148.674 E5.35805
G1 X140.203 Y149.71 E5.41371
G1 X139.839 Y149.986 E5.4289
G1 X138.441 Y150.992 E5.48619
G1 X138.054 Y151.258 E5.50181
G1 X136.623 Y152.195 E5.5587
G1 X136.224 Y152.442 E5.5743
G1 X134.461 Y153.484 E5.64242
G1 X132.783 Y154.387 E5.7058
G1 X131.925 Y154.815 E5.73769
G1 X130.471 Y155.498 E5.79112
G1 X128.888 Y156.18 E5.84845
G1 X127.985 Y156.538 E5.88075
G1 X126.823 Y156.97 E5.92199
G1 X125.731 Y157.346 E5.9604
G1 X124.652 Y157.693 E5.9981
G1 X123.659 Y157.985 E6.03252
G1 X122.258 Y158.364 E6.0808
G1 X120.297 Y158.819 E6.14775
G1 X119.452 Y158.988 E6.17641
G1 X117.993 Y159.248 E6.2257
G1 X116.301 Y159.492 E6.28256
G1 X115.845 Y159.548 E6.29784
G1 X114.105 Y159.723 E6.35601
G1 X113.652 Y159.757 E6.37112
G1 X112.007 Y159.852 E6.42592
G1 X111.543 Y159.868 E6.44136
G1 X109.468 Y159.89 E6.51038
G1 X108.615 Y159.872 E6.53876
G1 X107.199 Y159.814 E6.58589
G1 X105.142 Y159.657 E6.65451
G1 X104.407 Y159.577 E6.6791
G1 X102.843 Y159.376 E6.73155
G1 X101.132 Y159.097 E6.78921
G1 X100.663 Y159.011 E6.80507
G1 X98.929 Y158.648 E6.86399
G1 X98.492 Y158.547 E6.87891
G1 X96.934 Y158.152 E6.93237
G1 X95.769 Y157.818 E6.97267
G1 X94.379 Y157.384 E7.02111
G1 X92.715 Y156.802 E7.07974
G1 X92.278 Y156.637 E7.09528
G1 X90.695 Y156.005 E7.15197
G1 X90.269 Y155.825 E7.16735
G1 X88.686 Y155.111 E7.22511
G1 X88.275 Y154.914 E7.24027
G1 X86.492 Y154.008 E7.30679
G1 X85.738 Y153.593 E7.33541
G1 X84.451 Y152.854 E7.38477
G1 X82.937 Y151.914 E7.44405
G1 X82.563 Y151.669 E7.45892
G1 X80.935 Y150.553 E7.52456
G1 X80.261 Y150.058 E7.55238
G1 X79.397 Y149.405 E7.5884
G1 X78.665 Y148.823 E7.6195
G1 X77.384 Y147.753 E7.67502
G1 X75.836 Y146.362 E7.74424
G1 X75.262 Y145.811 E7.7707
G1 X74.224 Y144.775 E7.81948
G1 X73.045 Y143.519 E7.87677
G1 X72.281 Y142.653 E7.91518
G1 X71.388 Y141.597 E7.96118
G1 X70.883 Y140.967 E7.98804
G1 X70.001 Y139.823 E8.03608
G1 X69.014 Y138.451 E8.0923
G1 X68.748 Y138.063 E8.10794
G1 X67.798 Y136.611 E8.16565
G1 X67.551 Y136.215 E8.18118
G1 X66.52 Y134.471 E8.24856
G1 X66.134 Y133.765 E8.27532
G1 X65.433 Y132.426 E8.32559
G1 X64.69 Y130.888 E8.3824
G1 X64.496 Y130.464 E8.39791
G1 X63.828 Y128.907 E8.45426
G1 X63.654 Y128.475 E8.46975
G1 X63.051 Y126.88 E8.52647
G1 X62.654 Y125.731 E8.5669
G1 X62.307 Y124.652 E8.6046
G1 X62.015 Y123.657 E8.63909
G1 X61.635 Y122.248 E8.68762
G1 X61.252 Y120.625 E8.74309
G1 X61.012 Y119.454 E8.78285
G1 X60.767 Y118.092 E8.82887
G1 X60.667 Y117.438 E8.85088
G1 X60.445 Y115.786 E8.90632
G1 X60.251 Y113.794 E8.97288
G1 X60.202 Y113.069 E8.99705
G1 X60.132 Y111.543 E9.04786
G1 X60.11 Y109.468 E9.11688
G1 X60.128 Y108.619 E9.14512
G1 X60.165 Y107.598 E9.17911
G1 X60.238 Y106.407 E9.21879
G1 X60.344 Y105.133 E9.26131
G1 X60.423 Y104.407 E9.2856
G1 X60.631 Y102.796 E9.33963
G1 X60.903 Y101.129 E9.39581
G1 X60.989 Y100.663 E9.41157
G1 X61.352 Y98.928 E9.47052
G1 X61.452 Y98.498 E9.48521
G1 X61.944 Y96.583 E9.55097
G1 X62.138 Y95.915 E9.5741
G1 X62.616 Y94.379 E9.62761
G1 X63.198 Y92.715 E9.68624
G1 X63.363 Y92.278 E9.70178
G1 X63.995 Y90.695 E9.75847
G1 X64.175 Y90.269 E9.77385
G1 X64.891 Y88.682 E9.83176
G1 X65.404 Y87.631 E9.87066
G1 X66.046 Y86.395 E9.91698
G1 X66.899 Y84.868 E9.97516
G1 X67.138 Y84.463 E9.9908
G1 X68.21 Y82.743 E10.05821
G1 X68.716 Y81.986 E10.08849
G1 X69.303 Y81.139 E10.12277
G1 X69.951 Y80.249 E10.15938
G1 X70.775 Y79.167 E10.20462
G1 X71.175 Y78.666 E10.22594
G1 X72.161 Y77.48 E10.27724
G1 X72.728 Y76.836 E10.30578
G1 X73.638 Y75.836 E10.35075
G1 X74.189 Y75.262 E10.37721
G1 X75.225 Y74.224 E10.42599
G0 F6000 X75.499 Y74.516
G1 F1200 X76.747 Y73.344 E10.48293
G1 X77.605 Y72.586 E10.52101
G1 X78.655 Y71.698 E10.56675
G1 X79.158 Y71.294 E10.5882
G1 X80.415 Y70.324 E10.64101
G1 X81.792 Y69.333 E10.69744
G1 X82.792 Y68.659 E10.73755
G1 X83.989 Y67.895 E10.78478
G1 X85.721 Y66.871 E10.8517
G1 X86.42 Y66.488 E10.87821
G1 X87.748 Y65.793 E10.92806
G1 X89.279 Y65.054 E10.98461
G1 X89.702 Y64.861 E11.00007
G1 X91.595 Y64.056 E11.06849
G1 X92.304 Y63.781 E11.09378
G1 X93.305 Y63.409 E11.1293
G1 X94.391 Y63.036 E11.16749
G1 X95.828 Y62.581 E11.21763
G1 X97.415 Y62.135 E11.27246
G1 X97.843 Y62.024 E11.28716
G1 X99.442 Y61.647 E11.3418
G1 X99.881 Y61.554 E11.35673
G1 X101.97 Y61.162 E11.42742
G1 X102.616 Y61.063 E11.44916
G1 X104.259 Y60.842 E11.5043
G1 X105.933 Y60.675 E11.56025
G1 X106.371 Y60.642 E11.57486
G1 X108.006 Y60.548 E11.62933
G1 X108.459 Y60.532 E11.64441
G1 X110.174 Y60.509 E11.70145
G1 X111.37 Y60.528 E11.74124
G1 X112.77 Y60.585 E11.78784
G1 X114.461 Y60.709 E11.84423
G1 X115.693 Y60.838 E11.88543
G1 X117.094 Y61.019 E11.93242
G1 X118.795 Y61.296 E11.98974
G1 X119.253 Y61.38 E12.00523
G1 X120.982 Y61.742 E12.06398
G1 X121.908 Y61.961 E12.09563
G1 X123.024 Y62.252 E12.13399
G1 X124.114 Y62.565 E12.17171
G1 X125.382 Y62.958 E12.21586
G1 X125.976 Y63.159 E12.23672
G1 X127.574 Y63.734 E12.2932
G1 X129.149 Y64.363 E12.34961
G1 X129.567 Y64.54 E12.36471
G1 X131.141 Y65.25 E12.42214
G1 X131.544 Y65.443 E12.437
G1 X133.315 Y66.342 E12.50306
G1 X134.063 Y66.754 E12.53146
G1 X135.338 Y67.486 E12.58036
G1 X136.843 Y68.421 E12.63929
G1 X137.21 Y68.66 E12.65386
G1 X138.83 Y69.77 E12.71917
G1 X139.498 Y70.261 E12.74675
G1 X140.354 Y70.908 E12.78244
G1 X141.079 Y71.484 E12.81323
G1 X142.348 Y72.543 E12.86821
G1 X143.627 Y73.687 E12.92528
G1 X144.451 Y74.468 E12.96304
G1 X145.196 Y75.204 E12.99787
G1 X145.84 Y75.87 E13.02869
G1 X146.887 Y77.002 E13.07997
G1 X147.413 Y77.604 E13.10656
G1 X148.264 Y78.61 E13.15039
G1 X148.771 Y79.241 E13.17731
G1 X149.674 Y80.412 E13.22649
G1 X150.657 Y81.778 E13.28247
G1 X150.914 Y82.152 E13.29756
G1 X151.837 Y83.558 E13.3535
G1 X152.081 Y83.949 E13.36883
G1 X152.959 Y85.426 E13.42598
G1 X153.178 Y85.812 E13.44074
G1 X154 Y87.34 E13.49845
G1 X154.21 Y87.751 E13.5138
G1 X154.947 Y89.279 E13.57022
G1 X155.135 Y89.691 E13.58528
G1 X155.801 Y91.243 E13.64146
G1 X155.971 Y91.665 E13.65659
G1 X156.565 Y93.234 E13.71239
G1 X156.944 Y94.329 E13.75093
G1 X157.343 Y95.571 E13.79432
G1 X157.599 Y96.447 E13.82467
G1 X157.976 Y97.842 E13.87273
G1 X158.427 Y99.781 E13.93895
G1 X158.594 Y100.618 E13.96733
G1 X158.852 Y102.064 E14.01619
G1 X159.097 Y103.762 E14.07325
G1 X159.152 Y104.206 E14.08813
G1 X159.322 Y105.891 E14.14446
G1 X159.356 Y106.337 E14.15933
G1 X159.452 Y108.002 E14.2148
G1 X159.484 Y109.176 E14.25386
G1 X159.49 Y110.52 E14.29857
G1 X159.472 Y111.37 E14.32684
G1 X159.415 Y112.77 E14.37345
G1 X159.291 Y114.46 E14.42981
G1 X159.179 Y115.544 E14.46605
G1 X158.977 Y117.118 E14.51883
G1 X158.703 Y118.797 E14.57542
G1 X158.619 Y119.254 E14.59087
G1 X158.186 Y121.304 E14.66056
G1 X157.997 Y122.075 E14.68696
G1 X157.752 Y123.014 E14.71924
G1 X157.435 Y124.114 E14.75731
G1 X157.042 Y125.382 E14.80147
G1 X156.786 Y126.136 E14.82795
G1 X156.266 Y127.575 E14.87884
G1 X155.653 Y129.11 E14.93382
G1 X155.477 Y129.525 E14.94881
G1 X154.76 Y131.116 E15.00685
G1 X154.235 Y132.195 E15.04676
G1 X153.557 Y133.501 E15.0957
G1 X152.748 Y134.942 E15.15067
G1 X152.52 Y135.328 E15.16558
G1 X151.644 Y136.742 E15.2209
G1 X151.058 Y137.633 E15.25637
G1 X150.171 Y138.909 E15.30806
G1 X149.136 Y140.296 E15.36562
G1 X148.521 Y141.073 E15.39858
G1 X147.481 Y142.322 E15.45264
G1 X146.143 Y143.812 E15.51924
G1 X145.669 Y144.309 E15.54208
G1 X144.521 Y145.463 E15.59622
G1 X142.998 Y146.888 E15.6656
G1 X142.534 Y147.295 E15.68612
G1 X141.27 Y148.36 E15.7411
G1 X139.961 Y149.391 E15.79652
G1 X139.605 Y149.661 E15.81138
G1 X138.215 Y150.662 E15.86835
G1 X137.835 Y150.923 E15.88368
G1 X136.412 Y151.855 E15.94026
G1 X136.021 Y152.098 E15.95557
G1 X134.271 Y153.132 E16.02318
G1 X132.604 Y154.029 E16.08614
G1 X131.755 Y154.453 E16.1177
G1 X130.313 Y155.131 E16.1707
G1 X128.74 Y155.808 E16.22766
G1 X127.846 Y156.163 E16.25965
G1 X126.693 Y156.592 E16.30057
G1 X125.608 Y156.965 E16.33873
G1 X124.539 Y157.309 E16.37608
G1 X123.555 Y157.599 E16.4102
G1 X122.167 Y157.974 E16.45802
G1 X120.219 Y158.427 E16.52454
G1 X119.382 Y158.594 E16.55293
G1 X117.936 Y158.852 E16.60178
G1 X116.252 Y159.095 E16.65837
G1 X115.805 Y159.15 E16.67335
G1 X114.075 Y159.324 E16.73118
G1 X113.629 Y159.358 E16.74606
G1 X111.993 Y159.452 E16.80056
G1 X111.539 Y159.468 E16.81567
G1 X109.477 Y159.49 E16.88426
G1 X108.631 Y159.472 E16.9124
G1 X107.229 Y159.415 E16.95907
G1 X105.185 Y159.259 E17.02725
G1 X104.458 Y159.18 E17.05158
G1 X102.907 Y158.981 E17.10358
G1 X101.205 Y158.704 E17.16094
G1 X100.745 Y158.619 E17.1765
G1 X99.019 Y158.258 E17.23515
G1 X98.59 Y158.159 E17.24979
G1 X97.044 Y157.767 E17.30284
G1 X95.888 Y157.436 E17.34283
G1 X94.511 Y157.006 E17.39081
G1 X92.856 Y156.428 E17.44912
G1 X92.426 Y156.266 E17.4644
G1 X90.851 Y155.637 E17.52081
G1 X90.433 Y155.46 E17.53591
G1 X88.859 Y154.75 E17.59334
G1 X88.456 Y154.557 E17.6082
G1 X86.685 Y153.658 E17.67426
G1 X85.937 Y153.246 E17.70266
G1 X84.662 Y152.514 E17.75156
G1 X83.156 Y151.579 E17.81052
G1 X82.789 Y151.339 E17.8251
G1 X81.172 Y150.231 E17.8903
G1 X80.502 Y149.739 E17.91794
G1 X79.646 Y149.092 E17.95363
G1 X78.921 Y148.516 E17.98443
G1 X77.651 Y147.456 E18.03945
G1 X76.113 Y146.073 E18.10825
G1 X75.545 Y145.528 E18.13443
G1 X74.516 Y144.501 E18.18278
G1 X73.345 Y143.254 E18.23968
G1 X72.586 Y142.395 E18.2778
G1 X71.7 Y141.347 E18.32345
G1 X71.2 Y140.723 E18.35004
G1 X70.326 Y139.589 E18.39766
G1 X69.344 Y138.225 E18.45356
G1 X69.083 Y137.844 E18.46892
G1 X68.137 Y136.399 E18.52637
G1 X67.895 Y136.011 E18.54158
G1 X66.871 Y134.279 E18.6085
G1 X66.488 Y133.58 E18.63501
G1 X65.793 Y132.252 E18.68486
G1 X65.054 Y130.721 E18.7414
G1 X64.864 Y130.306 E18.75658
G1 X64.199 Y128.757 E18.81265
G1 X64.028 Y128.334 E18.82783
G1 X63.429 Y126.75 E18.88415
G1 X63.035 Y125.608 E18.92433
G1 X62.691 Y124.539 E18.96168
G1 X62.401 Y123.553 E18.99586
G1 X62.024 Y122.156 E19.04399
G1 X61.644 Y120.545 E19.09904
G1 X61.406 Y119.383 E19.13849
G1 X61.162 Y118.031 E19.18419
G1 X61.063 Y117.385 E19.20593
G1 X60.843 Y115.747 E19.26089
G1 X60.65 Y113.767 E19.32706
G1 X60.602 Y113.051 E19.35093
G1 X60.532 Y111.539 E19.40127
G1 X60.51 Y109.477 E19.46986
G1 X60.528 Y108.633 E19.49794
G1 X60.564 Y107.623 E19.53155
G1 X60.637 Y106.44 E19.57097
G1 X60.742 Y105.176 E19.61316
G1 X60.82 Y104.458 E19.63718
G1 X61.026 Y102.86 E19.69077
G1 X61.296 Y101.202 E19.74664
G1 X61.381 Y100.745 E19.7621
G1 X61.742 Y99.019 E19.82075
G1 X61.842 Y98.589 E19.83543
G1 X62.328 Y96.695 E19.90047
G1 X62.52 Y96.034 E19.92336
G1 X62.994 Y94.511 E19.97642
G1 X63.572 Y92.856 E20.03472
G1 X63.734 Y92.426 E20.05
G1 X64.363 Y90.851 E20.10641
G1 X64.54 Y90.433 E20.12151
G1 X65.251 Y88.857 E20.17902
G1 X65.759 Y87.815 E20.21757
G1 X66.395 Y86.59 E20.26348
G1 X67.244 Y85.071 E20.32136
G1 X67.477 Y84.675 E20.33664
G1 X68.543 Y82.965 E20.40366
G1 X69.045 Y82.214 E20.4337
G1 X69.626 Y81.374 E20.46768
G1 X70.269 Y80.491 E20.50401
