;FLAVOR:Marlin
;TIME:8045
;Filament used: 4.25043m
;Layer height: 0.2
;MINX:71.5
;MINY:83.348
;MINZ:0.2
;MAXX:148.5
;MAXY:136.652
;MAXZ:21
;TARGET_MACHINE.NAME:Creality Ender-3 Pro
;Generated with Cura_SteamEngine 5.6.0
M82 ;absolute extrusion mode
; Ender 3 Custom Start G-code
G92 E0 ; Reset Extruder
G28 ; Home all axes
G1 Z5.0 F3000 ; Move Z Axis up a bit during heating to not damage bed
M104 S175 ; Start heating up the nozzle most of the way
M190 S60 ; Start heating the bed, wait until target temperature reached
M109 S200 ; Finish heating the nozzle
G1 Z2.0 F3000 ; Move Z Axis up little to prevent scratching of Heat Bed
G1 X0.1 Y20 Z0.3 F5000.0 ; Move to start position
G1 X0.1 Y200.0 Z0.3 F1500.0 E15 ; Draw the first line
G1 X0.4 Y200.0 Z0.3 F5000.0 ; Move to side a little
G1 X0.4 Y20 Z0.3 F1500.0 E30 ; Draw the second line
G92 E0 ; Reset Extruder
G1 Z2.0 F3000 ; Move Z Axis up little to prevent scratching of Heat Bed
G1 X5 Y20 Z0.3 F5000.0 ; Move over to prevent blob squish
G92 E0
G92 E0
G1 F1500 E-6.5
;LAYER_COUNT:105
;LAYER:0
M107
G0 F6000 X74.956 Y86.361 Z0.2
;TYPE:SKIRT
G1 F1500 E0
G1 F1200 X75.693 Y85.724 E0.0324
G1 X76.483 Y85.154 E0.0648
G1 X77.259 Y84.691 E0.09486
G1 X78.199 Y84.238 E0.12956
G1 X79.111 Y83.896 E0.16196
G1 X80.049 Y83.637 E0.19432
G1 X81.016 Y83.459 E0.22703
G1 X82.152 Y83.363 E0.26494
G1 X82.877 Y83.348 E0.28906
G1 X85.087 Y83.358 E0.36257
G1 X85.989 Y83.402 E0.3926
G1 X87.013 Y83.544 E0.42699
G1 X87.643 Y83.68 E0.44843
G1 X88.701 Y83.941 E0.48467
G1 X91.25 Y84.529 E0.57168
G1 X93.719 Y85.025 E0.65544
G1 X96.175 Y85.448 E0.73833
G1 X98.66 Y85.803 E0.82182
G1 X101.15 Y86.087 E0.90517
G1 X103.698 Y86.307 E0.99023
G1 X106.159 Y86.447 E1.07222
G1 X108.72 Y86.52 E1.15743
G1 X111.21 Y86.522 E1.24025
G1 X113.749 Y86.451 E1.32473
G1 X116.231 Y86.313 E1.40741
G1 X118.785 Y86.098 E1.49266
G1 X121.237 Y85.819 E1.57474
G1 X123.745 Y85.464 E1.65898
G1 X126.245 Y85.037 E1.74334
G1 X128.659 Y84.555 E1.82521
G1 X131.231 Y83.963 E1.913
G1 X132.386 Y83.677 E1.95257
G1 X133.354 Y83.486 E1.98539
G1 X134.706 Y83.362 E2.03054
G1 X135.334 Y83.349 E2.05144
G1 X137.669 Y83.361 E2.1291
G1 X138.641 Y83.418 E2.16148
G1 X139.604 Y83.564 E2.19388
G1 X140.55 Y83.793 E2.22625
G1 X141.474 Y84.105 E2.25869
G1 X142.364 Y84.497 E2.29103
G1 X143.187 Y84.948 E2.32225
G1 X144.026 Y85.509 E2.35582
G1 X144.73 Y86.075 E2.38586
G1 X145.483 Y86.8 E2.42063
G1 X146.12 Y87.536 E2.453
G1 X146.65 Y88.267 E2.48303
G1 X147.186 Y89.164 E2.51779
G1 X147.608 Y90.042 E2.55019
G1 X147.95 Y90.954 E2.58259
G1 X148.21 Y91.892 E2.61496
G1 X148.388 Y92.859 E2.64766
G1 X148.485 Y93.994 E2.68555
G1 X148.5 Y94.668 E2.70797
G1 X148.499 Y125.052 E3.71855
G1 X148.488 Y125.815 E3.74393
G1 X148.431 Y126.788 E3.77635
G1 X148.286 Y127.751 E3.80874
G1 X148.057 Y128.697 E3.84111
G1 X147.746 Y129.621 E3.87354
G1 X147.354 Y130.512 E3.90591
G1 X146.886 Y131.364 E3.93824
G1 X146.364 Y132.145 E3.96949
G1 X145.731 Y132.93 E4.00303
G1 X145.106 Y133.581 E4.03304
G1 X144.317 Y134.269 E4.06786
G1 X143.557 Y134.819 E4.09906
G1 X142.69 Y135.336 E4.13264
G1 X141.812 Y135.758 E4.16504
G1 X140.901 Y136.1 E4.1974
G1 X139.962 Y136.361 E4.22982
G1 X138.996 Y136.539 E4.26249
G1 X137.848 Y136.637 E4.30081
G1 X137.167 Y136.652 E4.32347
G1 X135.507 Y136.65 E4.37868
G1 X134.798 Y136.638 E4.40226
G1 X133.825 Y136.579 E4.43468
G1 X132.905 Y136.441 E4.46563
G1 X132.371 Y136.323 E4.48382
G1 X131.33 Y136.068 E4.51946
G1 X128.759 Y135.474 E4.60723
G1 X126.287 Y134.976 E4.6911
G1 X123.831 Y134.552 E4.77399
G1 X121.333 Y134.196 E4.85792
G1 X118.853 Y133.913 E4.94094
G1 X116.302 Y133.693 E5.0261
G1 X113.84 Y133.553 E5.10812
G1 X111.28 Y133.48 E5.1933
G1 X108.791 Y133.478 E5.27608
G1 X106.251 Y133.549 E5.3606
G1 X103.768 Y133.689 E5.44331
G1 X101.214 Y133.902 E5.52855
G1 X98.759 Y134.181 E5.61073
G1 X96.225 Y134.54 E5.69586
G1 X93.785 Y134.957 E5.77819
G1 X91.302 Y135.454 E5.86241
G1 X88.821 Y136.025 E5.94709
G1 X87.607 Y136.325 E5.98868
G1 X86.637 Y136.516 E6.02156
G1 X85.294 Y136.638 E6.06641
G1 X84.666 Y136.651 E6.0873
G1 X82.331 Y136.639 E6.16497
G1 X81.359 Y136.582 E6.19735
G1 X80.396 Y136.436 E6.22975
G1 X79.45 Y136.207 E6.26212
G1 X78.526 Y135.895 E6.29456
G1 X77.636 Y135.503 E6.3269
G1 X76.813 Y135.052 E6.35812
G1 X75.974 Y134.491 E6.39169
G1 X75.27 Y133.925 E6.42173
G1 X74.517 Y133.2 E6.4565
G1 X73.88 Y132.464 E6.48887
G1 X73.35 Y131.733 E6.5189
G1 X72.814 Y130.836 E6.55366
G1 X72.392 Y129.958 E6.58606
G1 X72.05 Y129.046 E6.61845
G1 X71.79 Y128.108 E6.65083
G1 X71.612 Y127.139 E6.6836
G1 X71.514 Y125.96 E6.72295
G1 X71.5 Y125.309 E6.7446
G1 X71.501 Y94.874 E7.75687
G1 X71.512 Y94.173 E7.78019
G1 X71.57 Y93.201 E7.81258
G1 X71.716 Y92.237 E7.84501
G1 X71.946 Y91.291 E7.87739
G1 X72.258 Y90.369 E7.90976
G1 X72.651 Y89.478 E7.94215
G1 X73.121 Y88.625 E7.97454
G1 X73.665 Y87.817 E8.00694
G1 X74.279 Y87.059 E8.03939
G1 X74.956 Y86.361 E8.07173
G0 F6000 X75.218 Y86.663
G1 F1200 X75.927 Y86.048 E8.10295
G1 X76.688 Y85.498 E8.13417
G1 X77.464 Y85.035 E8.16423
G1 X78.34 Y84.612 E8.19658
G1 X79.218 Y84.281 E8.22779
G1 X80.122 Y84.03 E8.259
G1 X81.05 Y83.858 E8.29039
G1 X82.186 Y83.762 E8.32831
G1 X82.875 Y83.748 E8.35123
G1 X85.068 Y83.758 E8.42417
G1 X85.97 Y83.802 E8.4542
G1 X86.929 Y83.935 E8.48641
G1 X87.547 Y84.068 E8.50743
G1 X88.611 Y84.331 E8.54389
G1 X91.16 Y84.919 E8.63089
G1 X93.644 Y85.418 E8.71516
G1 X96.118 Y85.844 E8.79866
G1 X98.603 Y86.199 E8.88215
G1 X101.116 Y86.486 E8.96627
G1 X103.664 Y86.705 E9.05133
G1 X106.148 Y86.847 E9.13409
G1 X108.709 Y86.92 E9.2193
G1 X111.221 Y86.922 E9.30285
G1 X113.76 Y86.851 E9.38733
G1 X116.265 Y86.711 E9.47078
G1 X118.819 Y86.496 E9.55602
G1 X121.293 Y86.215 E9.63884
G1 X123.801 Y85.86 E9.72309
G1 X126.319 Y85.43 E9.80805
G1 X128.749 Y84.945 E9.89046
G1 X131.321 Y84.353 E9.97825
G1 X132.464 Y84.069 E10.01742
G1 X133.391 Y83.884 E10.04886
G1 X134.714 Y83.762 E10.09305
G1 X135.332 Y83.749 E10.11361
G1 X137.646 Y83.76 E10.19057
G1 X138.582 Y83.814 E10.22176
G1 X139.511 Y83.953 E10.253
G1 X140.423 Y84.172 E10.28419
G1 X141.313 Y84.471 E10.31542
G1 X142.172 Y84.848 E10.34662
G1 X142.995 Y85.299 E10.37784
G1 X143.775 Y85.821 E10.40905
G1 X144.479 Y86.387 E10.4391
G1 X145.181 Y87.062 E10.47149
G1 X145.796 Y87.771 E10.5027
G1 X146.326 Y88.502 E10.53274
G1 X146.826 Y89.338 E10.56513
G1 X147.234 Y90.183 E10.59634
G1 X147.565 Y91.061 E10.62755
G1 X147.817 Y91.965 E10.65877
G1 X147.989 Y92.893 E10.69016
G1 X148.086 Y94.028 E10.72804
G1 X148.1 Y94.668 E10.74934
G1 X148.099 Y125.047 E11.75975
G1 X148.089 Y125.792 E11.78453
G1 X148.035 Y126.729 E11.81574
G1 X147.897 Y127.658 E11.84698
G1 X147.678 Y128.57 E11.87818
G1 X147.38 Y129.46 E11.90939
G1 X147.003 Y130.32 E11.94062
G1 X146.553 Y131.142 E11.97179
G1 X146.031 Y131.923 E12.00304
G1 X145.442 Y132.653 E12.03424
G1 X144.817 Y133.304 E12.06425
G1 X144.082 Y133.945 E12.09669
G1 X143.322 Y134.495 E12.12789
G1 X142.516 Y134.976 E12.15911
G1 X141.671 Y135.384 E12.19032
G1 X140.793 Y135.715 E12.22153
G1 X139.889 Y135.968 E12.25275
G1 X138.962 Y136.14 E12.28411
G1 X137.814 Y136.238 E12.32243
G1 X137.167 Y136.252 E12.34395
G1 X135.513 Y136.25 E12.39897
G1 X134.822 Y136.239 E12.42195
G1 X133.884 Y136.183 E12.45321
G1 X132.964 Y136.045 E12.48415
G1 X132.466 Y135.934 E12.50112
G1 X131.425 Y135.679 E12.53676
G1 X128.849 Y135.084 E12.6247
G1 X126.362 Y134.583 E12.70908
G1 X123.887 Y134.156 E12.79261
G1 X121.389 Y133.8 E12.87654
G1 X118.887 Y133.514 E12.96029
G1 X116.336 Y133.295 E13.04545
G1 X113.851 Y133.153 E13.12824
G1 X111.291 Y133.08 E13.21342
G1 X108.78 Y133.078 E13.29694
G1 X106.24 Y133.149 E13.38145
G1 X103.735 Y133.29 E13.4649
G1 X101.181 Y133.504 E13.55014
G1 X98.703 Y133.785 E13.63309
G1 X96.169 Y134.144 E13.71821
G1 X93.711 Y134.564 E13.80115
G1 X91.212 Y135.064 E13.88592
G1 X88.731 Y135.635 E13.97059
G1 X87.529 Y135.933 E14.01178
G1 X86.601 Y136.118 E14.04325
G1 X85.286 Y136.238 E14.08717
G1 X84.668 Y136.251 E14.10773
G1 X82.354 Y136.24 E14.1847
G1 X81.418 Y136.186 E14.21588
G1 X80.489 Y136.047 E14.24712
G1 X79.577 Y135.828 E14.27832
G1 X78.687 Y135.529 E14.30954
G1 X77.828 Y135.152 E14.34075
G1 X77.005 Y134.701 E14.37196
G1 X76.225 Y134.179 E14.40318
G1 X75.521 Y133.613 E14.43322
G1 X74.819 Y132.938 E14.46561
G1 X74.204 Y132.229 E14.49683
G1 X73.674 Y131.498 E14.52686
G1 X73.174 Y130.662 E14.55926
G1 X72.766 Y129.817 E14.59047
G1 X72.435 Y128.939 E14.62168
G1 X72.183 Y128.035 E14.65289
G1 X72.011 Y127.106 E14.68431
G1 X71.913 Y125.927 E14.72366
G1 X71.9 Y125.309 E14.74422
G1 X71.901 Y94.88 E15.75629
G1 X71.911 Y94.196 E15.77905
G1 X71.966 Y93.26 E15.81023
G1 X72.105 Y92.331 E15.84147
G1 X72.325 Y91.419 E15.87268
G1 X72.624 Y90.53 E15.90387
G1 X73.002 Y89.67 E15.93512
G1 X73.453 Y88.848 E15.9663
G1 X73.976 Y88.068 E15.99754
G1 X74.566 Y87.337 E16.02878
G1 X75.218 Y86.663 E16.05997
G0 F6000 X75.481 Y86.965
G1 F1200 X76.162 Y86.372 E16.09001
G1 X76.893 Y85.842 E16.12004
G1 X77.669 Y85.379 E16.15009
G1 X78.482 Y84.986 E16.18013
G1 X79.326 Y84.666 E16.21015
G1 X80.196 Y84.423 E16.24019
G1 X81.084 Y84.257 E16.27024
G1 X82.22 Y84.161 E16.30816
G1 X82.873 Y84.148 E16.32988
G1 X85.049 Y84.158 E16.40225
G1 X85.951 Y84.202 E16.43229
G1 X86.845 Y84.326 E16.46231
G1 X87.451 Y84.456 E16.48292
G1 X88.521 Y84.721 E16.51959
G1 X91.07 Y85.309 E16.60659
G1 X93.569 Y85.811 E16.69137
G1 X96.061 Y86.24 E16.77548
G1 X98.546 Y86.595 E16.85897
G1 X101.082 Y86.885 E16.94386
G1 X103.63 Y87.103 E17.02892
G1 X106.137 Y87.247 E17.11244
G1 X108.698 Y87.32 E17.19765
G1 X111.232 Y87.322 E17.28194
G1 X113.771 Y87.251 E17.36642
G1 X116.299 Y87.109 E17.45063
G1 X118.853 Y86.894 E17.53588
G1 X121.349 Y86.611 E17.61943
G1 X123.857 Y86.256 E17.70367
G1 X126.393 Y85.823 E17.78924
G1 X128.839 Y85.335 E17.8722
G1 X131.411 Y84.743 E17.95998
G1 X132.543 Y84.461 E17.99878
G1 X133.428 Y84.282 E18.02881
G1 X134.723 Y84.162 E18.07207
G1 X135.33 Y84.149 E18.09226
G1 X137.623 Y84.159 E18.16853
G1 X138.524 Y84.21 E18.19855
G1 X139.418 Y84.342 E18.2286
G1 X140.296 Y84.551 E18.25862
G1 X141.153 Y84.838 E18.28868
G1 X141.98 Y85.199 E18.31869
G1 X142.773 Y85.632 E18.34874
G1 X143.524 Y86.133 E18.37877
G1 X144.228 Y86.699 E18.40881
G1 X144.879 Y87.325 E18.43885
G1 X145.472 Y88.006 E18.46889
G1 X146.002 Y88.737 E18.49892
G1 X146.466 Y89.512 E18.52896
G1 X146.86 Y90.325 E18.55901
G1 X147.18 Y91.169 E18.58903
G1 X147.424 Y92.039 E18.61908
G1 X147.59 Y92.927 E18.64913
G1 X147.687 Y94.062 E18.68702
G1 X147.7 Y94.668 E18.70718
G1 X147.699 Y125.042 E19.71742
G1 X147.69 Y125.769 E19.74161
G1 X147.639 Y126.671 E19.77165
G1 X147.508 Y127.565 E19.80171
G1 X147.299 Y128.443 E19.83172
G1 X147.013 Y129.3 E19.86177
G1 X146.652 Y130.128 E19.89182
G1 X146.22 Y130.92 E19.92182
G1 X145.719 Y131.672 E19.95188
G1 X145.153 Y132.376 E19.98192
G1 X144.528 Y133.027 E20.01194
G1 X143.847 Y133.621 E20.04199
G1 X143.116 Y134.152 E20.07204
G1 X142.342 Y134.616 E20.10206
G1 X141.529 Y135.01 E20.13211
G1 X140.685 Y135.33 E20.16213
G1 X139.815 Y135.575 E20.19219
G1 X138.928 Y135.741 E20.2222
G1 X137.78 Y135.839 E20.26052
G1 X137.167 Y135.852 E20.28092
G1 X135.519 Y135.85 E20.33573
G1 X134.845 Y135.84 E20.35815
G1 X133.943 Y135.787 E20.3882
G1 X133.05 Y135.654 E20.41823
G1 X132.561 Y135.546 E20.43489
G1 X131.515 Y135.289 E20.47071
G1 X128.939 Y134.694 E20.55865
G1 X126.437 Y134.19 E20.64354
G1 X123.943 Y133.76 E20.72771
G1 X121.445 Y133.404 E20.81163
G1 X118.921 Y133.115 E20.89613
G1 X116.37 Y132.897 E20.98129
G1 X113.862 Y132.753 E21.06484
G1 X111.302 Y132.68 E21.15002
G1 X108.769 Y132.678 E21.23427
G1 X106.229 Y132.749 E21.31878
G1 X103.701 Y132.891 E21.403
G1 X101.147 Y133.106 E21.48824
G1 X98.647 Y133.389 E21.57192
G1 X96.113 Y133.748 E21.65705
G1 X93.637 Y134.171 E21.74059
G1 X91.122 Y134.674 E21.8259
G1 X88.641 Y135.245 E21.91057
G1 X87.45 Y135.541 E21.95139
G1 X86.565 Y135.72 E21.98142
G1 X85.277 Y135.838 E22.02444
G1 X84.67 Y135.851 E22.04464
G1 X82.377 Y135.841 E22.1209
G1 X81.476 Y135.79 E22.15092
G1 X80.582 Y135.658 E22.18097
G1 X79.704 Y135.449 E22.21099
G1 X78.847 Y135.162 E22.24105
G1 X78.02 Y134.801 E22.27106
G1 X77.227 Y134.368 E22.30112
G1 X76.476 Y133.867 E22.33114
G1 X75.772 Y133.301 E22.36119
G1 X75.121 Y132.675 E22.39122
G1 X74.528 Y131.994 E22.42126
G1 X73.998 Y131.263 E22.45129
G1 X73.534 Y130.488 E22.48133
G1 X73.14 Y129.675 E22.51138
G1 X72.82 Y128.831 E22.5414
G1 X72.576 Y127.961 E22.57146
G1 X72.41 Y127.073 E22.6015
G1 X72.313 Y125.918 E22.64005
G1 X72.3 Y125.309 E22.66031
G1 X72.301 Y94.885 E23.67222
G1 X72.31 Y94.219 E23.69437
G1 X72.362 Y93.318 E23.72439
G1 X72.494 Y92.424 E23.75445
G1 X72.704 Y91.546 E23.78447
G1 X72.991 Y90.69 E23.8145
G1 X73.353 Y89.862 E23.84456
G1 X73.786 Y89.07 E23.87458
G1 X74.288 Y88.319 E23.90462
G1 X74.854 Y87.615 E23.93467
G1 X75.481 Y86.965 E23.96471
G1 F1500 E17.46471
;MESH:LINK_FRAMELONGRA.stl
G0 F6000 X85.653 Y94.111
G0 X86.446 Y105.717
G0 X135.6 Y124.636
;TYPE:WALL-INNER
G1 F1500 E23.96471
G1 F1200 X136.9 Y124.636 E24.00795
G1 X136.9 Y95.364 E24.98154
G1 X135.6 Y95.364 E25.02477
G1 X135.6 Y104.764 E25.33742
G1 X135.484 Y105.035 E25.34722
G1 X135.109 Y105.544 E25.36825
G1 X134.959 Y105.774 E25.37738
G1 X134.708 Y106.2 E25.39383
G1 X134.561 Y106.588 E25.40763
G1 X134.445 Y106.781 E25.41512
G1 X134.29 Y106.903 E25.42168
G1 X134.096 Y106.977 E25.42859
G1 X85.905 Y106.977 E27.03143
G1 X85.709 Y106.902 E27.03841
G1 X85.554 Y106.78 E27.04497
G1 X85.437 Y106.589 E27.05242
G1 X85.321 Y106.281 E27.06336
G1 X85.184 Y106.012 E27.0734
G1 X85.051 Y105.788 E27.08207
G1 X84.799 Y105.414 E27.09707
G1 X84.518 Y105.039 E27.11265
G1 X84.4 Y104.764 E27.12261
G1 X84.4 Y95.364 E27.43525
G1 X83.1 Y95.364 E27.47849
G1 X83.1 Y124.636 E28.45208
G1 X84.4 Y124.636 E28.49532
G1 X84.4 Y115.321 E28.80514
G1 X84.516 Y114.965 E28.81759
G1 X84.965 Y114.354 E28.84281
G1 X85.295 Y113.792 E28.86448
G1 X85.439 Y113.412 E28.878
G1 X85.556 Y113.219 E28.88551
G1 X85.711 Y113.097 E28.89207
G1 X85.904 Y113.023 E28.89894
G1 X134.096 Y113.024 E30.50182
G1 X134.291 Y113.097 E30.50874
G1 X134.445 Y113.219 E30.51528
G1 X134.563 Y113.411 E30.52277
G1 X134.679 Y113.719 E30.53372
G1 X134.816 Y113.988 E30.54376
G1 X134.95 Y114.212 E30.55244
G1 X135.191 Y114.573 E30.56688
G1 X135.481 Y114.96 E30.58296
G1 X135.6 Y115.32 E30.59557
G1 X135.6 Y124.636 E30.90542
G0 F6000 X135.2 Y125.036
;TYPE:WALL-OUTER
G1 F1200 X137.3 Y125.036 E30.97527
G1 X137.3 Y94.964 E31.97547
G1 X135.2 Y94.964 E32.04531
G1 X135.198 Y104.749 E32.37076
G1 X134.781 Y105.316 E32.39417
G1 X134.632 Y105.541 E32.40315
G1 X134.418 Y105.905 E32.41719
G1 X134.298 Y106.153 E32.42636
G1 X134.167 Y106.501 E32.43872
G1 X134.045 Y106.572 E32.44342
G1 X85.953 Y106.571 E34.04297
G1 X85.831 Y106.5 E34.04766
G1 X85.687 Y106.119 E34.06121
G1 X85.535 Y105.819 E34.07239
G1 X85.389 Y105.574 E34.08188
G1 X85.125 Y105.182 E34.0976
G1 X84.802 Y104.749 E34.11557
G1 X84.8 Y94.964 E34.44102
G1 X82.7 Y94.964 E34.51086
G1 X82.7 Y125.036 E35.51106
G1 X84.8 Y125.036 E35.58091
G1 X84.8 Y115.321 E35.90403
G1 X84.838 Y115.202 E35.90818
G1 X85.219 Y114.684 E35.92957
G1 X85.368 Y114.459 E35.93855
G1 X85.584 Y114.091 E35.95274
G1 X85.702 Y113.847 E35.96175
G1 X85.833 Y113.499 E35.97412
G1 X85.955 Y113.428 E35.97882
G1 X134.046 Y113.429 E37.57833
G1 X134.169 Y113.501 E37.58307
G1 X134.313 Y113.881 E37.59659
G1 X134.514 Y114.277 E37.61136
G1 X134.865 Y114.804 E37.63242
G1 X135.161 Y115.2 E37.64886
G1 X135.2 Y115.32 E37.65306
G1 X135.2 Y125.036 E37.97621
G0 F6000 X135.47 Y124.766
G0 X136.006 Y124.536
G0 X136.005 Y124.231
;TYPE:SKIN
G1 F967.7 X135.999 Y115.246 E38.34678
G1 F1064.3 X135.765 Y114.738 E38.36775
