;FLAVOR:Marlin
;TIME:4733
;Filament used: 2.63717m
;Layer height: 0.2
;MINX:70.012
;MINY:87.75
;MINZ:0.2
;MAXX:149.988
;MAXY:132.25
;MAXZ:23
;TARGET_MACHINE.NAME:Creality Ender-3 Pro
;Generated with Cura_SteamEngine 5.6.0
M82 ;absolute extrusion mode
; Ender 3 Custom Start G-code
G92 E0 ; Reset Extruder
G28 ; Home all axes
G1 Z5.0 F3000 ; Move Z Axis up a bit during heating to not damage bed
M104 S175 ; Start heating up the nozzle most of the way
M190 S60 ; Start heating the bed, wait until target temperature reached
M109 S200 ; Finish heating the nozzle
G1 Z2.0 F3000 ; Move Z Axis up little to prevent scratching of Heat Bed
G1 X0.1 Y20 Z0.3 F5000.0 ; Move to start position
G1 X0.1 Y200.0 Z0.3 F1500.0 E15 ; Draw the first line
G1 X0.4 Y200.0 Z0.3 F5000.0 ; Move to side a little
G1 X0.4 Y20 Z0.3 F1500.0 E30 ; Draw the second line
G92 E0 ; Reset Extruder
G1 Z2.0 F3000 ; Move Z Axis up little to prevent scratching of Heat Bed
G1 X5 Y20 Z0.3 F5000.0 ; Move over to prevent blob squish
G92 E0
G92 E0
G1 F1500 E-6.5
;LAYER_COUNT:115
;LAYER:0
M107
G0 F6000 X81.366 Y90.845 Z0.2
;TYPE:SKIRT
G1 F1500 E0
G1 F1200 X82.041 Y90.245 E0.03004
G1 X82.881 Y89.622 E0.06482
G1 X83.714 Y89.116 E0.09724
G1 X84.586 Y88.686 E0.12958
G1 X85.427 Y88.357 E0.15961
G1 X86.431 Y88.067 E0.19437
G1 X87.387 Y87.88 E0.22677
G1 X88.338 Y87.78 E0.25857
G1 X88.809 Y87.762 E0.27425
G1 X89.55 Y87.75 E0.2989
G1 X130.304 Y87.75 E1.65438
G1 X131.186 Y87.763 E1.68372
G1 X132.158 Y87.822 E1.71611
G1 X133.121 Y87.968 E1.74851
G1 X134.069 Y88.199 E1.78096
G1 X134.925 Y88.487 E1.811
G1 X135.881 Y88.906 E1.84571
G1 X136.734 Y89.377 E1.87812
G1 X137.546 Y89.926 E1.91072
G1 X138.435 Y90.659 E1.94905
G1 X138.923 Y91.12 E1.97138
G1 X145.778 Y97.971 E2.29372
G1 X146.389 Y98.601 E2.32291
G1 X147.012 Y99.305 E2.35418
G1 X147.611 Y100.118 E2.38776
G1 X148.081 Y100.889 E2.4178
G1 X148.544 Y101.824 E2.4525
G1 X148.894 Y102.733 E2.4849
G1 X149.164 Y103.67 E2.51733
G1 X149.348 Y104.625 E2.54968
G1 X149.444 Y105.551 E2.58064
G1 X149.479 Y106.151 E2.60063
G1 X149.969 Y120.153 E3.06662
G1 X149.988 Y121.028 E3.09573
G1 X149.965 Y122.002 E3.12814
G1 X149.865 Y122.899 E3.15816
G1 X149.658 Y123.924 E3.19294
G1 X149.379 Y124.858 E3.22536
G1 X149.019 Y125.761 E3.25769
G1 X148.614 Y126.568 E3.28772
G1 X148.064 Y127.457 E3.32249
G1 X147.479 Y128.236 E3.35489
G1 X146.826 Y128.96 E3.38732
G1 X146.113 Y129.622 E3.41968
G1 X145.343 Y130.219 E3.45209
G1 X144.524 Y130.746 E3.48448
G1 X143.662 Y131.198 E3.51685
G1 X142.764 Y131.572 E3.54921
G1 X141.87 Y131.856 E3.58041
G1 X140.885 Y132.076 E3.61397
G1 X139.989 Y132.195 E3.64404
G1 X139.19 Y132.238 E3.67065
G1 X138.444 Y132.25 E3.69547
G1 X125.039 Y132.249 E4.14132
G1 X124.275 Y132.236 E4.16673
G1 X123.134 Y132.154 E4.20478
G1 X121.281 Y131.907 E4.26696
G1 X118.775 Y131.623 E4.35084
G1 X116.269 Y131.408 E4.4345
G1 X113.763 Y131.268 E4.51798
G1 X111.222 Y131.196 E4.60252
G1 X108.734 Y131.196 E4.68527
G1 X106.2 Y131.268 E4.76959
G1 X103.685 Y131.411 E4.85337
G1 X101.196 Y131.621 E4.93645
G1 X98.621 Y131.914 E5.02265
G1 X96.936 Y132.144 E5.07921
G1 X95.691 Y132.238 E5.12074
G1 X94.938 Y132.25 E5.14579
G1 X81.564 Y132.249 E5.59061
G1 X80.832 Y132.238 E5.61496
G1 X79.86 Y132.181 E5.64734
G1 X78.897 Y132.035 E5.67974
G1 X77.951 Y131.806 E5.71211
G1 X77.027 Y131.494 E5.74455
G1 X76.137 Y131.102 E5.77689
G1 X75.283 Y130.632 E5.80932
G1 X74.476 Y130.088 E5.84169
G1 X73.719 Y129.476 E5.87406
G1 X73.018 Y128.799 E5.90648
G1 X72.381 Y128.063 E5.93885
G1 X71.85 Y127.332 E5.9689
G1 X71.315 Y126.435 E6.00364
G1 X70.893 Y125.557 E6.03604
G1 X70.551 Y124.645 E6.06844
G1 X70.291 Y123.707 E6.10081
G1 X70.115 Y122.749 E6.13321
G1 X70.024 Y121.786 E6.16538
G1 X70.012 Y121.031 E6.19049
G1 X70.028 Y120.226 E6.21727
G1 X70.507 Y106.529 E6.67311
G1 X70.547 Y105.693 E6.70095
G1 X70.645 Y104.686 E6.7346
G1 X70.824 Y103.728 E6.76702
G1 X71.087 Y102.792 E6.79936
G1 X71.432 Y101.88 E6.83179
G1 X71.856 Y101.004 E6.86416
G1 X72.336 Y100.198 E6.89536
G1 X72.928 Y99.38 E6.92894
G1 X73.543 Y98.67 E6.96018
G1 X73.997 Y98.197 E6.98199
G1 X80.856 Y91.34 E7.30457
G1 X81.366 Y90.845 E7.32821
G0 F6000 X81.632 Y91.144
G1 F1200 X82.307 Y90.544 E7.35825
G1 X83.089 Y89.964 E7.39063
G1 X83.891 Y89.475 E7.42187
G1 X84.732 Y89.059 E7.45308
G1 X85.573 Y88.73 E7.48311
G1 X86.508 Y88.459 E7.51549
G1 X87.429 Y88.278 E7.54671
G1 X88.354 Y88.18 E7.57765
G1 X88.815 Y88.162 E7.59299
G1 X89.556 Y88.15 E7.61764
G1 X130.298 Y88.15 E8.97272
G1 X131.162 Y88.162 E9.00146
G1 X132.099 Y88.218 E9.03268
G1 X133.027 Y88.357 E9.06389
G1 X133.941 Y88.578 E9.09517
G1 X134.797 Y88.866 E9.12521
G1 X135.688 Y89.256 E9.15756
G1 X136.511 Y89.709 E9.1888
G1 X137.292 Y90.235 E9.22012
G1 X138.16 Y90.95 E9.25753
G1 X138.64 Y91.403 E9.27948
G1 X145.491 Y98.25 E9.60163
G1 X146.089 Y98.866 E9.63019
G1 X146.712 Y99.57 E9.66146
G1 X147.269 Y100.326 E9.69269
G1 X147.739 Y101.097 E9.72272
G1 X148.171 Y101.969 E9.75509
G1 X148.51 Y102.844 E9.7863
G1 X148.771 Y103.746 E9.81753
G1 X148.95 Y104.667 E9.84873
G1 X149.045 Y105.574 E9.87907
G1 X149.079 Y106.165 E9.89876
G1 X149.569 Y120.162 E10.36458
G1 X149.588 Y121.019 E10.39309
G1 X149.567 Y121.958 E10.42433
G1 X149.467 Y122.855 E10.45435
G1 X149.275 Y123.81 E10.48675
G1 X149.007 Y124.71 E10.51798
G1 X148.661 Y125.582 E10.54919
G1 X148.256 Y126.389 E10.57922
G1 X147.744 Y127.217 E10.6116
G1 X147.181 Y127.969 E10.64284
G1 X146.554 Y128.667 E10.67405
G1 X145.867 Y129.306 E10.70525
G1 X145.126 Y129.883 E10.73649
G1 X144.338 Y130.392 E10.76769
G1 X143.508 Y130.829 E10.79889
G1 X142.642 Y131.191 E10.83011
G1 X141.782 Y131.466 E10.86014
G1 X140.832 Y131.679 E10.89252
G1 X139.936 Y131.798 E10.92258
G1 X139.184 Y131.838 E10.94763
G1 X138.444 Y131.85 E10.97225
G1 X125.045 Y131.849 E11.4179
G1 X124.304 Y131.837 E11.44255
G1 X123.163 Y131.755 E11.4806
G1 X121.329 Y131.51 E11.54214
G1 X118.809 Y131.224 E11.62649
G1 X116.303 Y131.01 E11.71014
G1 X113.774 Y130.868 E11.79439
G1 X111.233 Y130.796 E11.87894
G1 X108.723 Y130.796 E11.96242
G1 X106.189 Y130.868 E12.04674
G1 X103.651 Y131.012 E12.13129
G1 X101.162 Y131.223 E12.21437
G1 X98.567 Y131.518 E12.30123
G1 X96.906 Y131.745 E12.35699
G1 X95.685 Y131.838 E12.39772
G1 X94.938 Y131.85 E12.42257
G1 X81.57 Y131.849 E12.86719
G1 X80.855 Y131.839 E12.89098
G1 X79.919 Y131.785 E12.92216
G1 X78.99 Y131.646 E12.9534
G1 X78.078 Y131.427 E12.9846
G1 X77.188 Y131.128 E13.01582
G1 X76.329 Y130.751 E13.04702
G1 X75.506 Y130.3 E13.07824
G1 X74.727 Y129.777 E13.10945
G1 X73.996 Y129.188 E13.14067
G1 X73.32 Y128.537 E13.17188
G1 X72.705 Y127.828 E13.2031
G1 X72.174 Y127.097 E13.23315
G1 X71.675 Y126.261 E13.26553
G1 X71.267 Y125.416 E13.29674
G1 X70.936 Y124.537 E13.32798
G1 X70.684 Y123.634 E13.35916
G1 X70.513 Y122.711 E13.39039
G1 X70.424 Y121.78 E13.42149
G1 X70.412 Y121.039 E13.44614
G1 X70.428 Y120.24 E13.47272
G1 X70.907 Y106.548 E13.9284
G1 X70.947 Y105.712 E13.95623
G1 X71.038 Y104.759 E13.98808
G1 X71.209 Y103.836 E14.0193
G1 X71.461 Y102.933 E14.05048
G1 X71.792 Y102.054 E14.08172
G1 X72.2 Y101.209 E14.11293
G1 X72.68 Y100.403 E14.14413
G1 X73.23 Y99.642 E14.17536
G1 X73.832 Y98.947 E14.20594
G1 X74.28 Y98.48 E14.22746
G1 X81.134 Y91.627 E14.54983
G1 X81.632 Y91.144 E14.57291
G0 F6000 X81.898 Y91.443
G1 F1200 X82.573 Y90.843 E14.60294
G1 X83.298 Y90.305 E14.63297
G1 X84.069 Y89.833 E14.66304
G1 X84.878 Y89.432 E14.69307
G1 X85.719 Y89.103 E14.72311
G1 X86.586 Y88.851 E14.75314
G1 X87.472 Y88.676 E14.78317
G1 X88.37 Y88.58 E14.81321
G1 X88.821 Y88.562 E14.82822
G1 X89.562 Y88.55 E14.85287
G1 X130.293 Y88.55 E16.20759
G1 X131.139 Y88.561 E16.23573
G1 X132.041 Y88.614 E16.26579
G1 X132.934 Y88.746 E16.29581
G1 X133.813 Y88.957 E16.32588
G1 X134.669 Y89.245 E16.35591
G1 X135.496 Y89.607 E16.38594
G1 X136.288 Y90.041 E16.41598
G1 X137.038 Y90.544 E16.44601
G1 X137.906 Y91.259 E16.48342
G1 X138.357 Y91.686 E16.50407
G1 X145.204 Y98.529 E16.82604
G1 X145.79 Y99.132 E16.85401
G1 X146.39 Y99.808 E16.88407
G1 X146.927 Y100.534 E16.91411
G1 X147.397 Y101.305 E16.94414
G1 X147.798 Y102.114 E16.97417
G1 X148.126 Y102.956 E17.00422
G1 X148.378 Y103.823 E17.03425
G1 X148.552 Y104.709 E17.06429
G1 X148.646 Y105.597 E17.09399
G1 X148.679 Y106.179 E17.11337
G1 X149.169 Y120.171 E17.57904
G1 X149.188 Y121.011 E17.60698
G1 X149.169 Y121.914 E17.63702
G1 X149.069 Y122.811 E17.66704
G1 X148.891 Y123.697 E17.6971
G1 X148.635 Y124.563 E17.72713
G1 X148.303 Y125.403 E17.75718
G1 X147.898 Y126.21 E17.78721
G1 X147.424 Y126.978 E17.81722
G1 X146.883 Y127.702 E17.84728
G1 X146.281 Y128.375 E17.87732
G1 X145.621 Y128.991 E17.90734
G1 X144.909 Y129.547 E17.93739
G1 X144.151 Y130.038 E17.96743
G1 X143.353 Y130.46 E17.99745
G1 X142.52 Y130.81 E18.0275
G1 X141.66 Y131.085 E18.05754
G1 X140.779 Y131.282 E18.08756
G1 X139.883 Y131.401 E18.11762
G1 X139.177 Y131.438 E18.14114
G1 X138.444 Y131.45 E18.16552
G1 X125.051 Y131.449 E18.61097
G1 X124.333 Y131.438 E18.63486
G1 X123.192 Y131.356 E18.67291
G1 X121.378 Y131.113 E18.73378
G1 X118.843 Y130.825 E18.81863
G1 X116.337 Y130.612 E18.90229
G1 X113.785 Y130.468 E18.9873
G1 X111.244 Y130.396 E19.07185
G1 X108.712 Y130.396 E19.15606
G1 X106.178 Y130.468 E19.24038
G1 X103.617 Y130.613 E19.32569
G1 X101.128 Y130.825 E19.40878
G1 X98.513 Y131.122 E19.49631
G1 X96.875 Y131.346 E19.5513
G1 X95.679 Y131.438 E19.5912
G1 X94.938 Y131.45 E19.61584
G1 X81.575 Y131.449 E20.0603
G1 X80.878 Y131.44 E20.08348
G1 X79.977 Y131.389 E20.1135
G1 X79.083 Y131.257 E20.14356
G1 X78.205 Y131.048 E20.17357
G1 X77.348 Y130.761 E20.20363
G1 X76.521 Y130.4 E20.23365
G1 X75.728 Y129.967 E20.2637
G1 X74.977 Y129.465 E20.29374
G1 X74.273 Y128.9 E20.32377
G1 X73.622 Y128.274 E20.35381
G1 X73.029 Y127.593 E20.38384
G1 X72.498 Y126.862 E20.41389
G1 X72.035 Y126.087 E20.44392
G1 X71.641 Y125.274 E20.47396
G1 X71.321 Y124.429 E20.50402
G1 X71.077 Y123.56 E20.53404
G1 X70.911 Y122.672 E20.56408
G1 X70.824 Y121.773 E20.59413
G1 X70.812 Y121.047 E20.61828
G1 X70.828 Y120.254 E20.64466
G1 X71.307 Y106.567 E21.10017
G1 X71.347 Y105.731 E21.128
G1 X71.431 Y104.831 E21.15807
G1 X71.594 Y103.943 E21.1881
G1 X71.836 Y103.073 E21.21813
G1 X72.153 Y102.227 E21.24818
G1 X72.544 Y101.413 E21.27822
G1 X73.005 Y100.637 E21.30824
G1 X73.533 Y99.904 E21.33828
G1 X74.121 Y99.224 E21.36818
G1 X74.563 Y98.763 E21.38942
G1 X81.413 Y91.914 E21.7116
G1 X81.898 Y91.443 E21.73409
G1 F1500 E15.23409
;MESH:RAIL_BLOCKRA.stl
G0 F6000 X85.937 Y110.113
G0 X86.068 Y114.212
;TYPE:WALL-INNER
G1 F1500 E21.73409
G1 F1200 X85.359 Y114.105 E21.75794
G1 X84.678 Y113.694 E21.78439
G1 X84.363 Y113.324 E21.80056
G1 X84.061 Y112.568 E21.82763
G1 X84.099 Y111.857 E21.85131
G1 X84.168 Y111.608 E21.85991
G1 X84.44 Y111.095 E21.87922
G1 X84.607 Y110.899 E21.88778
G1 X85.176 Y110.467 E21.91155
G1 X85.954 Y110.295 E21.93805
G1 X86.449 Y110.344 E21.95459
G1 X87.069 Y110.63 E21.9773
G1 X87.275 Y110.786 E21.9859
G1 X87.651 Y111.23 E22.00525
G1 X87.772 Y111.457 E22.0138
G1 X87.962 Y112.14 E22.03738
G1 X87.832 Y112.937 E22.06424
G1 X87.601 Y113.377 E22.08077
G1 X87.111 Y113.843 E22.10326
G1 X86.888 Y113.976 E22.1119
G1 X86.276 Y114.181 E22.13336
G1 X86.068 Y114.212 E22.14036
G1 F1500 E15.64036
G0 F6000 X86.627 Y114.17
G0 X87.237 Y113.973
G0 X89.001 Y113.973
G0 X91.854 Y119.397
G1 F1500 E22.14036
G1 F1200 X91.273 Y119.549 E22.16033
G1 X90.719 Y119.549 E22.17876
G1 X90.13 Y119.394 E22.19901
G1 X89.859 Y119.238 E22.20941
G1 X89.514 Y118.893 E22.22564
G1 X89.359 Y118.623 E22.236
G1 X89.201 Y118.03 E22.25641
G1 X89.2 Y101.97 E22.79057
G1 X89.358 Y101.377 E22.81098
G1 X89.457 Y101.164 E22.81879
G1 X89.92 Y100.701 E22.84057
G1 X90.127 Y100.608 E22.84812
G1 X90.727 Y100.451 E22.86874
G1 X91.281 Y100.451 E22.88717
G1 X91.87 Y100.606 E22.90743
G1 X92.141 Y100.762 E22.91783
G1 X92.486 Y101.107 E22.93406
G1 X92.641 Y101.377 E22.94441
G1 X92.799 Y101.97 E22.96482
G1 X92.8 Y110.842 E23.25991
G1 X93.212 Y110.358 E23.28105
G1 X93.657 Y110.018 E23.29967
G1 X94.17 Y109.783 E23.31844
G1 X94.716 Y109.662 E23.33704
G1 X95.284 Y109.662 E23.35593
G1 X95.832 Y109.783 E23.3746
G1 X96.333 Y110.017 E23.39299
G1 X96.78 Y110.352 E23.41157
G1 X97.161 Y110.798 E23.43108
G1 X97.421 Y111.299 E23.44985
G1 X97.571 Y111.829 E23.46817
G1 X97.594 Y112.425 E23.48801
G1 X97.513 Y112.919 E23.50466
G1 X97.306 Y113.451 E23.52365
G1 X96.991 Y113.922 E23.54249
G1 X96.579 Y114.316 E23.56145
G1 X96.101 Y114.607 E23.58007
G1 X95.568 Y114.788 E23.59879
G1 X94.998 Y114.854 E23.61787
G1 X94.443 Y114.793 E23.63644
G1 X93.904 Y114.614 E23.65533
G1 X93.425 Y114.324 E23.67396
G1 X93.012 Y113.932 E23.6929
G1 X92.8 Y113.617 E23.70552
G1 X92.8 Y118.026 E23.85217
G1 X92.646 Y118.604 E23.87206
G1 X92.491 Y118.874 E23.88242
G1 X92.124 Y119.241 E23.89968
G1 X91.854 Y119.397 E23.91005
G1 F1500 E17.41005
G0 F6000 X91.873 Y119.496
G0 X92.981 Y118.048
G0 X107.836 Y115.178
G0 X109.967 Y115.349
G1 F1500 E23.91005
G1 F1200 X109.282 Y115.311 E23.93287
G1 X107.894 Y115.006 E23.98014
G1 X106.602 Y114.409 E24.02747
G1 X105.459 Y113.545 E24.07513
G1 X104.532 Y112.445 E24.12298
G1 X103.867 Y111.191 E24.17019
G1 X103.482 Y109.814 E24.21774
G1 X103.407 Y108.382 E24.26543
G1 X103.639 Y106.988 E24.31244
G1 X104.166 Y105.655 E24.36011
G1 X104.964 Y104.478 E24.40741
G1 X106.004 Y103.493 E24.45505
G1 X107.229 Y102.755 E24.50262
G1 X108.606 Y102.298 E24.55087
G1 X110 Y102.15 E24.5975
G1 X111.419 Y102.3 E24.64496
G1 X112.773 Y102.755 E24.69247
G1 X113.996 Y103.493 E24.73998
G1 X115.036 Y104.478 E24.78762
G1 X115.834 Y105.654 E24.83489
G1 X116.364 Y106.986 E24.88257
G1 X116.592 Y108.425 E24.93103
G1 X116.517 Y109.803 E24.97693
G1 X116.136 Y111.19 E25.02477
G1 X115.468 Y112.445 E25.07205
G1 X114.545 Y113.536 E25.11958
G1 X113.399 Y114.409 E25.1675
G1 X112.107 Y115.007 E25.21485
G1 X110.734 Y115.312 E25.26163
G1 X109.967 Y115.349 E25.28717
G1 F1500 E18.78717
G0 F6000 X109.956 Y115.448
G0 X112.164 Y115.179
G0 X113.829 Y117.11
G0 X124.75 Y120.65
G1 F1500 E25.28717
G1 F1200 X138.378 Y120.65 E25.74044
G1 X137.882 Y106.484 E26.21189
G1 X130.75 Y99.351 E26.54738
G1 X89.25 Y99.35 E27.92768
G1 X82.118 Y106.484 E28.26319
G1 X81.622 Y120.649 E28.73461
G1 X95.25 Y120.649 E29.18788
G1 X97.424 Y118.476 E29.29012
G1 X97.455 Y118.149 E29.30104
G1 X97.633 Y117.56 E29.32151
G1 X97.913 Y117.041 E29.34112
G1 X98.317 Y116.549 E29.36229
G1 X98.761 Y116.182 E29.38145
G1 X99.284 Y115.897 E29.40126
G1 X99.899 Y115.704 E29.4227
G1 X100.449 Y115.651 E29.44108
G1 X102.501 Y115.649 E29.50933
G1 X103.16 Y115.717 E29.53136
G1 X103.794 Y115.932 E29.55363
G1 X106.088 Y117.293 E29.64235
G1 X108.003 Y117.931 E29.70948
G1 X110 Y118.146 E29.77629
G1 X111.997 Y117.931 E29.84309
G1 X113.912 Y117.293 E29.91023
G1 X116.206 Y115.932 E29.99894
G1 X116.838 Y115.717 E30.02115
G1 X117.433 Y115.653 E30.04105
G1 X119.504 Y115.649 E30.10993
G1 X120.086 Y115.704 E30.12937
G1 X120.716 Y115.897 E30.15129
G1 X121.239 Y116.182 E30.1711
G1 X121.683 Y116.549 E30.19026
G1 X122.088 Y117.041 E30.21145
G1 X122.367 Y117.561 E30.23108
G1 X122.545 Y118.149 E30.25151
G1 X122.576 Y118.476 E30.26244
G1 X124.75 Y120.65 E30.3647
G1 F1500 E23.8647
G0 F6000 X124.735 Y120.492
G0 X128.129 Y120.45
G0 X128.349 Y119.637
G0 X128.143 Y119.395
G1 F1500 E30.3647
G1 F1200 X127.875 Y119.24 E30.375
G1 X127.509 Y118.874 E30.39221
G1 X127.354 Y118.604 E30.40257
G1 X127.201 Y118.03 E30.42232
G1 X127.201 Y113.616 E30.56913
G1 X126.982 Y113.937 E30.58206
G1 X126.575 Y114.324 E30.60074
G1 X126.101 Y114.611 E30.61917
G1 X125.558 Y114.793 E30.63822
G1 X125.002 Y114.854 E30.65682
G1 X124.432 Y114.788 E30.6759
G1 X123.903 Y114.614 E30.69443
