;FLAVOR:Marlin
;TIME:7039
;Filament used: 3.62657m
;Layer height: 0.2
;MINX:72.921
;MINY:90.23
;MINZ:0.2
;MAXX:152.923
;MAXY:142.777
;MAXZ:33.2
;TARGET_MACHINE.NAME:Creality Ender-3 Pro
;Generated with Cura_SteamEngine 5.6.0
M82 ;absolute extrusion mode
; Ender 3 Custom Start G-code
G92 E0 ; Reset Extruder
G28 ; Home all axes
G1 Z5.0 F3000 ; Move Z Axis up a bit during heating to not damage bed
M104 S175 ; Start heating up the nozzle most of the way
M190 S60 ; Start heating the bed, wait until target temperature reached
M109 S200 ; Finish heating the nozzle
G1 Z2.0 F3000 ; Move Z Axis up little to prevent scratching of Heat Bed
G1 X0.1 Y20 Z0.3 F5000.0 ; Move to start position
G1 X0.1 Y200.0 Z0.3 F1500.0 E15 ; Draw the first line
G1 X0.4 Y200.0 Z0.3 F5000.0 ; Move to side a little
G1 X0.4 Y20 Z0.3 F1500.0 E30 ; Draw the second line
G92 E0 ; Reset Extruder
G1 Z2.0 F3000 ; Move Z Axis up little to prevent scratching of Heat Bed
G1 X5 Y20 Z0.3 F5000.0 ; Move over to prevent blob squish
G92 E0
G92 E0
G1 F1500 E-6.5
;LAYER_COUNT:166
;LAYER:0
M107
G0 F6000 X79.251 Y92.719 Z0.2
;TYPE:SKIRT
G1 F1500 E0
G1 F1200 X80.002 Y92.156 E0.03122
G1 X80.859 Y91.624 E0.06477
G1 X81.697 Y91.201 E0.09599
G1 X82.602 Y90.84 E0.1284
G1 X83.568 Y90.552 E0.16192
G1 X84.453 Y90.37 E0.19197
G1 X85.493 Y90.251 E0.22679
G1 X86.466 Y90.23 E0.25916
G1 X87.437 Y90.295 E0.29153
G1 X88.4 Y90.444 E0.32394
G1 X89.343 Y90.677 E0.35625
G1 X90.194 Y90.967 E0.38615
G1 X91.367 Y91.421 E0.42798
G1 X93.762 Y92.311 E0.51296
G1 X96.144 Y93.119 E0.59662
G1 X98.575 Y93.868 E0.68123
G1 X100.971 Y94.533 E0.76393
G1 X103.439 Y95.142 E0.84848
G1 X105.921 Y95.681 E0.93296
G1 X108.355 Y96.139 E1.01533
G1 X110.819 Y96.53 E1.09831
G1 X113.374 Y96.862 E1.184
G1 X115.85 Y97.113 E1.26678
G1 X118.343 Y97.294 E1.34991
G1 X120.874 Y97.406 E1.43418
G1 X123.416 Y97.448 E1.51874
G1 X125.88 Y97.417 E1.6007
G1 X128.437 Y97.314 E1.68581
G1 X130.95 Y97.14 E1.76959
G1 X133.439 Y96.898 E1.85277
G1 X135.943 Y96.583 E1.93671
G1 X138.546 Y96.182 E2.02431
G1 X139.515 Y96.08 E2.05671
G1 X140.488 Y96.064 E2.08908
G1 X141.459 Y96.134 E2.12146
G1 X142.421 Y96.289 E2.15387
G1 X143.365 Y96.529 E2.18627
G1 X144.284 Y96.851 E2.21865
G1 X145.139 Y97.237 E2.24985
G1 X146.018 Y97.733 E2.28342
G1 X146.82 Y98.286 E2.31582
G1 X147.57 Y98.907 E2.34821
G1 X148.263 Y99.592 E2.38062
G1 X148.896 Y100.342 E2.41326
G1 X149.539 Y101.27 E2.45081
G1 X149.875 Y101.825 E2.47239
G1 X151.202 Y104.124 E2.56068
G1 X151.543 Y104.734 E2.58392
G1 X151.978 Y105.604 E2.61628
G1 X152.323 Y106.477 E2.6475
G1 X152.6 Y107.412 E2.67993
G1 X152.798 Y108.401 E2.71348
G1 X152.904 Y109.37 E2.7459
G1 X152.923 Y110.344 E2.7783
G1 X152.856 Y111.316 E2.81071
G1 X152.703 Y112.277 E2.84307
G1 X152.466 Y113.222 E2.87548
G1 X152.146 Y114.142 E2.90787
G1 X151.746 Y115.03 E2.94027
G1 X151.27 Y115.879 E2.97264
G1 X150.72 Y116.682 E3.00501
G1 X150.101 Y117.434 E3.03741
G1 X149.418 Y118.128 E3.06979
G1 X148.67 Y118.764 E3.10245
G1 X147.716 Y119.428 E3.14111
G1 X147.121 Y119.789 E3.16426
G1 X142.969 Y122.185 E3.3237
G1 X140.717 Y123.53 E3.41094
G1 X138.581 Y124.887 E3.49511
G1 X136.516 Y126.282 E3.57799
G1 X134.44 Y127.773 E3.663
G1 X132.444 Y129.294 E3.74647
G1 X130.529 Y130.839 E3.82831
G1 X128.573 Y132.514 E3.91396
G1 X126.86 Y134.062 E3.99075
G1 X126.31 Y134.57 E4.01565
G1 X125.933 Y134.903 E4.03238
G1 X125.104 Y135.6 E4.06841
G1 X124.744 Y135.889 E4.08376
G1 X124.016 Y136.449 E4.11431
G1 X123.62 Y136.738 E4.13061
G1 X122.521 Y137.496 E4.17502
G1 X121.803 Y137.955 E4.20336
G1 X121.311 Y138.252 E4.22248
G1 X120.107 Y138.935 E4.26852
G1 X119.292 Y139.364 E4.29915
G1 X118.033 Y139.964 E4.34554
G1 X117.604 Y140.153 E4.36113
G1 X116.758 Y140.506 E4.39162
G1 X116.328 Y140.674 E4.40697
G1 X115.026 Y141.138 E4.45294
G1 X114.204 Y141.398 E4.48162
G1 X113.667 Y141.553 E4.50021
G1 X112.226 Y141.927 E4.54972
G1 X111.305 Y142.136 E4.58114
G1 X109.984 Y142.374 E4.62578
G1 X109.542 Y142.443 E4.64066
G1 X108.573 Y142.57 E4.67316
G1 X108.098 Y142.621 E4.68905
G1 X106.765 Y142.727 E4.73353
G1 X105.848 Y142.767 E4.76406
G1 X105.395 Y142.777 E4.77913
G1 X104.611 Y142.777 E4.8052
G1 X104.081 Y142.763 E4.82284
G1 X102.558 Y142.687 E4.87356
G1 X101.686 Y142.618 E4.90265
G1 X101.223 Y142.566 E4.91815
G1 X99.788 Y142.366 E4.96634
G1 X98.468 Y142.125 E5.01096
G1 X97.679 Y141.949 E5.03785
G1 X97.149 Y141.819 E5.056
G1 X95.726 Y141.427 E5.10509
G1 X95.04 Y141.217 E5.12896
G1 X94.518 Y141.038 E5.14731
G1 X93.061 Y140.497 E5.199
G1 X92.381 Y140.221 E5.22341
G1 X91.924 Y140.017 E5.24006
G1 X90.552 Y139.367 E5.29055
G1 X89.935 Y139.055 E5.31355
G1 X89.441 Y138.783 E5.3323
G1 X88.102 Y137.999 E5.38391
G1 X87.4 Y137.562 E5.41142
G1 X86.993 Y137.29 E5.4277
G1 X86.326 Y136.823 E5.45478
G1 X85.895 Y136.506 E5.47257
G1 X84.734 Y135.604 E5.52147
G1 X84.029 Y135.023 E5.55186
G1 X82.993 Y134.09 E5.59823
G1 X82.651 Y133.763 E5.61397
G1 X81.987 Y133.101 E5.64515
G1 X81.076 Y132.126 E5.68953
G1 X80.764 Y131.772 E5.70523
G1 X80.134 Y131.023 E5.73778
G1 X79.302 Y129.961 E5.78265
G1 X79.016 Y129.573 E5.79868
G1 X78.474 Y128.803 E5.83
G1 X78.214 Y128.415 E5.84554
G1 X77.492 Y127.271 E5.89053
G1 X77.11 Y126.615 E5.91578
G1 X76.847 Y126.134 E5.93401
G1 X76.148 Y124.778 E5.98475
G1 X75.77 Y123.99 E6.01382
G1 X75.591 Y123.586 E6.02852
G1 X75.219 Y122.697 E6.06057
G1 X74.787 Y121.555 E6.10118
G1 X74.612 Y121.038 E6.11933
G1 X74.157 Y119.572 E6.17039
G1 X73.962 Y118.874 E6.19449
G1 X73.837 Y118.368 E6.21183
G1 X73.513 Y116.882 E6.26241
G1 X73.352 Y116.028 E6.29132
G1 X73.279 Y115.564 E6.30694
G1 X73.15 Y114.613 E6.33886
G1 X73.097 Y114.149 E6.35439
G1 X73.014 Y113.235 E6.38492
G1 X72.938 Y111.854 E6.43092
G1 X72.926 Y111.404 E6.44589
G1 X72.921 Y110.476 E6.47676
G1 X72.929 Y110.003 E6.49249
G1 X72.967 Y109.056 E6.52402
G1 X73.059 Y107.827 E6.56501
G1 X73.118 Y107.293 E6.58288
G1 X73.316 Y105.808 E6.6327
G1 X73.454 Y104.961 E6.66125
G1 X73.544 Y104.493 E6.6771
G1 X73.746 Y103.56 E6.70885
G1 X74.09 Y102.211 E6.75515
G1 X74.444 Y101.037 E6.79594
G1 X74.613 Y100.532 E6.81365
G1 X75.131 Y99.114 E6.86386
G1 X75.407 Y98.422 E6.88864
G1 X75.628 Y97.918 E6.90694
G1 X76.28 Y96.528 E6.95801
G1 X76.734 Y95.667 E6.99038
G1 X77.263 Y94.85 E7.02275
G1 X77.862 Y94.082 E7.05515
G1 X78.526 Y93.37 E7.08753
G1 X79.251 Y92.719 E7.11994
G0 F6000 X79.492 Y93.039
G1 F1200 X80.213 Y92.496 E7.14996
G1 X81.04 Y91.981 E7.18236
G1 X81.845 Y91.573 E7.21238
G1 X82.75 Y91.212 E7.24479
G1 X83.649 Y90.944 E7.27599
G1 X84.534 Y90.762 E7.30604
G1 X85.502 Y90.651 E7.33845
G1 X86.44 Y90.629 E7.36965
G1 X87.376 Y90.69 E7.40085
G1 X88.304 Y90.832 E7.43207
G1 X89.214 Y91.056 E7.46324
G1 X90.05 Y91.34 E7.49261
G1 X91.228 Y91.796 E7.53462
G1 X93.634 Y92.69 E7.61999
G1 X96.016 Y93.498 E7.70365
G1 X98.457 Y94.25 E7.78861
G1 X100.875 Y94.921 E7.87207
G1 X103.354 Y95.533 E7.957
G1 X105.836 Y96.072 E8.04147
G1 X108.292 Y96.534 E8.12459
G1 X110.767 Y96.927 E8.20794
G1 X113.322 Y97.259 E8.29364
G1 X115.817 Y97.512 E8.37705
G1 X118.325 Y97.694 E8.46068
G1 X120.856 Y97.806 E8.54495
G1 X123.414 Y97.848 E8.63004
G1 X125.896 Y97.817 E8.71259
G1 X128.453 Y97.714 E8.79771
G1 X130.981 Y97.539 E8.88199
G1 X133.489 Y97.295 E8.9658
G1 X135.993 Y96.98 E9.04974
G1 X138.589 Y96.58 E9.1371
G1 X139.522 Y96.48 E9.16831
G1 X140.46 Y96.463 E9.19952
G1 X141.396 Y96.529 E9.23073
G1 X142.323 Y96.677 E9.26195
G1 X143.233 Y96.907 E9.29317
G1 X144.119 Y97.216 E9.32438
G1 X144.974 Y97.602 E9.35558
G1 X145.792 Y98.063 E9.38681
G1 X146.565 Y98.594 E9.418
G1 X147.289 Y99.192 E9.44923
G1 X147.958 Y99.851 E9.48046
G1 X148.567 Y100.57 E9.5118
G1 X149.21 Y101.498 E9.54935
G1 X149.529 Y102.025 E9.56984
G1 X150.853 Y104.319 E9.65794
G1 X151.185 Y104.913 E9.68057
G1 X151.606 Y105.752 E9.71179
G1 X151.939 Y106.591 E9.74182
G1 X152.216 Y107.526 E9.77425
G1 X152.4 Y108.445 E9.80542
G1 X152.504 Y109.379 E9.83668
G1 X152.524 Y110.317 E9.86788
G1 X152.461 Y111.254 E9.89912
G1 X152.315 Y112.18 E9.9303
G1 X152.088 Y113.091 E9.96153
G1 X151.781 Y113.978 E9.99274
G1 X151.397 Y114.835 E10.02398
G1 X150.94 Y115.653 E10.05514
G1 X150.411 Y116.428 E10.08635
G1 X149.815 Y117.154 E10.11759
G1 X149.158 Y117.824 E10.1488
G1 X148.441 Y118.436 E10.18016
G1 X147.508 Y119.086 E10.21798
G1 X146.921 Y119.443 E10.24083
G1 X142.769 Y121.839 E10.40027
G1 X140.503 Y123.192 E10.48805
G1 X138.367 Y124.549 E10.57222
G1 X136.283 Y125.957 E10.65587
G1 X134.207 Y127.448 E10.74088
G1 X132.202 Y128.976 E10.82472
G1 X130.269 Y130.535 E10.90732
G1 X128.313 Y132.21 E10.99297
G1 X126.588 Y133.768 E11.07028
G1 X126.045 Y134.27 E11.09488
G1 X125.675 Y134.597 E11.1113
G1 X124.854 Y135.288 E11.14699
G1 X124.5 Y135.572 E11.16209
G1 X123.78 Y136.126 E11.1923
G1 X123.393 Y136.409 E11.20825
G1 X122.306 Y137.159 E11.25217
G1 X121.596 Y137.613 E11.2802
G1 X121.114 Y137.904 E11.29893
G1 X119.92 Y138.581 E11.34458
G1 X119.12 Y139.003 E11.37467
G1 X117.871 Y139.598 E11.42068
G1 X117.45 Y139.784 E11.43599
G1 X116.613 Y140.133 E11.46615
G1 X116.193 Y140.297 E11.48115
G1 X114.905 Y140.757 E11.52664
G1 X114.093 Y141.014 E11.55496
G1 X113.567 Y141.166 E11.57317
G1 X112.137 Y141.537 E11.62231
G1 X111.234 Y141.742 E11.65311
G1 X109.923 Y141.979 E11.69742
G1 X109.49 Y142.046 E11.71199
G1 X108.53 Y142.172 E11.7442
G1 X108.066 Y142.222 E11.75972
G1 X106.747 Y142.327 E11.80373
G1 X105.839 Y142.367 E11.83396
G1 X105.386 Y142.377 E11.84903
G1 X104.621 Y142.377 E11.87447
G1 X104.101 Y142.364 E11.89177
G1 X102.59 Y142.288 E11.94209
G1 X101.73 Y142.22 E11.97078
G1 X101.278 Y142.17 E11.98591
G1 X99.86 Y141.973 E12.03353
G1 X98.555 Y141.734 E12.07765
G1 X97.775 Y141.561 E12.10423
G1 X97.255 Y141.433 E12.12204
G1 X95.843 Y141.044 E12.17075
G1 X95.17 Y140.839 E12.19415
G1 X94.657 Y140.663 E12.21219
G1 X93.211 Y140.126 E12.26349
G1 X92.543 Y139.855 E12.28747
G1 X92.095 Y139.656 E12.30377
G1 X90.732 Y139.01 E12.35394
G1 X90.128 Y138.705 E12.37645
G1 X89.643 Y138.438 E12.39486
G1 X88.313 Y137.659 E12.44612
G1 X87.622 Y137.229 E12.47319
G1 X87.222 Y136.962 E12.48919
G1 X86.563 Y136.501 E12.51594
G1 X86.14 Y136.19 E12.5334
G1 X84.988 Y135.295 E12.58192
G1 X84.297 Y134.726 E12.61169
G1 X83.269 Y133.801 E12.65769
G1 X82.933 Y133.48 E12.67314
G1 X82.279 Y132.828 E12.70386
G1 X81.376 Y131.861 E12.74786
G1 X81.07 Y131.514 E12.76325
G1 X80.449 Y130.776 E12.79533
G1 X79.624 Y129.724 E12.8398
G1 X79.343 Y129.343 E12.85554
G1 X78.806 Y128.58 E12.88658
G1 X78.552 Y128.201 E12.90175
G1 X77.838 Y127.07 E12.94624
G1 X77.461 Y126.423 E12.97114
G1 X77.203 Y125.951 E12.98903
G1 X76.509 Y124.605 E13.0394
G1 X76.136 Y123.828 E13.06807
G1 X75.96 Y123.431 E13.08251
G1 X75.593 Y122.555 E13.1141
G1 X75.166 Y121.427 E13.15422
G1 X74.994 Y120.919 E13.17206
G1 X74.542 Y119.464 E13.22273
G1 X74.35 Y118.778 E13.24642
G1 X74.228 Y118.283 E13.26338
G1 X73.906 Y116.808 E13.3136
G1 X73.747 Y115.966 E13.3421
G1 X73.675 Y115.51 E13.35745
G1 X73.547 Y114.568 E13.38907
G1 X73.495 Y114.113 E13.4043
G1 X73.413 Y113.213 E13.43436
G1 X73.338 Y111.843 E13.47999
G1 X73.326 Y111.402 E13.49467
G1 X73.321 Y110.483 E13.52523
G1 X73.329 Y110.019 E13.54067
G1 X73.366 Y109.086 E13.57172
G1 X73.457 Y107.87 E13.61228
G1 X73.514 Y107.346 E13.62981
G1 X73.711 Y105.872 E13.67927
G1 X73.847 Y105.036 E13.70745
G1 X73.935 Y104.578 E13.72296
G1 X74.134 Y103.659 E13.75423
G1 X74.473 Y102.326 E13.79998
G1 X74.823 Y101.164 E13.84034
G1 X74.989 Y100.669 E13.85771
G1 X75.503 Y99.262 E13.90753
G1 X75.773 Y98.583 E13.93183
G1 X75.99 Y98.088 E13.94981
G1 X76.634 Y96.714 E14.00028
G1 X77.07 Y95.884 E14.03146
G1 X77.579 Y95.095 E14.06269
G1 X78.155 Y94.354 E14.09391
G1 X78.794 Y93.667 E14.12511
G1 X79.492 Y93.039 E14.15634
G0 F6000 X79.733 Y93.359
G1 F1200 X80.454 Y92.816 E14.18636
G1 X81.221 Y92.338 E14.21642
G1 X82.026 Y91.93 E14.24644
G1 X82.865 Y91.595 E14.27649
G1 X83.73 Y91.336 E14.30652
G1 X84.615 Y91.154 E14.33657
G1 X85.512 Y91.051 E14.3666
G1 X86.415 Y91.028 E14.39664
G1 X87.316 Y91.085 E14.42667
G1 X88.209 Y91.221 E14.45671
G1 X89.086 Y91.435 E14.48674
G1 X89.906 Y91.713 E14.51554
G1 X91.089 Y92.171 E14.55773
G1 X93.506 Y93.069 E14.64349
G1 X95.888 Y93.877 E14.72715
G1 X98.339 Y94.632 E14.81245
G1 X100.779 Y95.309 E14.89667
G1 X103.269 Y95.924 E14.98198
G1 X105.749 Y96.463 E15.06639
G1 X108.229 Y96.929 E15.15032
G1 X110.715 Y97.324 E15.23404
G1 X113.27 Y97.656 E15.31973
G1 X115.784 Y97.911 E15.40378
G1 X118.307 Y98.094 E15.48791
G1 X120.838 Y98.206 E15.57218
G1 X123.412 Y98.248 E15.6578
G1 X125.912 Y98.217 E15.74096
G1 X128.469 Y98.114 E15.82607
G1 X131.012 Y97.938 E15.91085
G1 X133.539 Y97.692 E15.9953
G1 X136.043 Y97.377 E16.07924
G1 X138.632 Y96.978 E16.16637
G1 X139.53 Y96.88 E16.19641
G1 X140.433 Y96.862 E16.22645
G1 X141.334 Y96.924 E16.25649
G1 X142.226 Y97.065 E16.28653
G1 X143.102 Y97.285 E16.31657
G1 X143.955 Y97.581 E16.3466
G1 X144.778 Y97.951 E16.37661
G1 X145.566 Y98.393 E16.40666
G1 X146.311 Y98.903 E16.43669
G1 X147.009 Y99.477 E16.46675
G1 X147.653 Y100.11 E16.49678
G1 X148.238 Y100.798 E16.52682
G1 X148.868 Y101.706 E16.56357
G1 X149.183 Y102.225 E16.58377
G1 X150.504 Y104.514 E16.67167
G1 X150.828 Y105.093 E16.69373
G1 X151.234 Y105.9 E16.72378
G1 X151.567 Y106.739 E16.7538
G1 X151.824 Y107.605 E16.78385
G1 X152.003 Y108.49 E16.81388
G1 X152.104 Y109.388 E16.84394
G1 X152.125 Y110.291 E16.87398
G1 X152.066 Y111.192 E16.90401
G1 X151.927 Y112.084 E16.93404
G1 X151.71 Y112.961 E16.96408
G1 X151.416 Y113.815 E16.99412
G1 X151.048 Y114.64 E17.02417
G1 X150.609 Y115.428 E17.05417
G1 X150.101 Y116.175 E17.08422
G1 X149.529 Y116.874 E17.11426
G1 X148.898 Y117.52 E17.14429
G1 X148.212 Y118.108 E17.17435
G1 X147.3 Y118.744 E17.21133
G1 X146.721 Y119.097 E17.23388
G1 X142.569 Y121.493 E17.39332
G1 X140.289 Y122.854 E17.48164
G1 X138.153 Y124.211 E17.56581
G1 X136.05 Y125.632 E17.65022
G1 X133.974 Y127.123 E17.73523
G1 X131.96 Y128.658 E17.81946
G1 X130.009 Y130.231 E17.90281
G1 X128.053 Y131.906 E17.98846
G1 X126.316 Y133.474 E18.06629
G1 X125.78 Y133.97 E18.09058
G1 X125.417 Y134.291 E18.1067
G1 X124.603 Y134.976 E18.14208
G1 X124.256 Y135.255 E18.15689
G1 X123.544 Y135.803 E18.18678
G1 X123.166 Y136.08 E18.20236
G1 X122.09 Y136.822 E18.24583
G1 X121.389 Y137.271 E18.27352
G1 X120.917 Y137.556 E18.29186
G1 X119.733 Y138.227 E18.33713
G1 X118.948 Y138.642 E18.36666
G1 X117.709 Y139.232 E18.4123
G1 X117.296 Y139.415 E18.42733
G1 X116.467 Y139.76 E18.45719
G1 X116.055 Y139.921 E18.4719
G1 X115.211 Y140.23 E18.5018
G1 X114.784 Y140.376 E18.51681
G1 X113.982 Y140.63 E18.54479
G1 X113.466 Y140.779 E18.56265
G1 X112.049 Y141.147 E18.61134
G1 X111.163 Y141.348 E18.64156
G1 X109.862 Y141.584 E18.68554
G1 X109.438 Y141.649 E18.69981
G1 X108.487 Y141.774 E18.73171
G1 X108.034 Y141.823 E18.74686
G1 X106.729 Y141.927 E18.7904
G1 X105.83 Y141.967 E18.82034
G1 X105.377 Y141.977 E18.83541
G1 X104.631 Y141.977 E18.86022
G1 X104.121 Y141.964 E18.87719
G1 X102.622 Y141.889 E18.92711
G1 X101.774 Y141.822 E18.9554
G1 X101.33 Y141.773 E18.97026
G1 X100.36 Y141.645 E19.0028
G1 X99.929 Y141.579 E19.0173
G1 X99.075 Y141.429 E19.04614
G1 X98.641 Y141.343 E19.06085
G1 X97.871 Y141.173 E19.08708
G1 X97.361 Y141.047 E19.10455
G1 X95.96 Y140.661 E19.15289
G1 X95.287 Y140.456 E19.17629
G1 X94.796 Y140.288 E19.19355
G1 X93.361 Y139.755 E19.24446
G1 X92.705 Y139.489 E19.26801
G1 X92.266 Y139.294 E19.28398
G1 X90.912 Y138.653 E19.33381
G1 X90.321 Y138.355 E19.35582
G1 X89.845 Y138.093 E19.37389
G1 X88.524 Y137.319 E19.42482
G1 X87.844 Y136.896 E19.45145
G1 X87.451 Y136.634 E19.46716
G1 X86.8 Y136.179 E19.49358
G1 X86.385 Y135.874 E19.51071
G1 X85.242 Y134.986 E19.55885
