;FLAVOR:Marlin
;TIME:5228
;Filament used: 3.05373m
;Layer height: 0.2
;MINX:79.862
;MINY:74.188
;MINZ:0.2
;MAXX:140.159
;MAXY:141.202
;MAXZ:35.6
;TARGET_MACHINE.NAME:Creality Ender-3 Pro
;Generated with Cura_SteamEngine 5.6.0
M82 ;absolute extrusion mode
; Ender 3 Custom Start G-code
G92 E0 ; Reset Extruder
G28 ; Home all axes
G1 Z5.0 F3000 ; Move Z Axis up a bit during heating to not damage bed
M104 S175 ; Start heating up the nozzle most of the way
M190 S60 ; Start heating the bed, wait until target temperature reached
M109 S200 ; Finish heating the nozzle
G1 Z2.0 F3000 ; Move Z Axis up little to prevent scratching of Heat Bed
G1 X0.1 Y20 Z0.3 F5000.0 ; Move to start position
G1 X0.1 Y200.0 Z0.3 F1500.0 E15 ; Draw the first line
G1 X0.4 Y200.0 Z0.3 F5000.0 ; Move to side a little
G1 X0.4 Y20 Z0.3 F1500.0 E30 ; Draw the second line
G92 E0 ; Reset Extruder
G1 Z2.0 F3000 ; Move Z Axis up little to prevent scratching of Heat Bed
G1 X5 Y20 Z0.3 F5000.0 ; Move over to prevent blob squish
G92 E0
G92 E0
G1 F1500 E-6.5
;LAYER_COUNT:178
;LAYER:0
M107
G0 F6000 X87.705 Y79.356 Z0.2
;TYPE:SKIRT
G1 F1500 E0
G1 F1200 X88.345 Y78.666 E0.0313
G1 X89.089 Y77.932 E0.06606
G1 X89.798 Y77.264 E0.09846
G1 X90.538 Y76.632 E0.13083
G1 X91.332 Y76.066 E0.16326
G1 X92.145 Y75.588 E0.19463
G1 X93.295 Y75.059 E0.23673
G1 X93.62 Y74.931 E0.24835
G1 X94.509 Y74.629 E0.27958
G1 X95.454 Y74.398 E0.31193
G1 X96.453 Y74.247 E0.34554
G1 X97.44 Y74.188 E0.37842
G1 X98.801 Y74.251 E0.42374
G1 X100.129 Y74.397 E0.46817
G1 X102.682 Y74.648 E0.5535
G1 X105.194 Y74.823 E0.63725
G1 X107.715 Y74.927 E0.72117
G1 X110.222 Y74.96 E0.80456
G1 X112.75 Y74.921 E0.88865
G1 X115.256 Y74.811 E0.97208
G1 X117.797 Y74.628 E1.05681
G1 X120.311 Y74.377 E1.14085
G1 X121.218 Y74.271 E1.17122
G1 X122.19 Y74.204 E1.20362
G1 X123.163 Y74.223 E1.23599
G1 X124.131 Y74.327 E1.26837
G1 X125.018 Y74.5 E1.29843
G1 X126.031 Y74.795 E1.33352
G1 X127.159 Y75.253 E1.37401
G1 X127.467 Y75.4 E1.38537
G1 X128.327 Y75.859 E1.41779
G1 X129.14 Y76.391 E1.4501
G1 X129.873 Y76.965 E1.48107
G1 X130.278 Y77.329 E1.49918
G1 X131.158 Y78.168 E1.53962
G1 X131.681 Y78.689 E1.56417
G1 X132.107 Y79.138 E1.58476
G1 X132.873 Y80 E1.62311
G1 X133.328 Y80.537 E1.64652
G1 X133.713 Y81.018 E1.66702
G1 X134.271 Y81.758 E1.69784
G1 X134.898 Y82.633 E1.73364
G1 X135.228 Y83.129 E1.75346
G1 X135.842 Y84.112 E1.79201
G1 X136.225 Y84.758 E1.81699
G1 X136.527 Y85.305 E1.83777
G1 X137.071 Y86.367 E1.87745
G1 X137.382 Y87.01 E1.90121
G1 X137.64 Y87.586 E1.9222
G1 X138.09 Y88.686 E1.96173
G1 X138.354 Y89.37 E1.98612
G1 X138.563 Y89.968 E2.00719
G1 X138.921 Y91.113 E2.04709
G1 X139.12 Y91.801 E2.07091
G1 X139.265 Y92.36 E2.09012
G1 X139.487 Y93.338 E2.12347
G1 X139.669 Y94.235 E2.15391
G1 X139.771 Y94.813 E2.17344
G1 X139.864 Y95.455 E2.19501
G1 X140.021 Y96.746 E2.23827
G1 X140.077 Y97.399 E2.26007
G1 X140.139 Y98.616 E2.3006
G1 X140.159 Y99.347 E2.32492
G1 X140.158 Y99.97 E2.34564
G1 X140.119 Y101.119 E2.38388
G1 X140.079 Y101.874 E2.40902
G1 X140.023 Y102.513 E2.43036
G1 X139.886 Y103.674 E2.46924
G1 X139.782 Y104.409 E2.49393
G1 X139.674 Y105.038 E2.51516
G1 X139.436 Y106.198 E2.55454
G1 X139.283 Y106.867 E2.57737
G1 X139.125 Y107.48 E2.59842
G1 X138.766 Y108.697 E2.64063
G1 X138.565 Y109.327 E2.66262
G1 X138.354 Y109.928 E2.68381
G1 X137.926 Y111.023 E2.72291
G1 X137.623 Y111.756 E2.74929
G1 X137.363 Y112.329 E2.77022
G1 X136.88 Y113.313 E2.80668
G1 X136.526 Y114 E2.83238
G1 X136.218 Y114.553 E2.85343
G1 X135.627 Y115.54 E2.8917
G1 X135.222 Y116.182 E2.91694
G1 X134.899 Y116.665 E2.93627
G1 X133.047 Y119.278 E3.04279
G1 X131.632 Y121.394 E3.12746
G1 X130.305 Y123.506 E3.21042
G1 X129.014 Y125.698 E3.29503
G1 X127.812 Y127.874 E3.37771
G1 X126.638 Y130.15 E3.46289
G1 X125.569 Y132.375 E3.54499
G1 X125.006 Y133.64 E3.59104
G1 X124.892 Y133.868 E3.59952
G1 X124.545 Y134.627 E3.62728
G1 X124.116 Y135.46 E3.65844
G1 X123.577 Y136.314 E3.69203
G1 X122.986 Y137.086 E3.72437
G1 X122.272 Y137.869 E3.75961
G1 X121.524 Y138.561 E3.79351
G1 X120.697 Y139.2 E3.82827
G1 X119.876 Y139.723 E3.86064
G1 X119.075 Y140.141 E3.89069
G1 X118.11 Y140.541 E3.92544
G1 X117.18 Y140.829 E3.95782
G1 X116.227 Y141.035 E3.99025
G1 X115.331 Y141.149 E4.02029
G1 X114.745 Y141.184 E4.03981
G1 X114.144 Y141.199 E4.05981
G1 X112.974 Y141.202 E4.09872
G1 X111.185 Y141.18 E4.15823
G1 X108.543 Y141.184 E4.2461
G1 X107.749 Y141.2 E4.27252
G1 X106.133 Y141.2 E4.32627
G1 X105.436 Y141.188 E4.34945
G1 X104.463 Y141.128 E4.38188
G1 X103.5 Y140.981 E4.41428
G1 X102.555 Y140.749 E4.44664
G1 X101.633 Y140.435 E4.47904
G1 X100.742 Y140.04 E4.51145
G1 X99.891 Y139.569 E4.5438
G1 X99.085 Y139.024 E4.57616
G1 X98.334 Y138.417 E4.60828
G1 X97.781 Y137.894 E4.6336
G1 X97.1 Y137.164 E4.6668
G1 X96.543 Y136.453 E4.69684
G1 X95.971 Y135.572 E4.73178
G1 X95.47 Y134.607 E4.76794
G1 X94.066 Y131.539 E4.88016
G1 X92.949 Y129.275 E4.96413
G1 X91.776 Y127.062 E5.04743
G1 X90.541 Y124.882 E5.13077
G1 X89.211 Y122.681 E5.2163
G1 X87.887 Y120.623 E5.29769
G1 X86.422 Y118.482 E5.38398
G1 X85.051 Y116.56 E5.4625
G1 X84.716 Y116.073 E5.48216
G1 X84.202 Y115.249 E5.51446
G1 X83.607 Y114.19 E5.55486
G1 X82.965 Y112.988 E5.60019
G1 X82.525 Y112.059 E5.63437
G1 X82.167 Y111.196 E5.66545
G1 X81.569 Y109.667 E5.72006
G1 X81.244 Y108.696 E5.75411
G1 X80.923 Y107.549 E5.79373
G1 X80.575 Y106.2 E5.84006
G1 X80.373 Y105.218 E5.87341
G1 X80.191 Y104.053 E5.91263
G1 X80.004 Y102.639 E5.96007
G1 X79.92 Y101.63 E5.99374
G1 X79.88 Y100.449 E6.03305
G1 X79.862 Y99.055 E6.07941
G1 X79.897 Y98.044 E6.11306
G1 X79.994 Y96.905 E6.15108
G1 X80.146 Y95.484 E6.19861
G1 X80.302 Y94.475 E6.23257
G1 X80.496 Y93.527 E6.26475
G1 X80.857 Y91.951 E6.31853
G1 X81.128 Y90.985 E6.3519
G1 X81.515 Y89.828 E6.39248
G1 X81.977 Y88.54 E6.43799
G1 X82.368 Y87.598 E6.47191
G1 X82.875 Y86.528 E6.51129
G1 X83.505 Y85.271 E6.55806
G1 X83.98 Y84.425 E6.59033
G1 X84.646 Y83.366 E6.63194
G1 X85.398 Y82.23 E6.67725
G1 X85.985 Y81.427 E6.71033
G1 X86.787 Y80.436 E6.75273
G1 X87.705 Y79.356 E6.79988
G0 F6000 X87.998 Y79.628
G1 F1200 X88.626 Y78.951 E6.83059
G1 X89.364 Y78.223 E6.86507
G1 X90.058 Y77.568 E6.89681
G1 X90.771 Y76.957 E6.92804
G1 X91.535 Y76.411 E6.95927
G1 X92.348 Y75.933 E6.99064
G1 X93.441 Y75.431 E7.03065
G1 X93.749 Y75.31 E7.04165
G1 X94.604 Y75.018 E7.0717
G1 X95.549 Y74.787 E7.10406
G1 X96.478 Y74.646 E7.13531
G1 X97.422 Y74.588 E7.16677
G1 X98.757 Y74.649 E7.21122
G1 X100.085 Y74.795 E7.25565
G1 X102.651 Y75.047 E7.34141
G1 X105.178 Y75.223 E7.42566
G1 X107.699 Y75.327 E7.50958
G1 X110.223 Y75.36 E7.59354
G1 X112.768 Y75.321 E7.67819
G1 X115.274 Y75.211 E7.76162
G1 X117.83 Y75.027 E7.84686
G1 X120.351 Y74.775 E7.93112
G1 X121.246 Y74.67 E7.96109
G1 X122.183 Y74.604 E7.99234
G1 X123.121 Y74.621 E8.02354
G1 X124.054 Y74.72 E8.05475
G1 X124.941 Y74.893 E8.0848
G1 X125.881 Y75.166 E8.11736
G1 X126.987 Y75.614 E8.15705
G1 X127.279 Y75.753 E8.16781
G1 X128.108 Y76.194 E8.19904
G1 X128.893 Y76.706 E8.23021
G1 X129.626 Y77.28 E8.26117
G1 X130.002 Y77.619 E8.27801
G1 X130.876 Y78.451 E8.31815
G1 X131.391 Y78.964 E8.34232
G1 X131.808 Y79.404 E8.36249
G1 X132.568 Y80.259 E8.40053
G1 X133.016 Y80.787 E8.42357
G1 X133.394 Y81.259 E8.44368
G1 X133.946 Y81.991 E8.47417
G1 X134.565 Y82.855 E8.50952
G1 X134.889 Y83.341 E8.52895
G1 X135.498 Y84.316 E8.56718
G1 X135.875 Y84.952 E8.59177
G1 X136.171 Y85.487 E8.61211
G1 X136.711 Y86.541 E8.6515
G1 X137.017 Y87.173 E8.67485
G1 X137.27 Y87.738 E8.69544
G1 X137.717 Y88.83 E8.73469
G1 X137.976 Y89.502 E8.75864
G1 X138.181 Y90.088 E8.77929
G1 X138.537 Y91.224 E8.81889
G1 X138.733 Y91.902 E8.84236
G1 X138.875 Y92.449 E8.86116
G1 X139.095 Y93.418 E8.89421
G1 X139.275 Y94.304 E8.92428
G1 X139.375 Y94.871 E8.94343
G1 X139.467 Y95.503 E8.96467
G1 X139.622 Y96.78 E9.00745
G1 X139.678 Y97.433 E9.02925
G1 X139.739 Y98.627 E9.06902
G1 X139.759 Y99.346 E9.09294
G1 X139.758 Y99.957 E9.11326
G1 X139.72 Y101.097 E9.1512
G1 X139.68 Y101.84 E9.17595
G1 X139.626 Y102.466 E9.19684
G1 X139.49 Y103.618 E9.23543
G1 X139.388 Y104.341 E9.25971
G1 X139.282 Y104.958 E9.28053
G1 X139.046 Y106.109 E9.31961
G1 X138.896 Y106.767 E9.34206
G1 X138.741 Y107.367 E9.36267
G1 X138.385 Y108.576 E9.40459
G1 X138.188 Y109.194 E9.42616
G1 X137.981 Y109.783 E9.44693
G1 X137.557 Y110.87 E9.48573
G1 X137.258 Y111.591 E9.5117
G1 X137.004 Y112.153 E9.53221
G1 X136.525 Y113.13 E9.5684
G1 X136.176 Y113.806 E9.5937
G1 X135.875 Y114.348 E9.61432
G1 X135.289 Y115.327 E9.65227
G1 X134.89 Y115.96 E9.67716
G1 X134.573 Y116.434 E9.69612
G1 X132.714 Y119.056 E9.80303
G1 X131.299 Y121.172 E9.88769
G1 X129.966 Y123.293 E9.97101
G1 X128.669 Y125.495 E10.05601
G1 X127.462 Y127.681 E10.13906
G1 X126.277 Y129.977 E10.225
G1 X125.208 Y132.202 E10.3071
G1 X124.648 Y133.461 E10.35293
G1 X124.534 Y133.689 E10.36141
G1 X124.189 Y134.444 E10.38902
G1 X123.76 Y135.277 E10.42018
G1 X123.259 Y136.071 E10.45141
G1 X122.69 Y136.817 E10.48262
G1 X122 Y137.575 E10.51671
G1 X121.252 Y138.267 E10.5506
G1 X120.482 Y138.863 E10.58299
G1 X119.691 Y139.368 E10.6142
G1 X118.89 Y139.786 E10.64425
G1 X117.991 Y140.159 E10.67662
G1 X117.095 Y140.438 E10.70784
G1 X116.177 Y140.638 E10.73908
G1 X115.281 Y140.752 E10.76913
G1 X114.735 Y140.784 E10.78732
G1 X114.143 Y140.799 E10.80701
G1 X112.979 Y140.802 E10.84573
G1 X111.189 Y140.78 E10.90527
G1 X108.535 Y140.784 E10.99354
G1 X107.741 Y140.8 E11.01995
G1 X106.139 Y140.8 E11.07324
G1 X105.46 Y140.789 E11.09582
G1 X104.523 Y140.732 E11.12705
G1 X103.595 Y140.592 E11.15826
G1 X102.683 Y140.37 E11.18948
G1 X101.794 Y140.069 E11.2207
G1 X100.935 Y139.69 E11.25192
G1 X100.114 Y139.237 E11.28311
G1 X99.336 Y138.713 E11.31431
G1 X98.609 Y138.126 E11.34539
G1 X98.056 Y137.603 E11.3707
G1 X97.415 Y136.917 E11.40193
G1 X96.858 Y136.206 E11.43197
G1 X96.326 Y135.387 E11.46445
G1 X95.834 Y134.441 E11.49992
G1 X94.43 Y131.373 E11.61214
G1 X93.307 Y129.098 E11.69652
G1 X92.124 Y126.865 E11.78057
G1 X90.889 Y124.685 E11.86391
G1 X89.553 Y122.474 E11.94983
G1 X88.217 Y120.397 E12.03196
G1 X86.752 Y118.256 E12.11825
G1 X85.381 Y116.333 E12.1968
G1 X85.046 Y115.846 E12.21646
G1 X84.551 Y115.053 E12.24755
G1 X83.96 Y114.001 E12.28768
G1 X83.327 Y112.817 E12.33234
G1 X82.887 Y111.888 E12.36653
G1 X82.539 Y111.05 E12.39671
G1 X81.948 Y109.54 E12.45064
G1 X81.629 Y108.588 E12.48403
G1 X81.31 Y107.449 E12.52338
G1 X80.967 Y106.119 E12.56906
G1 X80.768 Y105.156 E12.60177
G1 X80.588 Y104 E12.64068
G1 X80.403 Y102.606 E12.68745
G1 X80.32 Y101.616 E12.72049
G1 X80.28 Y100.444 E12.7595
G1 X80.262 Y99.069 E12.80523
G1 X80.296 Y98.078 E12.83821
G1 X80.392 Y96.947 E12.87596
G1 X80.541 Y95.545 E12.92286
G1 X80.694 Y94.555 E12.95618
G1 X80.886 Y93.616 E12.98805
G1 X81.242 Y92.059 E13.04118
G1 X81.507 Y91.112 E13.07388
G1 X81.891 Y89.963 E13.11418
G1 X82.347 Y88.693 E13.15906
G1 X82.73 Y87.769 E13.19233
G1 X83.233 Y86.707 E13.23141
G1 X83.854 Y85.467 E13.27753
G1 X84.329 Y84.621 E13.3098
G1 X84.98 Y83.587 E13.35044
G1 X85.721 Y82.466 E13.39514
G1 X86.296 Y81.679 E13.42756
G1 X87.092 Y80.695 E13.46965
G1 X87.998 Y79.628 E13.51621
G0 F6000 X88.291 Y79.9
G1 F1200 X88.907 Y79.236 E13.54633
G1 X89.639 Y78.514 E13.58053
G1 X90.319 Y77.871 E13.61166
G1 X91.004 Y77.282 E13.6417
G1 X91.738 Y76.755 E13.67176
G1 X92.515 Y76.296 E13.70177
G1 X93.587 Y75.803 E13.74102
G1 X93.878 Y75.689 E13.75141
G1 X94.733 Y75.397 E13.78146
G1 X95.61 Y75.182 E13.8115
G1 X96.503 Y75.045 E13.84154
G1 X97.404 Y74.988 E13.87157
G1 X98.713 Y75.047 E13.91515
G1 X100.041 Y75.193 E13.95959
G1 X102.62 Y75.446 E14.04578
G1 X105.162 Y75.623 E14.13053
G1 X107.683 Y75.727 E14.21445
G1 X110.224 Y75.76 E14.29897
G1 X112.786 Y75.721 E14.38419
G1 X115.292 Y75.611 E14.46762
G1 X117.863 Y75.426 E14.55336
G1 X120.391 Y75.173 E14.63786
G1 X121.275 Y75.069 E14.66746
G1 X122.176 Y75.004 E14.69751
G1 X123.079 Y75.019 E14.72755
G1 X123.977 Y75.113 E14.75758
G1 X124.864 Y75.286 E14.78764
G1 X125.731 Y75.537 E14.81766
G1 X126.837 Y75.985 E14.85735
G1 X127.092 Y76.106 E14.86673
G1 X127.89 Y76.529 E14.89677
G1 X128.647 Y77.021 E14.9268
G1 X129.358 Y77.577 E14.95682
G1 X129.726 Y77.909 E14.97331
G1 X130.594 Y78.734 E15.01314
G1 X131.101 Y79.239 E15.03694
G1 X131.509 Y79.67 E15.05668
G1 X132.263 Y80.518 E15.09442
G1 X132.704 Y81.037 E15.11707
G1 X133.075 Y81.5 E15.1368
G1 X133.621 Y82.224 E15.16696
G1 X134.232 Y83.077 E15.20186
G1 X134.55 Y83.553 E15.2209
G1 X135.154 Y84.52 E15.25882
G1 X135.525 Y85.146 E15.28302
G1 X135.815 Y85.67 E15.30294
G1 X136.351 Y86.715 E15.34201
G1 X136.652 Y87.336 E15.36496
G1 X136.9 Y87.89 E15.38515
G1 X137.344 Y88.973 E15.42408
G1 X137.598 Y89.634 E15.44763
G1 X137.799 Y90.208 E15.46786
G1 X138.153 Y91.335 E15.50715
G1 X138.346 Y92.003 E15.53027
G1 X138.485 Y92.538 E15.54866
G1 X138.703 Y93.498 E15.5814
G1 X138.881 Y94.373 E15.6111
G1 X138.979 Y94.929 E15.62988
G1 X139.07 Y95.551 E15.65079
G1 X139.223 Y96.814 E15.6931
G1 X139.279 Y97.467 E15.7149
G1 X139.339 Y98.638 E15.7539
G1 X139.359 Y99.345 E15.77742
G1 X139.358 Y99.944 E15.79735
G1 X139.321 Y101.075 E15.83498
G1 X139.281 Y101.806 E15.85933
G1 X139.229 Y102.419 E15.87979
G1 X139.094 Y103.562 E15.91807
G1 X138.994 Y104.273 E15.94196
G1 X138.89 Y104.878 E15.96237
G1 X138.656 Y106.02 E16.00114
G1 X138.509 Y106.667 E16.02321
G1 X138.357 Y107.254 E16.04338
G1 X138.004 Y108.455 E16.08502
G1 X137.811 Y109.061 E16.10617
G1 X137.608 Y109.638 E16.12651
G1 X137.188 Y110.717 E16.16502
G1 X136.893 Y111.427 E16.1906
G1 X136.645 Y111.977 E16.21066
G1 X136.17 Y112.946 E16.24655
G1 X135.826 Y113.612 E16.27149
G1 X135.532 Y114.143 E16.29167
G1 X134.951 Y115.114 E16.32931
G1 X134.558 Y115.738 E16.35384
G1 X134.247 Y116.203 E16.37244
G1 X132.381 Y118.834 E16.47973
G1 X130.966 Y120.95 E16.56439
G1 X129.627 Y123.08 E16.64807
G1 X128.324 Y125.292 E16.73346
G1 X127.106 Y127.498 E16.81727
G1 X125.922 Y129.794 E16.90319
G1 X124.842 Y132.04 E16.98608
G1 X124.29 Y133.282 E17.03129
G1 X124.176 Y133.51 E17.03976
G1 X123.833 Y134.261 E17.06722
G1 X123.421 Y135.064 E17.09724
G1 X122.94 Y135.829 E17.1273
G1 X122.394 Y136.548 E17.15733
G1 X121.728 Y137.281 E17.19027
G1 X120.98 Y137.973 E17.22416
G1 X120.266 Y138.526 E17.2542
G1 X119.506 Y139.013 E17.28422
G1 X118.705 Y139.431 E17.31427
G1 X117.871 Y139.777 E17.3443
G1 X117.009 Y140.047 E17.37434
G1 X116.127 Y140.241 E17.40438
G1 X115.231 Y140.355 E17.43442
G1 X114.725 Y140.384 E17.45128
G1 X114.142 Y140.399 E17.47068
G1 X112.984 Y140.402 E17.50919
G1 X111.193 Y140.38 E17.56876
G1 X108.527 Y140.384 E17.65744
G1 X107.733 Y140.4 E17.68385
G1 X106.145 Y140.4 E17.73667
G1 X105.484 Y140.39 E17.75865
G1 X104.582 Y140.336 E17.78871
G1 X103.689 Y140.203 E17.81874
G1 X102.811 Y139.991 E17.84878
G1 X101.955 Y139.703 E17.87882
G1 X101.128 Y139.34 E17.90886
G1 X100.337 Y138.905 E17.93888
G1 X99.587 Y138.402 E17.96892
G1 X98.884 Y137.835 E17.99896
G1 X98.348 Y137.329 E18.02347
G1 X97.73 Y136.67 E18.05352
G1 X97.173 Y135.959 E18.08356
G1 X96.681 Y135.202 E18.11359
G1 X96.198 Y134.275 E18.14836
G1 X94.794 Y131.207 E18.26058
G1 X93.665 Y128.921 E18.34538
G1 X92.472 Y126.668 E18.43017
G1 X91.237 Y124.488 E18.5135
G1 X89.895 Y122.267 E18.59981
G1 X88.547 Y120.171 E18.6827
G1 X87.082 Y118.03 E18.76898
G1 X85.711 Y116.106 E18.84756
G1 X85.376 Y115.619 E18.86722
G1 X84.9 Y114.857 E18.8971
G1 X84.313 Y113.812 E18.93697
G1 X83.68 Y112.628 E18.98162
G1 X83.256 Y111.734 E19.01453
G1 X82.911 Y110.904 E19.04443
G1 X82.327 Y109.413 E19.09769
G1 X82.014 Y108.48 E19.13042
G1 X81.697 Y107.349 E19.16948
G1 X81.359 Y106.038 E19.21451
G1 X81.16 Y105.075 E19.24722
G1 X80.985 Y103.947 E19.28519
