;FLAVOR:Marlin
;TIME:876
;Filament used: 0.477108m
;Layer height: 0.2
;MINX:88.017
;MINY:89.475
;MINZ:0.2
;MAXX:131.985
;MAXY:130.525
;MAXZ:7.6
;TARGET_MACHINE.NAME:Creality Ender-3 Pro
;Generated with Cura_SteamEngine 5.6.0
M82 ;absolute extrusion mode
; Ender 3 Custom Start G-code
G92 E0 ; Reset Extruder
G28 ; Home all axes
G1 Z5.0 F3000 ; Move Z Axis up a bit during heating to not damage bed
M104 S175 ; Start heating up the nozzle most of the way
M190 S60 ; Start heating the bed, wait until target temperature reached
M109 S200 ; Finish heating the nozzle
G1 Z2.0 F3000 ; Move Z Axis up little to prevent scratching of Heat Bed
G1 X0.1 Y20 Z0.3 F5000.0 ; Move to start position
G1 X0.1 Y200.0 Z0.3 F1500.0 E15 ; Draw the first line
G1 X0.4 Y200.0 Z0.3 F5000.0 ; Move to side a little
G1 X0.4 Y20 Z0.3 F1500.0 E30 ; Draw the second line
G92 E0 ; Reset Extruder
G1 Z2.0 F3000 ; Move Z Axis up little to prevent scratching of Heat Bed
G1 X5 Y20 Z0.3 F5000.0 ; Move over to prevent blob squish
G92 E0
G92 E0
G1 F1500 E-6.5
;LAYER_COUNT:38
;LAYER:0
M107
G0 F6000 X96.735 Y92.696 Z0.2
;TYPE:SKIRT
G1 F1500 E0
G1 F1200 X97.51 Y91.995 E0.03476
G1 X98.288 Y91.41 E0.06713
G1 X99.114 Y90.896 E0.09949
G1 X99.984 Y90.457 E0.1319
G1 X100.889 Y90.096 E0.16431
G1 X101.82 Y89.817 E0.19663
G1 X102.704 Y89.633 E0.22667
G1 X103.73 Y89.512 E0.26103
G1 X104.345 Y89.486 E0.2815
G1 X105.188 Y89.475 E0.30954
G1 X114.803 Y89.475 E0.62934
G1 X115.685 Y89.488 E0.65868
G1 X116.657 Y89.547 E0.69106
G1 X117.62 Y89.693 E0.72346
G1 X118.568 Y89.924 E0.75591
G1 X119.424 Y90.212 E0.78595
G1 X120.38 Y90.631 E0.82067
G1 X121.233 Y91.102 E0.85308
G1 X122.04 Y91.647 E0.88547
G1 X122.795 Y92.26 E0.91781
G1 X123.495 Y92.938 E0.95022
G1 X124.115 Y93.655 E0.98175
G1 X124.932 Y94.839 E1.0296
G1 X125.35 Y95.539 E1.05671
G1 X130.202 Y103.939 E1.37936
G1 X130.609 Y104.666 E1.40707
G1 X131.028 Y105.505 E1.43826
G1 X131.397 Y106.444 E1.47182
G1 X131.671 Y107.379 E1.50422
G1 X131.862 Y108.334 E1.53662
G1 X131.966 Y109.301 E1.56896
G1 X131.985 Y110.276 E1.6014
G1 X131.917 Y111.247 E1.63377
G1 X131.764 Y112.21 E1.6662
G1 X131.526 Y113.153 E1.69855
G1 X131.206 Y114.072 E1.73092
G1 X130.815 Y114.945 E1.76273
G1 X130.588 Y115.372 E1.77882
G1 X130.254 Y115.968 E1.80154
G1 X125.002 Y125.052 E2.15054
G1 X124.475 Y125.871 E2.18293
G1 X123.878 Y126.641 E2.21534
G1 X123.265 Y127.304 E2.24537
G1 X122.49 Y128.005 E2.28013
G1 X121.712 Y128.59 E2.3125
G1 X120.886 Y129.104 E2.34486
G1 X120.016 Y129.543 E2.37727
G1 X119.111 Y129.904 E2.40968
G1 X118.18 Y130.183 E2.442
G1 X117.296 Y130.367 E2.47204
G1 X116.27 Y130.488 E2.5064
G1 X115.655 Y130.514 E2.52687
G1 X114.802 Y130.525 E2.55524
G1 X105.051 Y130.524 E2.87956
G1 X104.315 Y130.512 E2.90405
G1 X103.343 Y130.453 E2.93643
G1 X102.38 Y130.307 E2.96883
G1 X101.432 Y130.076 E3.00128
G1 X100.576 Y129.788 E3.03132
G1 X99.62 Y129.369 E3.06604
G1 X98.767 Y128.898 E3.09845
G1 X97.96 Y128.353 E3.13084
G1 X97.205 Y127.74 E3.16318
G1 X96.505 Y127.062 E3.19559
G1 X95.885 Y126.345 E3.22712
G1 X95.064 Y125.156 E3.27518
G1 X94.702 Y124.55 E3.29866
G1 X89.724 Y115.93 E3.62973
G1 X89.389 Y115.33 E3.65259
G1 X88.97 Y114.491 E3.68378
G1 X88.602 Y113.552 E3.71733
G1 X88.336 Y112.651 E3.74857
G1 X88.138 Y111.66 E3.78218
G1 X88.034 Y110.692 E3.81456
G1 X88.017 Y109.719 E3.84693
G1 X88.085 Y108.748 E3.87931
G1 X88.238 Y107.785 E3.91174
G1 X88.476 Y106.841 E3.94412
G1 X88.803 Y105.907 E3.97703
G1 X89.377 Y104.695 E4.02163
G1 X89.736 Y104.05 E4.04619
G1 X94.998 Y94.948 E4.39587
G1 X95.525 Y94.129 E4.42826
G1 X96.122 Y93.359 E4.46067
G1 X96.735 Y92.696 E4.4907
G0 F6000 X97.029 Y92.968
G1 F1200 X97.751 Y92.314 E4.5231
G1 X98.5 Y91.749 E4.55431
G1 X99.295 Y91.253 E4.58547
G1 X100.133 Y90.828 E4.61672
G1 X101.004 Y90.479 E4.64793
G1 X101.902 Y90.209 E4.67912
G1 X102.786 Y90.025 E4.70915
G1 X103.747 Y89.912 E4.74134
G1 X104.35 Y89.886 E4.76141
G1 X105.193 Y89.875 E4.78945
G1 X114.797 Y89.875 E5.10888
G1 X115.661 Y89.887 E5.13762
G1 X116.598 Y89.943 E5.16884
G1 X117.526 Y90.082 E5.20005
G1 X118.44 Y90.303 E5.23133
G1 X119.296 Y90.591 E5.26137
G1 X120.187 Y90.981 E5.29372
G1 X121.01 Y91.434 E5.32496
G1 X121.788 Y91.958 E5.35616
G1 X122.517 Y92.548 E5.38735
G1 X123.192 Y93.2 E5.41857
G1 X123.812 Y93.917 E5.45009
G1 X124.589 Y95.044 E5.49562
G1 X125.004 Y95.739 E5.52255
G1 X129.853 Y104.134 E5.84499
G1 X130.251 Y104.845 E5.8721
G1 X130.67 Y105.684 E5.90329
G1 X131.013 Y106.557 E5.93448
G1 X131.279 Y107.458 E5.96573
G1 X131.464 Y108.378 E5.99694
G1 X131.566 Y109.31 E6.02813
G1 X131.586 Y110.249 E6.05936
G1 X131.522 Y111.185 E6.09057
G1 X131.376 Y112.113 E6.12181
G1 X131.148 Y113.022 E6.15298
G1 X130.841 Y113.909 E6.1842
G1 X130.462 Y114.757 E6.2151
G1 X130.239 Y115.177 E6.23091
G1 X129.908 Y115.768 E6.25344
G1 X124.665 Y124.836 E6.60183
G1 X124.159 Y125.626 E6.63303
G1 X123.584 Y126.369 E6.66428
G1 X122.971 Y127.032 E6.69431
G1 X122.249 Y127.686 E6.72671
G1 X121.5 Y128.251 E6.75792
G1 X120.705 Y128.747 E6.78908
G1 X119.867 Y129.172 E6.82034
G1 X118.996 Y129.521 E6.85154
G1 X118.098 Y129.791 E6.88273
G1 X117.214 Y129.975 E6.91276
G1 X116.253 Y130.088 E6.94495
G1 X115.65 Y130.114 E6.96502
G1 X114.802 Y130.125 E6.99323
G1 X105.057 Y130.124 E7.31735
G1 X104.339 Y130.113 E7.34123
G1 X103.402 Y130.057 E7.37245
G1 X102.474 Y129.918 E7.40366
G1 X101.56 Y129.697 E7.43494
G1 X100.704 Y129.409 E7.46498
G1 X99.813 Y129.019 E7.49733
G1 X98.99 Y128.566 E7.52857
G1 X98.212 Y128.042 E7.55977
G1 X97.483 Y127.452 E7.59096
G1 X96.808 Y126.8 E7.62218
G1 X96.188 Y126.083 E7.6537
G1 X95.407 Y124.951 E7.69945
G1 X95.048 Y124.35 E7.72273
G1 X90.073 Y115.735 E8.05361
G1 X89.747 Y115.151 E8.07586
G1 X89.328 Y114.312 E8.10705
G1 X88.986 Y113.439 E8.13823
G1 X88.72 Y112.538 E8.16948
G1 X88.536 Y111.617 E8.20072
G1 X88.434 Y110.684 E8.23193
G1 X88.416 Y109.746 E8.26314
G1 X88.48 Y108.81 E8.29434
G1 X88.626 Y107.882 E8.32559
G1 X88.854 Y106.972 E8.35679
G1 X89.165 Y106.078 E8.38827
G1 X89.739 Y104.866 E8.43288
G1 X90.082 Y104.25 E8.45633
G1 X95.335 Y95.164 E8.8054
G1 X95.841 Y94.374 E8.8366
G1 X96.416 Y93.631 E8.86785
G1 X97.029 Y92.968 E8.89788
G0 F6000 X97.323 Y93.24
G1 F1200 X97.992 Y92.633 E8.92793
G1 X98.712 Y92.088 E8.95796
G1 X99.477 Y91.609 E8.98798
G1 X100.282 Y91.199 E9.01803
G1 X101.12 Y90.862 E9.04807
G1 X101.984 Y90.601 E9.07809
G1 X102.868 Y90.417 E9.10812
G1 X103.765 Y90.312 E9.13816
G1 X104.355 Y90.286 E9.1578
G1 X105.198 Y90.275 E9.18584
G1 X114.792 Y90.275 E9.50494
G1 X115.638 Y90.286 E9.53308
G1 X116.54 Y90.339 E9.56313
G1 X117.433 Y90.471 E9.59316
G1 X118.312 Y90.682 E9.62322
G1 X119.168 Y90.97 E9.65326
G1 X119.995 Y91.332 E9.68329
G1 X120.787 Y91.766 E9.71333
G1 X121.537 Y92.269 E9.74336
G1 X122.24 Y92.836 E9.7734
G1 X122.89 Y93.462 E9.80342
G1 X123.483 Y94.144 E9.83347
G1 X124.246 Y95.249 E9.87814
G1 X124.658 Y95.939 E9.90487
G1 X129.504 Y104.33 E10.22715
G1 X129.893 Y105.024 E10.25361
G1 X130.298 Y105.831 E10.28364
G1 X130.63 Y106.671 E10.31369
G1 X130.887 Y107.537 E10.34373
G1 X131.066 Y108.422 E10.37376
G1 X131.166 Y109.319 E10.40378
G1 X131.187 Y110.222 E10.43382
G1 X131.127 Y111.123 E10.46386
G1 X130.988 Y112.016 E10.49392
G1 X130.77 Y112.892 E10.52394
G1 X130.476 Y113.746 E10.55398
G1 X130.108 Y114.57 E10.584
G1 X129.89 Y114.982 E10.5995
G1 X129.562 Y115.568 E10.62184
G1 X124.328 Y124.621 E10.96964
G1 X123.842 Y125.382 E10.99967
G1 X123.29 Y126.097 E11.02972
G1 X122.677 Y126.76 E11.05975
G1 X122.008 Y127.367 E11.08979
G1 X121.288 Y127.912 E11.11983
G1 X120.523 Y128.391 E11.14985
G1 X119.718 Y128.801 E11.1799
G1 X118.88 Y129.138 E11.20994
G1 X118.016 Y129.399 E11.23996
G1 X117.132 Y129.583 E11.26999
G1 X116.235 Y129.688 E11.30003
G1 X115.645 Y129.714 E11.31967
G1 X114.802 Y129.725 E11.34771
G1 X105.063 Y129.724 E11.67163
G1 X104.362 Y129.714 E11.69495
G1 X103.46 Y129.661 E11.725
G1 X102.567 Y129.529 E11.75502
G1 X101.688 Y129.318 E11.78509
G1 X100.832 Y129.03 E11.81513
G1 X100.005 Y128.668 E11.84515
G1 X99.213 Y128.234 E11.87519
G1 X98.463 Y127.731 E11.90523
G1 X97.76 Y127.164 E11.93527
G1 X97.11 Y126.538 E11.96528
G1 X96.517 Y125.856 E11.99534
G1 X95.75 Y124.746 E12.04022
G1 X95.394 Y124.15 E12.06331
G1 X90.422 Y115.54 E12.39399
G1 X90.105 Y114.972 E12.41563
G1 X89.7 Y114.165 E12.44566
G1 X89.369 Y113.325 E12.47569
G1 X89.112 Y112.459 E12.50574
G1 X88.934 Y111.573 E12.53579
G1 X88.834 Y110.676 E12.56581
G1 X88.815 Y109.773 E12.59585
G1 X88.875 Y108.872 E12.62589
G1 X89.014 Y107.979 E12.65595
G1 X89.232 Y107.103 E12.68597
G1 X89.527 Y106.249 E12.71602
G1 X90.101 Y105.037 E12.76062
G1 X90.428 Y104.45 E12.78297
G1 X95.672 Y95.379 E13.13146
G1 X96.158 Y94.618 E13.1615
G1 X96.71 Y93.903 E13.19154
G1 X97.323 Y93.24 E13.22157
G1 F1500 E6.72157
;MESH:Printed_Nut_mic.STL
G0 F6000 X105.563 Y106.774
G0 X109.808 Y116.565
;TYPE:WALL-INNER
G1 F1500 E13.22157
G1 F1200 X109.469 Y116.549 E13.23286
G1 X108.99 Y116.49 E13.24891
G1 X108.66 Y116.433 E13.26005
G1 X108.235 Y116.327 E13.27462
G1 X107.86 Y116.21 E13.28768
G1 X107.141 Y115.912 E13.31357
G1 X106.518 Y115.57 E13.33721
G1 X106.133 Y115.301 E13.35283
G1 X105.855 Y114.984 E13.36685
G1 X105.423 Y114.347 E13.39245
G1 X105.236 Y114.004 E13.40545
G1 X105.075 Y113.675 E13.41763
G1 X104.876 Y113.168 E13.43574
G1 X104.761 Y112.782 E13.44914
G1 X104.68 Y112.445 E13.46067
G1 X104.557 Y111.636 E13.48788
G1 X104.582 Y111.093 E13.50596
G1 X104.631 Y110.611 E13.52208
G1 X104.708 Y110.214 E13.53553
G1 X104.704 Y109.851 E13.5476
G1 X104.751 Y109.207 E13.56908
G1 X104.912 Y108.529 E13.59226
G1 X105.001 Y108.247 E13.60209
G1 X105.296 Y107.557 E13.62705
G1 X105.708 Y106.882 E13.65335
G1 X106.242 Y106.26 E13.68062
G1 X106.906 Y105.694 E13.70964
G1 X107.641 Y105.254 E13.73813
G1 X108.15 Y105.035 E13.75656
G1 X108.741 Y104.853 E13.77713
G1 X109.277 Y104.75 E13.79528
G1 X109.629 Y104.72 E13.80703
G1 X109.783 Y104.666 E13.81246
G1 X110.359 Y104.522 E13.83221
G1 X111.009 Y104.438 E13.85401
G1 X111.78 Y104.445 E13.87965
G1 X112.396 Y104.526 E13.90031
G1 X113.018 Y104.678 E13.92161
G1 X113.489 Y104.843 E13.93821
G1 X113.849 Y104.992 E13.95117
G1 X114.522 Y105.352 E13.97655
G1 X114.855 Y105.584 E13.99005
G1 X115.19 Y105.974 E14.00715
G1 X115.601 Y106.556 E14.03085
G1 X115.957 Y107.234 E14.05632
G1 X116.221 Y107.877 E14.07944
G1 X116.391 Y108.481 E14.10031
G1 X116.447 Y108.744 E14.10925
G1 X116.529 Y109.276 E14.12716
G1 X116.558 Y109.639 E14.13927
G1 X116.567 Y110.203 E14.15803
G1 X116.533 Y110.666 E14.17347
G1 X116.49 Y111.009 E14.18497
G1 X116.374 Y111.592 E14.20474
G1 X116.289 Y111.896 E14.21524
G1 X116.125 Y112.374 E14.23204
G1 X115.872 Y112.956 E14.25315
G1 X115.43 Y113.695 E14.28179
G1 X115.001 Y114.263 E14.30547
G1 X114.445 Y114.84 E14.33212
G1 X113.967 Y115.238 E14.35281
G1 X113.245 Y115.718 E14.38164
G1 X112.549 Y116.055 E14.40736
G1 X111.852 Y116.309 E14.43204
G1 X111.212 Y116.458 E14.45389
G1 X110.91 Y116.505 E14.46406
G1 X110.387 Y116.558 E14.48154
G1 X109.808 Y116.565 E14.5008
G1 F1500 E8.0008
G0 F6000 X109.8 Y116.664
G0 X110.464 Y116.735
G0 X110.462 Y118.744
G0 X115.151 Y118.925
G1 F1500 E14.5008
G1 F1200 X120.305 Y110 E14.84359
G1 X115.151 Y101.075 E15.18638
G1 X104.849 Y101.076 E15.52902
G1 X99.696 Y110 E15.87176
G1 X104.849 Y118.924 E16.21451
G1 X115.151 Y118.925 E16.55715
G0 F6000 X115.382 Y119.325
;TYPE:WALL-OUTER
G1 F1200 X120.767 Y110 E16.9153
G1 X115.382 Y100.675 E17.27346
G1 X104.618 Y100.676 E17.63147
G1 X99.234 Y110 E17.98957
G1 X104.618 Y119.324 E18.34768
G1 X115.382 Y119.325 E18.70569
G1 F1500 E12.20569
G0 F6000 X115.146 Y118.733
G0 X109.798 Y118.744
G0 X109.799 Y116.746
G0 X109.824 Y116.165
G1 F1500 E18.70569
G1 F1200 X109.518 Y116.152 E18.71588
G1 X109.056 Y116.095 E18.73136
G1 X108.757 Y116.045 E18.74144
G1 X108.322 Y115.936 E18.75636
G1 X108.012 Y115.84 E18.76715
G1 X107.333 Y115.561 E18.79157
G1 X106.69 Y115.206 E18.816
G1 X106.385 Y114.981 E18.8286
G1 X106.162 Y114.727 E18.83985
G1 X105.774 Y114.155 E18.86284
G1 X105.596 Y113.828 E18.87522
G1 X105.428 Y113.485 E18.88792
G1 X105.265 Y113.07 E18.90275
G1 X105.142 Y112.657 E18.91708
G1 X105.067 Y112.336 E18.92805
G1 X104.96 Y111.595 E18.95295
G1 X104.98 Y111.131 E18.9684
G1 X105.02 Y110.708 E18.98253
G1 X105.109 Y110.249 E18.99808
G1 X105.103 Y109.88 E19.01035
G1 X105.151 Y109.256 E19.03117
G1 X105.294 Y108.648 E19.05194
G1 X105.38 Y108.376 E19.06143
G1 X105.638 Y107.765 E19.08349
G1 X106.045 Y107.104 E19.10931
G1 X106.536 Y106.535 E19.13431
G1 X107.133 Y106.027 E19.16038
G1 X107.799 Y105.622 E19.1863
G1 X108.329 Y105.395 E19.20548
G1 X108.796 Y105.251 E19.22173
G1 X109.346 Y105.144 E19.24037
G1 X109.718 Y105.115 E19.25278
G1 X109.88 Y105.054 E19.25854
G1 X110.48 Y104.906 E19.27909
G1 X111.058 Y104.835 E19.29846
G1 X111.728 Y104.842 E19.32075
G1 X112.365 Y104.927 E19.34212
G1 X112.868 Y105.05 E19.35934
G1 X113.339 Y105.214 E19.37593
G1 X113.644 Y105.337 E19.38687
G1 X114.293 Y105.68 E19.41129
G1 X114.564 Y105.869 E19.42227
G1 X114.864 Y106.206 E19.43728
G1 X115.254 Y106.756 E19.45971
G1 X115.588 Y107.388 E19.48348
G1 X115.836 Y107.986 E19.50501
G1 X115.999 Y108.565 E19.52502
G1 X116.057 Y108.839 E19.53433
G1 X116.13 Y109.308 E19.55012
G1 X116.159 Y109.683 E19.56263
G1 X116.168 Y110.175 E19.579
G1 X116.136 Y110.617 E19.59374
G1 X116.097 Y110.932 E19.60429
G1 X115.992 Y111.47 E19.62253
G1 X115.91 Y111.767 E19.63277
G1 X115.757 Y112.217 E19.64858
G1 X115.527 Y112.752 E19.66795
G1 X115.111 Y113.453 E19.69506
G1 X114.693 Y114.005 E19.71809
G1 X114.189 Y114.532 E19.74235
G1 X113.711 Y114.93 E19.76303
G1 X113.017 Y115.388 E19.79069
G1 X112.426 Y115.673 E19.81251
G1 X111.761 Y115.919 E19.8361
G1 X111.14 Y116.064 E19.85731
G1 X110.868 Y116.107 E19.86647
G1 X110.382 Y116.158 E19.88272
G1 X109.824 Y116.165 E19.90128
G1 F1500 E13.40128
G0 F6000 X109.8 Y116.664
G0 X110.464 Y116.735
G0 X110.462 Y118.744
G0 X114.941 Y118.564
;TYPE:SKIN
G1 F1500 E19.90128
G1 F1200 X105.057 Y118.563 E20.23002
G1 X100.114 Y110.002 E20.55882
G1 X105.059 Y101.436 E20.88779
G1 X114.941 Y101.435 E21.21646
G1 X119.888 Y110 E21.54544
G1 X114.941 Y118.564 E21.87439
G1 F1500 E15.37439
G0 F6000 X114.939 Y118.824
G0 X109.799 Y118.744
G0 X109.799 Y116.746
G0 X109.795 Y116.925
G1 F1500 E21.87439
G1 F1200 X110.484 Y116.914 E21.89731
G1 X111.146 Y116.842 E21.91946
G1 X111.933 Y116.662 E21.94631
G1 X112.694 Y116.384 E21.97325
G1 X113.42 Y116.035 E22.00005
G1 X114.11 Y115.58 E22.02754
G1 X114.689 Y115.105 E22.05245
G1 X115.27 Y114.504 E22.08025
G1 X115.728 Y113.898 E22.10551
G1 X116.184 Y113.139 E22.13496
G1 X116.457 Y112.514 E22.15765
G1 X116.645 Y111.967 E22.17688
G1 X116.729 Y111.66 E22.18747
G1 X116.845 Y111.069 E22.2075
G1 X116.894 Y110.676 E22.22068
G1 X116.927 Y110.232 E22.23548
G1 X116.919 Y109.656 E22.25464
G1 X116.881 Y109.184 E22.27039
G1 X116.806 Y108.71 E22.28635
G1 X116.73 Y108.355 E22.29843
G1 X116.562 Y107.762 E22.31893
G1 X116.287 Y107.087 E22.34317
G1 X115.922 Y106.389 E22.36937
G1 X115.485 Y105.769 E22.3946
G1 X115.093 Y105.309 E22.4147
G1 X114.649 Y105.007 E22.43256
G1 X113.998 Y104.663 E22.45705
G1 X113.594 Y104.498 E22.47156
G1 X113.071 Y104.317 E22.48997
G1 X112.528 Y104.186 E22.50855
G1 X111.828 Y104.088 E22.53206
G1 X111.015 Y104.074 E22.5591
G1 X110.373 Y104.152 E22.58061
G1 X109.701 Y104.314 E22.6036
G1 X109.55 Y104.365 E22.6089
G1 X109.203 Y104.395 E22.62049
G1 X108.596 Y104.518 E22.64109
G1 X108.006 Y104.704 E22.66166
G1 X107.42 Y104.96 E22.68293
G1 X106.708 Y105.392 E22.71063
G1 X106.001 Y105.991 E22.74145
G1 X105.425 Y106.659 E22.77079
G1 X104.981 Y107.378 E22.7989
G1 X104.68 Y108.077 E22.82421
G1 X104.567 Y108.423 E22.83631
G1 X104.397 Y109.134 E22.86063
