;FLAVOR:Marlin
;TIME:3908
;Filament used: 1.90548m
;Layer height: 0.2
;MINX:96.07
;MINY:89.706
;MINZ:0.2
;MAXX:125.747
;MAXY:130.155
;MAXZ:53
;TARGET_MACHINE.NAME:Creality Ender-3 Pro
;Generated with Cura_SteamEngine 5.6.0
M82 ;absolute extrusion mode
; Ender 3 Custom Start G-code
G92 E0 ; Reset Extruder
G28 ; Home all axes
G1 Z5.0 F3000 ; Move Z Axis up a bit during heating to not damage bed
M104 S175 ; Start heating up the nozzle most of the way
M190 S60 ; Start heating the bed, wait until target temperature reached
M109 S200 ; Finish heating the nozzle
G1 Z2.0 F3000 ; Move Z Axis up little to prevent scratching of Heat Bed
G1 X0.1 Y20 Z0.3 F5000.0 ; Move to start position
G1 X0.1 Y200.0 Z0.3 F1500.0 E15 ; Draw the first line
G1 X0.4 Y200.0 Z0.3 F5000.0 ; Move to side a little
G1 X0.4 Y20 Z0.3 F1500.0 E30 ; Draw the second line
G92 E0 ; Reset Extruder
G1 Z2.0 F3000 ; Move Z Axis up little to prevent scratching of Heat Bed
G1 X5 Y20 Z0.3 F5000.0 ; Move over to prevent blob squish
G92 E0
G92 E0
G1 F1500 E-6.5
;LAYER_COUNT:265
;LAYER:0
M107
G0 F6000 X102.659 Y93.422 Z0.2
;TYPE:SKIRT
G1 F1500 E0
G1 F1200 X103.284 Y92.77 E0.03004
G1 X104.072 Y92.082 E0.06483
G1 X104.831 Y91.531 E0.09603
G1 X105.697 Y91.013 E0.12959
G1 X106.574 Y90.59 E0.16198
G1 X107.486 Y90.246 E0.19439
G1 X108.424 Y89.985 E0.22678
G1 X109.382 Y89.807 E0.25919
G1 X110.35 Y89.715 E0.29153
G1 X111.253 Y89.706 E0.32156
G1 X112.223 Y89.779 E0.35392
G1 X113.537 Y90.02 E0.39835
G1 X114.789 Y90.33 E0.44125
G1 X117.029 Y90.931 E0.51839
G1 X117.765 Y91.138 E0.54382
G1 X118.655 Y91.434 E0.57501
G1 X119.582 Y91.835 E0.6086
G1 X120.436 Y92.301 E0.64096
G1 X121.248 Y92.84 E0.67338
G1 X122.007 Y93.448 E0.70572
G1 X122.686 Y94.097 E0.73696
G1 X123.351 Y94.857 E0.77055
G1 X123.923 Y95.644 E0.80291
G1 X124.426 Y96.479 E0.83533
G1 X124.851 Y97.354 E0.86769
G1 X125.198 Y98.265 E0.90011
G1 X125.462 Y99.203 E0.93252
G1 X125.642 Y100.159 E0.96488
G1 X125.738 Y101.129 E0.9973
G1 X125.747 Y102.103 E1.02969
G1 X125.678 Y103.004 E1.05975
G1 X125.47 Y104.205 E1.10029
G1 X125.317 Y104.831 E1.12172
G1 X121.732 Y118.218 E1.58266
G1 X121.487 Y119.089 E1.61276
G1 X121.179 Y120.013 E1.64515
G1 X120.791 Y120.907 E1.67757
G1 X120.326 Y121.762 E1.70994
G1 X119.828 Y122.515 E1.73996
G1 X119.177 Y123.332 E1.77471
G1 X118.554 Y123.986 E1.80475
G1 X117.77 Y124.676 E1.83949
G1 X117.012 Y125.23 E1.87072
G1 X116.146 Y125.75 E1.90431
G1 X115.271 Y126.175 E1.93667
G1 X114.36 Y126.522 E1.96909
G1 X113.422 Y126.786 E2.0015
G1 X112.466 Y126.966 E2.03386
G1 X111.496 Y127.062 E2.06628
G1 X110.522 Y127.071 E2.09867
G1 X109.543 Y126.992 E2.13134
G1 X108.398 Y126.788 E2.17002
G1 X107.782 Y126.638 E2.19111
G1 X104.712 Y125.816 E2.29681
G1 X104.025 Y125.62 E2.32058
G1 X103.102 Y125.31 E2.35296
G1 X102.209 Y124.918 E2.3854
G1 X101.356 Y124.451 E2.41774
G1 X100.547 Y123.91 E2.45011
G1 X99.787 Y123.299 E2.48254
G1 X99.135 Y122.674 E2.51258
G1 X98.449 Y121.888 E2.54728
G1 X97.876 Y121.098 E2.57974
G1 X97.377 Y120.262 E2.61212
G1 X96.954 Y119.386 E2.64448
G1 X96.61 Y118.474 E2.6769
G1 X96.348 Y117.536 E2.70929
G1 X96.17 Y116.579 E2.74167
G1 X96.077 Y115.609 E2.77408
G1 X96.07 Y114.636 E2.80644
G1 X96.151 Y113.659 E2.83905
G1 X96.352 Y112.538 E2.87693
G1 X96.506 Y111.909 E2.89846
G1 X100.156 Y98.291 E3.36739
G1 X100.337 Y97.658 E3.38929
G1 X100.647 Y96.735 E3.42167
G1 X101.038 Y95.843 E3.45406
G1 X101.488 Y95.018 E3.48532
G1 X102.049 Y94.18 E3.51886
G1 X102.659 Y93.422 E3.55122
G0 F6000 X102.948 Y93.699
G1 F1200 X103.573 Y93.047 E3.58126
G1 X104.307 Y92.406 E3.61367
G1 X105.066 Y91.855 E3.64487
G1 X105.871 Y91.373 E3.67608
G1 X106.716 Y90.964 E3.7073
G1 X107.594 Y90.631 E3.73853
G1 X108.498 Y90.378 E3.76975
G1 X109.42 Y90.205 E3.80095
G1 X110.354 Y90.115 E3.83216
G1 X111.257 Y90.106 E3.8622
G1 X112.192 Y90.178 E3.89339
G1 X113.441 Y90.408 E3.93563
G1 X114.685 Y90.716 E3.97825
G1 X116.921 Y91.316 E4.05526
G1 X117.639 Y91.518 E4.08006
G1 X118.529 Y91.814 E4.11126
G1 X119.391 Y92.186 E4.14248
G1 X120.215 Y92.634 E4.17368
G1 X120.998 Y93.153 E4.20492
G1 X121.731 Y93.738 E4.23612
G1 X122.385 Y94.361 E4.26616
G1 X123.028 Y95.093 E4.29856
G1 X123.581 Y95.851 E4.32977
G1 X124.066 Y96.654 E4.36097
G1 X124.477 Y97.497 E4.39217
G1 X124.813 Y98.374 E4.4234
G1 X125.069 Y99.278 E4.45465
G1 X125.244 Y100.199 E4.48583
G1 X125.338 Y101.133 E4.51705
G1 X125.348 Y102.072 E4.54829
G1 X125.279 Y102.973 E4.57834
G1 X125.081 Y104.111 E4.61676
G1 X124.931 Y104.728 E4.63788
G1 X121.347 Y118.11 E5.09865
G1 X121.107 Y118.963 E5.12813
G1 X120.812 Y119.854 E5.15934
G1 X120.439 Y120.716 E5.19058
G1 X119.992 Y121.541 E5.22179
G1 X119.494 Y122.294 E5.25182
G1 X118.887 Y123.056 E5.28422
G1 X118.264 Y123.71 E5.31426
G1 X117.533 Y124.353 E5.34664
G1 X116.805 Y124.887 E5.37667
G1 X115.971 Y125.39 E5.40906
G1 X115.128 Y125.801 E5.44026
G1 X114.251 Y126.137 E5.47149
G1 X113.347 Y126.393 E5.50274
G1 X112.426 Y126.568 E5.53392
G1 X111.492 Y126.662 E5.56515
G1 X110.553 Y126.672 E5.59638
G1 X109.613 Y126.598 E5.62774
G1 X108.493 Y126.399 E5.66558
G1 X107.877 Y126.249 E5.68666
G1 X104.821 Y125.431 E5.79188
G1 X104.152 Y125.241 E5.81502
G1 X103.262 Y124.943 E5.84623
G1 X102.401 Y124.567 E5.87748
G1 X101.578 Y124.118 E5.90866
G1 X100.797 Y123.598 E5.93987
G1 X100.064 Y123.01 E5.97112
G1 X99.412 Y122.385 E6.00116
G1 X98.772 Y121.653 E6.0335
G1 X98.219 Y120.893 E6.06476
G1 X97.737 Y120.088 E6.09597
G1 X97.328 Y119.244 E6.12717
G1 X96.995 Y118.366 E6.1584
G1 X96.741 Y117.462 E6.18963
G1 X96.568 Y116.54 E6.22083
G1 X96.477 Y115.606 E6.25204
G1 X96.469 Y114.668 E6.28324
G1 X96.545 Y113.729 E6.31457
G1 X96.741 Y112.633 E6.35161
G1 X96.892 Y112.013 E6.37283
G1 X100.541 Y98.4 E6.84158
G1 X100.716 Y97.785 E6.86285
G1 X101.014 Y96.895 E6.89407
G1 X101.389 Y96.035 E6.92527
G1 X101.839 Y95.21 E6.95653
G1 X102.361 Y94.43 E6.98775
G1 X102.948 Y93.699 E7.01893
G0 F6000 X103.237 Y93.976
G1 F1200 X103.862 Y93.324 E7.04897
G1 X104.542 Y92.729 E7.07902
G1 X105.272 Y92.198 E7.10904
G1 X106.046 Y91.733 E7.13908
G1 X106.859 Y91.338 E7.16914
G1 X107.703 Y91.016 E7.19918
G1 X108.572 Y90.771 E7.22921
G1 X109.459 Y90.603 E7.25924
G1 X110.358 Y90.515 E7.28928
G1 X111.261 Y90.506 E7.31932
G1 X112.161 Y90.577 E7.34935
G1 X113.345 Y90.796 E7.38939
G1 X114.581 Y91.102 E7.43174
G1 X116.813 Y91.701 E7.50861
G1 X117.514 Y91.898 E7.53283
G1 X118.371 Y92.181 E7.56284
G1 X119.201 Y92.538 E7.5929
G1 X119.995 Y92.968 E7.62293
G1 X120.749 Y93.466 E7.65298
G1 X121.455 Y94.028 E7.683
G1 X122.109 Y94.651 E7.71304
G1 X122.705 Y95.329 E7.74306
G1 X123.239 Y96.058 E7.77312
G1 X123.707 Y96.83 E7.80314
G1 X124.104 Y97.641 E7.83318
G1 X124.428 Y98.484 E7.86322
G1 X124.676 Y99.353 E7.89327
G1 X124.846 Y100.24 E7.92331
G1 X124.938 Y101.138 E7.95333
G1 X124.949 Y102.041 E7.98337
G1 X124.88 Y102.942 E8.01343
G1 X124.692 Y104.017 E8.04972
G1 X124.545 Y104.625 E8.07053
G1 X120.962 Y118.002 E8.53113
G1 X120.727 Y118.838 E8.56002
G1 X120.445 Y119.696 E8.59005
G1 X120.087 Y120.526 E8.62012
G1 X119.658 Y121.32 E8.65014
G1 X119.16 Y122.073 E8.68016
G1 X118.597 Y122.78 E8.71022
G1 X117.974 Y123.434 E8.74026
G1 X117.296 Y124.03 E8.77029
G1 X116.568 Y124.564 E8.80032
G1 X115.795 Y125.031 E8.83036
G1 X114.984 Y125.428 E8.86039
G1 X114.141 Y125.752 E8.89043
G1 X113.272 Y126 E8.92048
G1 X112.385 Y126.17 E8.95052
G1 X111.487 Y126.262 E8.98055
G1 X110.584 Y126.273 E9.01058
G1 X109.683 Y126.204 E9.04064
G1 X108.587 Y126.01 E9.07766
G1 X107.98 Y125.863 E9.09843
G1 X104.93 Y125.046 E9.20345
G1 X104.278 Y124.861 E9.22599
G1 X103.421 Y124.576 E9.25603
G1 X102.592 Y124.216 E9.28609
G1 X101.799 Y123.785 E9.31611
G1 X101.047 Y123.285 E9.34614
G1 X100.341 Y122.721 E9.3762
G1 X99.689 Y122.096 E9.40624
G1 X99.095 Y121.417 E9.43624
G1 X98.562 Y120.687 E9.46631
G1 X98.097 Y119.913 E9.49634
G1 X97.702 Y119.101 E9.52637
G1 X97.38 Y118.257 E9.55642
G1 X97.134 Y117.388 E9.58646
G1 X96.966 Y116.501 E9.61648
G1 X96.877 Y115.602 E9.64653
G1 X96.868 Y114.699 E9.67656
G1 X96.939 Y113.799 E9.70659
G1 X97.13 Y112.727 E9.74281
G1 X97.278 Y112.117 E9.76369
G1 X100.926 Y98.509 E10.23227
G1 X101.096 Y97.911 E10.25295
G1 X101.381 Y97.054 E10.28299
G1 X101.741 Y96.226 E10.31302
G1 X102.172 Y95.432 E10.34307
G1 X102.673 Y94.68 E10.37312
G1 X103.237 Y93.976 E10.40312
G1 F1500 E3.90312
;MESH:stand_rs-d435_s01RA.stl
G0 F6000 X110.051 Y101.291
G0 X110.771 Y114.306
;TYPE:WALL-INNER
G1 F1500 E10.40312
G1 F1200 X113.928 Y102.522 E10.80888
G1 X111.224 Y101.798 E10.90198
G1 X108.066 Y113.581 E11.30772
G1 X110.771 Y114.306 E11.40086
G0 F6000 X111.054 Y114.796
;TYPE:WALL-OUTER
G1 F1200 X114.418 Y102.239 E11.83324
G1 X110.941 Y101.308 E11.95296
G1 X107.576 Y113.864 E12.38531
G1 X111.054 Y114.796 E12.50507
G0 F6000 X110.863 Y114.465
G0 X110.767 Y113.931
G0 X110.516 Y113.864
;TYPE:SKIN
G1 F1200 X108.508 Y113.327 E12.5742
G1 X111.477 Y102.239 E12.95598
G1 X113.487 Y102.777 E13.02519
G1 X110.516 Y113.864 E13.40696
G0 F6000 X110.767 Y113.931
G0 X108.277 Y113.46
G0 X108.409 Y112.692
G0 X108.852 Y112.811
G1 F1200 X109.395 Y113.355 E13.43252
G0 F6000 X110.168 Y113.562
G1 F1200 X108.971 Y112.365 E13.48882
G0 F6000 X109.091 Y111.919
G1 F1200 X110.462 Y113.29 E13.55331
G0 F6000 X110.581 Y112.844
G1 F1200 X109.21 Y111.473 E13.6178
G0 F6000 X109.33 Y111.027
G1 F1200 X110.701 Y112.398 E13.68229
G0 F6000 X110.82 Y111.951
G1 F1200 X109.449 Y110.58 E13.74677
G0 F6000 X109.569 Y110.134
G1 F1200 X110.94 Y111.505 E13.81126
G0 F6000 X111.059 Y111.059
G1 F1200 X109.688 Y109.688 E13.87575
G0 F6000 X109.808 Y109.242
G1 F1200 X111.179 Y110.613 E13.94024
G0 F6000 X111.298 Y110.167
G1 F1200 X109.927 Y108.796 E14.00472
G0 F6000 X110.047 Y108.349
G1 F1200 X111.418 Y109.721 E14.06924
G0 F6000 X111.538 Y109.275
G1 F1200 X110.166 Y107.903 E14.13377
G0 F6000 X110.286 Y107.457
G1 F1200 X111.657 Y108.829 E14.19828
G0 F6000 X111.777 Y108.383
G1 F1200 X110.405 Y107.011 E14.26282
G0 F6000 X110.525 Y106.565
G1 F1200 X111.896 Y107.937 E14.32733
G0 F6000 X112.016 Y107.49
G1 F1200 X110.644 Y106.119 E14.39184
G0 F6000 X110.764 Y105.672
G1 F1200 X112.135 Y107.044 E14.45635
G0 F6000 X112.255 Y106.598
G1 F1200 X110.883 Y105.226 E14.52088
G0 F6000 X111.003 Y104.78
G1 F1200 X112.374 Y106.152 E14.5854
G0 F6000 X112.494 Y105.706
G1 F1200 X111.122 Y104.334 E14.64993
G0 F6000 X111.242 Y103.888
G1 F1200 X112.613 Y105.259 E14.71442
G0 F6000 X112.733 Y104.813
G1 F1200 X111.361 Y103.441 E14.77895
G0 F6000 X111.481 Y102.995
G1 F1200 X112.852 Y104.367 E14.84346
G0 F6000 X112.972 Y103.921
G1 F1200 X111.6 Y102.549 E14.908
G0 F6000 X112.277 Y102.66
G1 F1200 X113.092 Y103.475 E14.94633
G0 F6000 X113.212 Y103.029
G1 F1200 X113.05 Y102.867 E14.95395
M104 S200
G1 F1500 E8.45395
;MESH:NONMESH
G0 F300 X113.05 Y102.867 Z0.4
G0 F6000 X113.169 Y102.423
G0 X111.093 Y101.57
G0 X110.051 Y101.291
G0 X103.237 Y93.976
;TIME_ELAPSED:31.275959
;LAYER:1
M106 S85
;TYPE:SKIRT
G1 F1500 E14.95395
G1 F1200 X103.862 Y93.324 E14.98399
G1 X104.542 Y92.729 E15.01405
G1 X105.272 Y92.198 E15.04407
G1 X106.046 Y91.733 E15.0741
G1 X106.859 Y91.338 E15.10416
G1 X107.703 Y91.016 E15.13421
G1 X108.572 Y90.771 E15.16424
G1 X109.459 Y90.603 E15.19427
G1 X110.358 Y90.515 E15.22431
G1 X111.261 Y90.506 E15.25434
G1 X112.161 Y90.577 E15.28437
G1 X113.345 Y90.796 E15.32442
G1 X114.581 Y91.102 E15.36677
G1 X116.813 Y91.701 E15.44363
G1 X117.514 Y91.898 E15.46785
G1 X118.371 Y92.181 E15.49787
G1 X119.201 Y92.538 E15.52792
G1 X119.995 Y92.968 E15.55795
G1 X120.749 Y93.466 E15.58801
G1 X121.455 Y94.028 E15.61802
G1 X122.109 Y94.651 E15.64806
G1 X122.705 Y95.329 E15.67809
G1 X123.239 Y96.058 E15.70814
G1 X123.707 Y96.83 E15.73817
G1 X124.104 Y97.641 E15.7682
G1 X124.428 Y98.484 E15.79824
G1 X124.676 Y99.353 E15.8283
G1 X124.846 Y100.24 E15.85834
G1 X124.938 Y101.138 E15.88836
G1 X124.949 Y102.041 E15.9184
G1 X124.88 Y102.942 E15.94845
G1 X124.692 Y104.017 E15.98475
G1 X124.545 Y104.625 E16.00555
G1 X120.962 Y118.002 E16.46616
G1 X120.727 Y118.838 E16.49504
G1 X120.445 Y119.696 E16.52508
G1 X120.087 Y120.526 E16.55514
G1 X119.658 Y121.32 E16.58516
G1 X119.16 Y122.073 E16.61519
G1 X118.597 Y122.78 E16.64525
G1 X117.974 Y123.434 E16.67529
G1 X117.296 Y124.03 E16.70531
G1 X116.568 Y124.564 E16.73534
G1 X115.795 Y125.031 E16.76538
G1 X114.984 Y125.428 E16.79541
G1 X114.141 Y125.752 E16.82545
G1 X113.272 Y126 E16.85551
G1 X112.385 Y126.17 E16.88555
G1 X111.487 Y126.262 E16.91557
G1 X110.584 Y126.273 E16.94561
G1 X109.683 Y126.204 E16.97566
G1 X108.587 Y126.01 E17.01268
G1 X107.98 Y125.863 E17.03345
G1 X104.93 Y125.046 E17.13847
G1 X104.278 Y124.861 E17.16102
G1 X103.421 Y124.576 E17.19105
G1 X102.592 Y124.216 E17.22112
G1 X101.799 Y123.785 E17.25113
G1 X101.047 Y123.285 E17.28117
G1 X100.341 Y122.721 E17.31122
G1 X99.689 Y122.096 E17.34126
G1 X99.095 Y121.417 E17.37127
G1 X98.562 Y120.687 E17.40133
G1 X98.097 Y119.913 E17.43136
G1 X97.702 Y119.101 E17.4614
G1 X97.38 Y118.257 E17.49144
G1 X97.134 Y117.388 E17.52148
G1 X96.966 Y116.501 E17.55151
G1 X96.877 Y115.602 E17.58156
G1 X96.868 Y114.699 E17.61159
G1 X96.939 Y113.799 E17.64162
G1 X97.13 Y112.727 E17.67783
G1 X97.278 Y112.117 E17.69871
G1 X100.926 Y98.509 E18.1673
G1 X101.096 Y97.911 E18.18797
G1 X101.381 Y97.054 E18.21801
G1 X101.741 Y96.226 E18.24804
G1 X102.172 Y95.432 E18.27809
G1 X102.673 Y94.68 E18.30815
G1 X103.237 Y93.976 E18.33815
G1 F1500 E11.83815
;MESH:stand_rs-d435_s01RA.stl
G0 F7500 X110.102 Y101.098
G0 X110.595 Y114.96
;TYPE:WALL-INNER
G1 F1500 E18.33815
G1 F1350 X113.98 Y102.329 E18.77308
G1 X111.276 Y101.604 E18.86619
G1 X107.89 Y114.236 E19.30117
G1 X110.595 Y114.96 E19.3943
G0 F7500 X110.878 Y115.45
;TYPE:WALL-OUTER
G1 F1350 X114.47 Y102.046 E19.85585
G1 X110.993 Y101.114 E19.97558
G1 X107.4 Y114.519 E20.43717
G1 X110.878 Y115.45 E20.55692
G0 F7500 X110.687 Y115.12
G0 X110.272 Y114.769
G0 X110.339 Y114.519
;TYPE:SKIN
G1 F1350 X108.332 Y113.982 E20.62602
G1 X111.53 Y102.046 E21.03702
G1 X113.538 Y102.583 E21.10615
G1 X110.339 Y114.519 E21.51715
G0 F7500 X109.834 Y114.176
G1 F1350 X110.364 Y113.646 E21.54208
G0 F7500 X110.571 Y112.874
G1 F1350 X109.388 Y114.057 E21.59773
G0 F7500 X108.942 Y113.937
G1 F1350 X110.778 Y112.101 E21.68409
G0 F7500 X110.986 Y111.328
G1 F1350 X108.614 Y113.699 E21.79564
G0 F7500 X108.821 Y112.927
G1 F1350 X111.192 Y110.556 E21.90716
G0 F7500 X111.399 Y109.783
G1 F1350 X109.028 Y112.154 E22.01869
G0 F7500 X109.235 Y111.381
G1 F1350 X111.606 Y109.01 E22.13021
G0 F7500 X111.814 Y108.237
G1 F1350 X109.442 Y110.609 E22.24178
G0 F7500 X109.649 Y109.836
G1 F1350 X112.021 Y107.464 E22.35335
G0 F7500 X112.228 Y106.691
G1 F1350 X109.856 Y109.063 E22.46493
G0 F7500 X110.063 Y108.29
G1 F1350 X112.435 Y105.918 E22.5765
G0 F7500 X112.642 Y105.146
G1 F1350 X110.271 Y107.517 E22.68802
G0 F7500 X110.477 Y106.745
G1 F1350 X112.849 Y104.373 E22.79959
G0 F7500 X113.057 Y103.6
G1 F1350 X110.684 Y105.972 E22.91119
G0 F7500 X110.892 Y105.199
G1 F1350 X113.264 Y102.827 E23.02276
G0 F7500 X112.905 Y102.62
G1 F1350 X111.099 Y104.426 E23.10771
G0 F7500 X111.306 Y103.654
G1 F1350 X112.458 Y102.501 E23.16192
G0 F7500 X112.012 Y102.381
G1 F1350 X111.513 Y102.881 E23.18541
G1 F1500 E16.68541
;MESH:NONMESH
G0 F300 X111.513 Y102.881 Z0.6
G0 F7500 X111.07 Y102.762
G0 X111.144 Y101.376
G0 X110.102 Y101.098
G0 X103.237 Y93.976
;TIME_ELAPSED:46.983193
;LAYER:2
M106 S170
;TYPE:SKIRT
G1 F1500 E23.18541
G1 F1200 X103.862 Y93.324 E23.21545
G1 X104.542 Y92.729 E23.24551
G1 X105.272 Y92.198 E23.27553
G1 X106.046 Y91.733 E23.30556
G1 X106.859 Y91.338 E23.33562
G1 X107.703 Y91.016 E23.36567
G1 X108.572 Y90.771 E23.3957
G1 X109.459 Y90.603 E23.42573
