;FLAVOR:Marlin
;TIME:3029
;Filament used: 1.20984m
;Layer height: 0.2
;MINX:90.038
;MINY:89.247
;MINZ:0.2
;MAXX:129.962
;MAXY:130.753
;MAXZ:50
;TARGET_MACHINE.NAME:Creality Ender-3 Pro
;Generated with Cura_SteamEngine 5.6.0
M82 ;absolute extrusion mode
; Ender 3 Custom Start G-code
G92 E0 ; Reset Extruder
G28 ; Home all axes
G1 Z5.0 F3000 ; Move Z Axis up a bit during heating to not damage bed
M104 S175 ; Start heating up the nozzle most of the way
M190 S60 ; Start heating the bed, wait until target temperature reached
M109 S200 ; Finish heating the nozzle
G1 Z2.0 F3000 ; Move Z Axis up little to prevent scratching of Heat Bed
G1 X0.1 Y20 Z0.3 F5000.0 ; Move to start position
G1 X0.1 Y200.0 Z0.3 F1500.0 E15 ; Draw the first line
G1 X0.4 Y200.0 Z0.3 F5000.0 ; Move to side a little
G1 X0.4 Y20 Z0.3 F1500.0 E30 ; Draw the second line
G92 E0 ; Reset Extruder
G1 Z2.0 F3000 ; Move Z Axis up little to prevent scratching of Heat Bed
G1 X5 Y20 Z0.3 F5000.0 ; Move over to prevent blob squish
G92 E0
G92 E0
G1 F1500 E-6.5
;LAYER_COUNT:250
;LAYER:0
M107
G0 F6000 X94.49 Y96.323 Z0.2
;TYPE:SKIRT
G1 F1500 E0
G1 F1200 X95.21 Y95.669 E0.03235
G1 X95.993 Y95.074 E0.06506
G1 X96.978 Y94.468 E0.10353
G1 X97.685 Y94.086 E0.13025
G1 X99.891 Y92.859 E0.21421
G1 X102.135 Y91.527 E0.301
G1 X102.867 Y91.076 E0.3296
G1 X103.727 Y90.598 E0.36233
G1 X104.52 Y90.235 E0.39133
G1 X105.416 Y89.885 E0.42333
G1 X106.386 Y89.605 E0.45691
G1 X107.347 Y89.417 E0.48948
G1 X108.437 Y89.307 E0.52591
G1 X109.491 Y89.257 E0.56101
G1 X110.208 Y89.247 E0.58486
G1 X110.907 Y89.267 E0.60812
G1 X111.448 Y89.297 E0.62614
G1 X112.757 Y89.449 E0.66997
G1 X113.183 Y89.527 E0.68437
G1 X114.132 Y89.743 E0.71674
G1 X115.058 Y90.042 E0.74911
G1 X115.926 Y90.41 E0.78047
G1 X116.992 Y90.989 E0.82081
G1 X119.675 Y92.607 E0.92502
G1 X121.923 Y93.872 E1.01082
G1 X122.642 Y94.267 E1.0381
G1 X123.259 Y94.631 E1.06193
G1 X123.777 Y94.962 E1.08237
G1 X124.572 Y95.524 E1.11475
G1 X125.325 Y96.164 E1.14762
G1 X126.245 Y97.128 E1.19194
G1 X126.447 Y97.369 E1.2024
G1 X127.187 Y98.363 E1.24362
G1 X127.599 Y99.001 E1.26888
G1 X128.084 Y99.818 E1.30048
G1 X128.396 Y100.396 E1.32233
G1 X128.64 Y100.876 E1.34024
G1 X129.141 Y102.019 E1.38174
G1 X129.292 Y102.429 E1.39628
G1 X129.586 Y103.357 E1.42865
G1 X129.798 Y104.307 E1.46103
G1 X129.922 Y105.243 E1.49243
G1 X129.962 Y106.516 E1.53479
G1 X129.935 Y107.501 E1.56757
G1 X129.9 Y110.076 E1.65322
G1 X129.938 Y111.857 E1.71247
G1 X129.951 Y113.27 E1.75947
G1 X129.94 Y113.927 E1.78132
G1 X129.917 Y114.409 E1.79737
G1 X129.822 Y115.414 E1.83095
G1 X129.66 Y116.303 E1.861
G1 X129.288 Y117.586 E1.90543
G1 X129.181 Y117.883 E1.91593
G1 X128.815 Y118.767 E1.94775
G1 X128.593 Y119.216 E1.96441
G1 X128.196 Y119.975 E1.9929
G1 X127.897 Y120.51 E2.01329
G1 X127.517 Y121.131 E2.0375
G1 X127.218 Y121.59 E2.05572
G1 X126.45 Y122.627 E2.09864
G1 X126.162 Y122.968 E2.11349
G1 X125.502 Y123.684 E2.14588
G1 X124.782 Y124.338 E2.17823
G1 X124.031 Y124.909 E2.20961
G1 X122.996 Y125.546 E2.25003
G1 X122.334 Y125.903 E2.27504
G1 X120.11 Y127.14 E2.35969
G1 X117.868 Y128.472 E2.44642
G1 X117.151 Y128.914 E2.47444
G1 X116.332 Y129.37 E2.50561
G1 X115.459 Y129.773 E2.5376
G1 X114.584 Y130.115 E2.56884
G1 X113.614 Y130.395 E2.60242
G1 X112.653 Y130.583 E2.63499
G1 X111.563 Y130.693 E2.67143
G1 X110.509 Y130.743 E2.70652
G1 X109.792 Y130.753 E2.73037
G1 X109.093 Y130.733 E2.75363
G1 X108.552 Y130.703 E2.77165
G1 X107.243 Y130.551 E2.81548
G1 X106.817 Y130.473 E2.82989
G1 X105.868 Y130.257 E2.86226
G1 X104.942 Y129.958 E2.89462
G1 X104.074 Y129.59 E2.92598
G1 X103.008 Y129.011 E2.96633
G1 X100.311 Y127.384 E3.07109
G1 X98.078 Y126.128 E3.1563
G1 X97.348 Y125.727 E3.184
G1 X96.728 Y125.361 E3.20795
G1 X96.217 Y125.034 E3.22813
G1 X95.421 Y124.472 E3.26054
G1 X94.67 Y123.832 E3.29336
G1 X93.77 Y122.891 E3.33666
G1 X93.573 Y122.656 E3.34686
G1 X92.783 Y121.593 E3.39091
G1 X92.373 Y120.951 E3.41625
G1 X92.07 Y120.45 E3.43572
G1 X91.713 Y119.813 E3.46001
G1 X91.393 Y119.192 E3.48325
G1 X90.859 Y117.98 E3.5273
G1 X90.709 Y117.574 E3.54169
G1 X90.415 Y116.648 E3.57401
G1 X90.215 Y115.767 E3.60405
G1 X90.075 Y114.718 E3.63925
G1 X90.038 Y113.483 E3.68035
G1 X90.065 Y112.499 E3.71309
G1 X90.1 Y109.924 E3.79874
G1 X90.062 Y108.143 E3.85799
G1 X90.049 Y106.73 E3.90499
G1 X90.06 Y106.071 E3.92691
G1 X90.083 Y105.591 E3.94289
G1 X90.178 Y104.586 E3.97647
G1 X90.34 Y103.697 E4.00652
G1 X90.741 Y102.316 E4.05435
G1 X91.143 Y101.323 E4.08998
G1 X91.402 Y100.794 E4.10957
G1 X91.809 Y100.015 E4.13881
G1 X92.125 Y99.45 E4.16034
G1 X92.514 Y98.819 E4.18499
G1 X92.792 Y98.395 E4.20186
G1 X93.556 Y97.367 E4.24446
G1 X93.83 Y97.041 E4.25862
G1 X94.49 Y96.323 E4.29106
G0 F6000 X94.76 Y96.619
G1 F1200 X95.453 Y95.987 E4.32225
G1 X96.203 Y95.415 E4.35362
G1 X97.188 Y94.809 E4.39209
G1 X97.875 Y94.438 E4.41806
G1 X100.085 Y93.209 E4.50216
G1 X102.345 Y91.868 E4.58957
G1 X103.077 Y91.417 E4.61817
G1 X103.894 Y90.962 E4.64927
G1 X104.666 Y90.608 E4.67752
G1 X105.562 Y90.258 E4.70951
G1 X106.463 Y89.997 E4.74071
G1 X107.387 Y89.815 E4.77203
G1 X108.456 Y89.707 E4.80777
G1 X109.497 Y89.657 E4.84243
G1 X110.197 Y89.647 E4.86572
G1 X110.885 Y89.666 E4.88861
G1 X111.402 Y89.694 E4.90583
G1 X112.686 Y89.843 E4.94882
G1 X113.095 Y89.917 E4.96265
G1 X114.01 Y90.124 E4.99385
G1 X114.903 Y90.411 E5.02505
G1 X115.735 Y90.762 E5.05508
G1 X116.785 Y91.332 E5.09482
G1 X119.468 Y92.95 E5.19903
G1 X121.731 Y94.223 E5.28538
G1 X122.439 Y94.611 E5.31224
G1 X123.044 Y94.968 E5.3356
G1 X123.547 Y95.289 E5.35545
G1 X124.314 Y95.829 E5.38665
G1 X125.036 Y96.44 E5.41811
G1 X125.939 Y97.385 E5.46158
G1 X126.126 Y97.608 E5.47126
G1 X126.866 Y98.602 E5.51247
G1 X127.255 Y99.205 E5.53634
G1 X127.732 Y100.008 E5.56741
G1 X128.04 Y100.578 E5.58895
G1 X128.274 Y101.037 E5.60609
G1 X128.766 Y102.158 E5.64681
G1 X128.911 Y102.55 E5.66071
G1 X129.196 Y103.444 E5.69192
G1 X129.401 Y104.36 E5.72314
G1 X129.525 Y105.296 E5.75454
G1 X129.562 Y106.505 E5.79477
G1 X129.535 Y107.49 E5.82755
G1 X129.5 Y110.071 E5.9134
G1 X129.538 Y111.861 E5.97295
G1 X129.551 Y113.263 E6.01958
G1 X129.54 Y113.908 E6.04104
G1 X129.517 Y114.39 E6.05709
G1 X129.428 Y115.342 E6.08889
G1 X129.266 Y116.231 E6.11894
G1 X128.911 Y117.451 E6.1612
G1 X128.811 Y117.73 E6.17106
G1 X128.456 Y118.59 E6.20201
G1 X128.239 Y119.031 E6.21835
G1 X127.847 Y119.78 E6.24647
G1 X127.556 Y120.301 E6.26632
G1 X127.182 Y120.913 E6.29017
G1 X126.896 Y121.352 E6.3076
G1 X126.144 Y122.369 E6.34967
G1 X125.868 Y122.697 E6.36393
G1 X125.232 Y123.388 E6.39516
G1 X124.539 Y124.02 E6.42636
G1 X123.821 Y124.568 E6.4564
G1 X122.786 Y125.205 E6.49682
G1 X122.144 Y125.551 E6.52108
G1 X119.916 Y126.79 E6.60587
G1 X117.658 Y128.131 E6.69322
G1 X116.941 Y128.573 E6.72123
G1 X116.137 Y129.021 E6.75184
G1 X115.313 Y129.4 E6.78201
G1 X114.438 Y129.742 E6.81326
G1 X113.537 Y130.003 E6.84445
G1 X112.613 Y130.185 E6.87578
G1 X111.544 Y130.293 E6.91151
G1 X110.503 Y130.343 E6.94618
G1 X109.803 Y130.353 E6.96946
G1 X109.115 Y130.334 E6.99235
G1 X108.598 Y130.306 E7.00957
G1 X107.314 Y130.157 E7.05257
G1 X106.905 Y130.083 E7.06639
G1 X105.99 Y129.876 E7.09759
G1 X105.097 Y129.589 E7.12879
G1 X104.265 Y129.238 E7.15882
G1 X103.215 Y128.668 E7.19856
G1 X100.518 Y127.041 E7.30332
G1 X98.274 Y125.779 E7.38895
G1 X97.551 Y125.383 E7.41637
G1 X96.943 Y125.024 E7.43985
G1 X96.447 Y124.707 E7.45943
G1 X95.68 Y124.167 E7.49063
G1 X94.959 Y123.555 E7.52209
G1 X94.076 Y122.633 E7.56455
G1 X93.894 Y122.417 E7.57394
G1 X93.12 Y121.377 E7.61706
G1 X92.715 Y120.744 E7.64205
G1 X92.419 Y120.255 E7.66107
G1 X92.069 Y119.63 E7.68489
G1 X91.749 Y119.009 E7.70813
G1 X91.234 Y117.841 E7.75058
G1 X91.09 Y117.452 E7.76438
G1 X90.805 Y116.559 E7.79556
G1 X90.605 Y115.678 E7.8256
G1 X90.475 Y114.706 E7.85822
G1 X90.438 Y113.494 E7.89855
G1 X90.465 Y112.51 E7.93129
G1 X90.5 Y109.929 E8.01714
G1 X90.462 Y108.139 E8.07669
G1 X90.449 Y106.737 E8.12333
G1 X90.46 Y106.09 E8.14485
G1 X90.483 Y105.61 E8.16083
G1 X90.572 Y104.658 E8.19263
G1 X90.734 Y103.769 E8.22269
G1 X91.112 Y102.466 E8.26781
G1 X91.503 Y101.498 E8.30254
G1 X91.756 Y100.979 E8.32174
G1 X92.158 Y100.21 E8.3506
G1 X92.466 Y99.66 E8.37157
G1 X92.849 Y99.038 E8.39586
G1 X93.127 Y98.614 E8.41273
G1 X93.862 Y97.624 E8.45374
G1 X94.125 Y97.311 E8.46733
G1 X94.76 Y96.619 E8.49857
G0 F6000 X95.03 Y96.914
G1 F1200 X95.696 Y96.305 E8.52859
G1 X96.413 Y95.756 E8.55862
G1 X97.398 Y95.15 E8.59709
G1 X98.065 Y94.79 E8.6223
G1 X100.279 Y93.559 E8.70655
G1 X102.549 Y92.212 E8.79434
G1 X103.272 Y91.766 E8.8226
G1 X104.061 Y91.326 E8.85265
G1 X104.833 Y90.972 E8.88089
G1 X105.674 Y90.642 E8.91094
G1 X106.541 Y90.389 E8.94098
G1 X107.427 Y90.213 E8.97102
G1 X108.475 Y90.107 E9.00606
G1 X109.503 Y90.057 E9.04029
G1 X110.186 Y90.047 E9.06301
G1 X110.864 Y90.065 E9.08557
G1 X111.356 Y90.091 E9.10196
G1 X112.616 Y90.237 E9.14414
G1 X113.007 Y90.307 E9.15735
G1 X113.888 Y90.505 E9.18739
G1 X114.748 Y90.78 E9.21742
G1 X115.58 Y91.131 E9.24745
G1 X116.578 Y91.675 E9.28526
G1 X119.261 Y93.293 E9.38947
G1 X121.539 Y94.574 E9.47639
G1 X122.236 Y94.955 E9.50281
G1 X122.829 Y95.305 E9.52571
G1 X123.317 Y95.616 E9.54496
G1 X124.056 Y96.135 E9.57499
G1 X124.747 Y96.717 E9.60504
G1 X125.633 Y97.643 E9.64767
G1 X125.805 Y97.847 E9.65654
G1 X126.545 Y98.841 E9.69776
G1 X126.911 Y99.41 E9.72026
G1 X127.38 Y100.198 E9.75076
G1 X127.684 Y100.76 E9.77201
G1 X127.908 Y101.198 E9.78838
G1 X128.391 Y102.297 E9.8283
G1 X128.53 Y102.672 E9.8416
G1 X128.806 Y103.532 E9.87165
G1 X129.005 Y104.413 E9.90169
G1 X129.125 Y105.308 E9.93172
G1 X129.162 Y106.494 E9.97119
G1 X129.135 Y107.479 E10.00396
G1 X129.1 Y110.066 E10.09001
G1 X129.138 Y111.865 E10.14986
G1 X129.151 Y113.256 E10.19613
G1 X129.14 Y113.889 E10.21718
G1 X129.117 Y114.371 E10.23323
G1 X129.034 Y115.27 E10.26326
G1 X128.872 Y116.159 E10.29332
G1 X128.527 Y117.339 E10.33421
G1 X128.441 Y117.578 E10.34265
G1 X128.097 Y118.413 E10.37269
G1 X127.884 Y118.846 E10.38874
G1 X127.498 Y119.585 E10.41647
G1 X127.215 Y120.092 E10.43578
G1 X126.846 Y120.695 E10.4593
G1 X126.574 Y121.114 E10.47591
G1 X125.837 Y122.112 E10.51717
G1 X125.573 Y122.427 E10.53084
G1 X124.962 Y123.093 E10.56091
G1 X124.296 Y123.702 E10.59092
G1 X123.578 Y124.25 E10.62096
G1 X122.596 Y124.853 E10.65929
G1 X121.954 Y125.199 E10.68355
G1 X119.722 Y126.44 E10.76849
G1 X117.448 Y127.79 E10.85644
G1 X116.731 Y128.232 E10.88446
G1 X115.942 Y128.672 E10.91451
G1 X115.167 Y129.028 E10.94287
G1 X114.326 Y129.358 E10.97292
G1 X113.459 Y129.611 E11.00296
G1 X112.573 Y129.787 E11.033
G1 X111.525 Y129.893 E11.06804
G1 X110.497 Y129.943 E11.10227
G1 X109.814 Y129.953 E11.12499
G1 X109.136 Y129.935 E11.14755
G1 X108.644 Y129.909 E11.16393
G1 X107.384 Y129.763 E11.20612
G1 X106.993 Y129.693 E11.21933
G1 X106.112 Y129.495 E11.24937
G1 X105.252 Y129.22 E11.2794
G1 X104.42 Y128.869 E11.30943
G1 X103.422 Y128.325 E11.34724
G1 X100.725 Y126.698 E11.452
G1 X98.47 Y125.43 E11.53804
G1 X97.754 Y125.039 E11.56518
G1 X97.158 Y124.687 E11.5882
G1 X96.677 Y124.38 E11.60718
G1 X95.938 Y123.861 E11.63721
G1 X95.248 Y123.278 E11.66726
G1 X94.381 Y122.374 E11.70892
G1 X94.215 Y122.178 E11.71746
G1 X93.457 Y121.161 E11.75965
G1 X93.057 Y120.537 E11.7843
G1 X92.768 Y120.06 E11.80285
G1 X92.425 Y119.447 E11.82621
G1 X92.105 Y118.826 E11.84945
G1 X91.609 Y117.702 E11.89031
G1 X91.471 Y117.33 E11.90351
G1 X91.195 Y116.47 E11.93355
G1 X90.995 Y115.589 E11.9636
G1 X90.875 Y114.694 E11.99363
G1 X90.838 Y113.505 E12.0332
G1 X90.865 Y112.521 E12.06594
G1 X90.9 Y109.934 E12.15199
G1 X90.862 Y108.135 E12.21184
G1 X90.849 Y106.744 E12.2581
G1 X90.86 Y106.109 E12.27923
G1 X90.883 Y105.629 E12.29521
G1 X90.966 Y104.73 E12.32524
G1 X91.128 Y103.841 E12.35529
G1 X91.483 Y102.616 E12.39771
G1 X91.874 Y101.648 E12.43244
G1 X92.111 Y101.164 E12.45036
G1 X92.507 Y100.405 E12.47883
G1 X92.806 Y99.87 E12.49922
G1 X93.184 Y99.257 E12.52317
G1 X93.462 Y98.833 E12.54004
G1 X94.169 Y97.881 E12.57948
G1 X94.42 Y97.581 E12.59249
G1 X95.03 Y96.914 E12.62255
G1 F1500 E6.12255
;MESH:Connecting_Screw_Long.STL
G0 F6000 X101.348 Y105.834
G0 X109.057 Y118.302
;TYPE:WALL-INNER
G1 F1500 E12.62255
G1 F1200 X109.998 Y118.339 E12.65387
G1 X110.654 Y118.311 E12.67571
G1 X111.101 Y118.238 E12.69077
G1 X111.662 Y117.456 E12.72278
G1 X112.219 Y116.856 E12.75001
G1 X112.751 Y116.404 E12.77323
G1 X113.438 Y115.947 E12.80068
G1 X114.127 Y115.602 E12.8263
G1 X114.832 Y115.349 E12.85122
G1 X115.631 Y115.166 E12.87848
G1 X116.551 Y115.065 E12.90926
G1 X116.717 Y114.968 E12.91566
G1 X117.221 Y114.169 E12.94708
G1 X117.526 Y113.588 E12.9689
G1 X117.688 Y113.173 E12.98372
G1 X117.29 Y112.294 E13.01581
G1 X117.055 Y111.546 E13.04189
G1 X116.914 Y110.77 E13.06812
G1 X116.869 Y110.001 E13.09374
G1 X116.914 Y109.23 E13.11943
G1 X117.055 Y108.452 E13.14573
G1 X117.275 Y107.742 E13.17045
G1 X117.663 Y106.853 E13.20271
G1 X117.662 Y106.667 E13.2089
G1 X117.215 Y105.82 E13.24075
G1 X116.876 Y105.283 E13.26187
G1 X116.616 Y104.958 E13.27572
G1 X116.502 Y104.916 E13.27976
G1 X115.661 Y104.838 E13.30785
G1 X114.829 Y104.65 E13.33622
G1 X114.127 Y104.398 E13.36103
G1 X113.438 Y104.053 E13.38666
G1 X112.782 Y103.62 E13.4128
G1 X112.161 Y103.089 E13.43998
G1 X111.663 Y102.548 E13.46443
G1 X111.106 Y101.791 E13.49569
G1 X110.943 Y101.697 E13.50195
G1 X110.002 Y101.661 E13.53327
G1 X109.346 Y101.689 E13.55511
G1 X108.899 Y101.761 E13.57017
G1 X108.338 Y102.544 E13.6022
G1 X107.781 Y103.144 E13.62943
G1 X107.249 Y103.596 E13.65265
G1 X106.562 Y104.053 E13.6801
G1 X105.873 Y104.398 E13.70573
G1 X105.168 Y104.651 E13.73064
G1 X104.369 Y104.834 E13.7579
G1 X103.448 Y104.935 E13.78872
G1 X103.283 Y105.031 E13.79507
G1 X102.779 Y105.831 E13.82651
G1 X102.474 Y106.412 E13.84834
G1 X102.312 Y106.827 E13.86316
G1 X102.71 Y107.706 E13.89525
G1 X102.945 Y108.454 E13.92133
G1 X103.086 Y109.229 E13.94753
G1 X103.131 Y110.038 E13.97448
G1 X103.086 Y110.77 E13.99887
G1 X102.945 Y111.547 E14.02513
G1 X102.725 Y112.258 E14.04989
G1 X102.338 Y113.147 E14.08214
G1 X102.339 Y113.332 E14.08829
G1 X102.785 Y114.18 E14.12016
G1 X103.124 Y114.717 E14.14128
G1 X103.384 Y115.041 E14.1551
G1 X103.498 Y115.083 E14.15914
G1 X104.376 Y115.167 E14.18847
G1 X105.171 Y115.35 E14.21561
G1 X105.873 Y115.602 E14.24041
G1 X106.562 Y115.947 E14.26604
G1 X107.218 Y116.38 E14.29218
G1 X107.839 Y116.911 E14.31936
G1 X108.337 Y117.452 E14.34382
G1 X108.895 Y118.208 E14.37507
G1 X109.057 Y118.302 E14.3813
G0 F6000 X108.943 Y118.698
;TYPE:WALL-OUTER
G1 F1200 X109.998 Y118.739 E14.41641
G1 X110.695 Y118.71 E14.43962
G1 X111.247 Y118.62 E14.45822
G1 X111.437 Y118.457 E14.46655
G1 X111.971 Y117.71 E14.49709
G1 X112.469 Y117.169 E14.52154
G1 X113.02 Y116.701 E14.54559
G1 X113.638 Y116.293 E14.57022
G1 X114.298 Y115.964 E14.59475
G1 X114.99 Y115.719 E14.61916
G1 X115.708 Y115.559 E14.64363
G1 X116.43 Y115.486 E14.66776
G1 X116.685 Y115.45 E14.67633
G1 X117.003 Y115.265 E14.68857
G1 X117.568 Y114.369 E14.7238
G1 X117.891 Y113.754 E14.7469
G1 X118.087 Y113.25 E14.76489
G1 X118.04 Y112.978 E14.77407
G1 X117.664 Y112.152 E14.80425
G1 X117.444 Y111.452 E14.82866
G1 X117.311 Y110.714 E14.8536
G1 X117.269 Y109.987 E14.87782
G1 X117.312 Y109.276 E14.90151
G1 X117.447 Y108.534 E14.9266
G1 X117.661 Y107.85 E14.95043
G1 X117.964 Y107.174 E14.97507
G1 X118.063 Y106.93 E14.98383
G1 X118.061 Y106.568 E14.99587
G1 X117.562 Y105.62 E15.0315
G1 X117.202 Y105.05 E15.05393
G1 X116.858 Y104.621 E15.07222
G1 X116.591 Y104.523 E15.08167
G1 X115.678 Y104.436 E15.11218
G1 X114.963 Y104.273 E15.13657
