;FLAVOR:Marlin
;TIME:10835
;Filament used: 5.93692m
;Layer height: 0.2
;MINX:61.673
;MINY:75.538
;MINZ:0.2
;MAXX:144.462
;MAXY:158.327
;MAXZ:39.8
;TARGET_MACHINE.NAME:Creality Ender-3 Pro
;Generated with Cura_SteamEngine 5.6.0
M82 ;absolute extrusion mode
; Ender 3 Custom Start G-code
G92 E0 ; Reset Extruder
G28 ; Home all axes
G1 Z5.0 F3000 ; Move Z Axis up a bit during heating to not damage bed
M104 S175 ; Start heating up the nozzle most of the way
M190 S60 ; Start heating the bed, wait until target temperature reached
M109 S200 ; Finish heating the nozzle
G1 Z2.0 F3000 ; Move Z Axis up little to prevent scratching of Heat Bed
G1 X0.1 Y20 Z0.3 F5000.0 ; Move to start position
G1 X0.1 Y200.0 Z0.3 F1500.0 E15 ; Draw the first line
G1 X0.4 Y200.0 Z0.3 F5000.0 ; Move to side a little
G1 X0.4 Y20 Z0.3 F1500.0 E30 ; Draw the second line
G92 E0 ; Reset Extruder
G1 Z2.0 F3000 ; Move Z Axis up little to prevent scratching of Heat Bed
G1 X5 Y20 Z0.3 F5000.0 ; Move over to prevent blob squish
G92 E0
G92 E0
G1 F1500 E-6.5
;LAYER_COUNT:199
;LAYER:0
M107
G0 F6000 X76.357 Y106.932 Z0.2
;TYPE:SKIRT
G1 F1500 E0
G1 F1200 X77.22 Y106.408 E0.03358
G1 X78.123 Y105.964 E0.06705
G1 X78.965 Y105.635 E0.09712
G1 X80.038 Y105.325 E0.13426
G1 X81.03 Y105.133 E0.16787
G1 X82.033 Y105.031 E0.2014
G1 X82.936 Y105.015 E0.23144
G1 X84.051 Y105.093 E0.26862
G1 X85.044 Y105.258 E0.3021
G1 X86.021 Y105.509 E0.33565
G1 X86.873 Y105.807 E0.36567
G1 X87.89 Y106.269 E0.40282
G1 X88.768 Y106.767 E0.43639
G1 X89.512 Y107.279 E0.46643
G1 X90.521 Y108.129 E0.51031
G1 X91.026 Y108.613 E0.53358
G1 X93.989 Y111.581 E0.67306
G1 X94.535 Y112.14 E0.69905
G1 X95.158 Y112.841 E0.73025
G1 X95.802 Y113.709 E0.76619
G1 X96.326 Y114.569 E0.79969
G1 X96.729 Y115.377 E0.82972
G1 X97.137 Y116.416 E0.86685
G1 X97.391 Y117.282 E0.89686
G1 X97.61 Y118.379 E0.93407
G1 X97.714 Y119.383 E0.96764
G1 X97.729 Y120.392 E1.00121
G1 X97.655 Y121.398 E1.03476
G1 X97.493 Y122.394 E1.06832
G1 X97.242 Y123.374 E1.10197
G1 X96.907 Y124.324 E1.13547
G1 X96.521 Y125.179 E1.16667
G1 X95.99 Y126.119 E1.20258
G1 X95.457 Y126.895 E1.23389
G1 X94.655 Y127.852 E1.27542
G1 X94.094 Y128.435 E1.30233
G1 X93.301 Y129.214 E1.3393
G1 X92.547 Y129.886 E1.37289
G1 X91.737 Y130.488 E1.40646
G1 X90.877 Y131.015 E1.44001
G1 X89.976 Y131.465 E1.47351
G1 X89.136 Y131.799 E1.50357
G1 X88.064 Y132.117 E1.54076
G1 X87.075 Y132.314 E1.5743
G1 X86.072 Y132.422 E1.60786
G1 X85.061 Y132.441 E1.64149
G1 X84.057 Y132.37 E1.67496
G1 X83.058 Y132.212 E1.7086
G1 X82.08 Y131.965 E1.74215
G1 X81.127 Y131.633 E1.77572
G1 X80.207 Y131.219 E1.80927
G1 X79.328 Y130.724 E1.84283
G1 X78.481 Y130.143 E1.87699
G1 X77.535 Y129.345 E1.91815
G1 X77.053 Y128.883 E1.94036
G1 X74.007 Y125.834 E2.0837
G1 X73.5 Y125.315 E2.10783
G1 X72.877 Y124.614 E2.13903
G1 X72.233 Y123.746 E2.17498
G1 X71.709 Y122.886 E2.20847
G1 X71.306 Y122.078 E2.2385
G1 X70.898 Y121.039 E2.27563
G1 X70.644 Y120.173 E2.30564
G1 X70.425 Y119.076 E2.34285
G1 X70.321 Y118.072 E2.37642
G1 X70.306 Y117.063 E2.40999
G1 X70.38 Y116.057 E2.44354
G1 X70.542 Y115.061 E2.4771
G1 X70.793 Y114.081 E2.51075
G1 X71.128 Y113.131 E2.54425
G1 X71.514 Y112.276 E2.57545
G1 X72.045 Y111.334 E2.61142
G1 X72.581 Y110.555 E2.64287
G1 X73.514 Y109.463 E2.69064
G1 X74.228 Y108.734 E2.72458
G1 X74.783 Y108.196 E2.75029
G1 X75.487 Y107.573 E2.78155
G1 X76.357 Y106.932 E2.8175
G0 F6000 X76.565 Y107.274
G1 F1200 X77.397 Y106.767 E2.8499
G1 X78.269 Y106.337 E2.88224
G1 X79.111 Y106.008 E2.91231
G1 X80.115 Y105.718 E2.94706
G1 X81.071 Y105.531 E2.97946
G1 X82.04 Y105.431 E3.01186
G1 X82.943 Y105.415 E3.0419
G1 X83.986 Y105.488 E3.07668
G1 X84.945 Y105.646 E3.109
G1 X85.889 Y105.887 E3.14141
G1 X86.741 Y106.185 E3.17143
G1 X87.693 Y106.617 E3.2062
G1 X88.541 Y107.097 E3.23861
G1 X89.285 Y107.609 E3.26865
G1 X90.263 Y108.435 E3.31123
G1 X90.743 Y108.896 E3.33336
G1 X93.703 Y111.86 E3.47269
G1 X94.236 Y112.406 E3.49806
G1 X94.859 Y113.107 E3.52926
G1 X95.461 Y113.918 E3.56285
G1 X95.968 Y114.748 E3.5952
G1 X96.371 Y115.556 E3.62523
G1 X96.753 Y116.529 E3.66
G1 X97.007 Y117.395 E3.69001
G1 X97.212 Y118.421 E3.72481
G1 X97.314 Y119.39 E3.75722
G1 X97.33 Y120.363 E3.78959
G1 X97.26 Y121.334 E3.82197
G1 X97.105 Y122.296 E3.85437
G1 X96.865 Y123.241 E3.8868
G1 X96.542 Y124.159 E3.91917
G1 X96.156 Y125.014 E3.95037
G1 X95.66 Y125.893 E3.98394
G1 X95.15 Y126.638 E4.01397
G1 X94.348 Y127.595 E4.0555
G1 X93.814 Y128.15 E4.08111
G1 X93.034 Y128.916 E4.11748
G1 X92.308 Y129.565 E4.14986
G1 X91.527 Y130.147 E4.18226
G1 X90.698 Y130.657 E4.21463
G1 X89.828 Y131.093 E4.247
G1 X88.988 Y131.427 E4.27707
G1 X87.986 Y131.725 E4.31183
G1 X87.031 Y131.916 E4.34423
G1 X86.064 Y132.022 E4.37658
G1 X85.089 Y132.042 E4.40902
G1 X84.119 Y131.975 E4.44136
G1 X83.155 Y131.824 E4.47381
G1 X82.211 Y131.587 E4.50618
G1 X81.291 Y131.268 E4.53857
G1 X80.403 Y130.87 E4.57094
G1 X79.554 Y130.394 E4.60331
G1 X78.739 Y129.837 E4.63614
G1 X77.793 Y129.039 E4.6773
G1 X77.336 Y128.6 E4.69838
G1 X74.293 Y125.555 E4.84156
G1 X73.799 Y125.049 E4.86508
G1 X73.176 Y124.348 E4.89627
G1 X72.574 Y123.537 E4.92987
G1 X72.067 Y122.707 E4.96222
G1 X71.664 Y121.899 E4.99225
G1 X71.282 Y120.926 E5.02701
G1 X71.028 Y120.06 E5.05703
G1 X70.823 Y119.034 E5.09183
G1 X70.721 Y118.065 E5.12424
G1 X70.705 Y117.092 E5.1566
G1 X70.775 Y116.121 E5.18898
G1 X70.93 Y115.159 E5.22139
G1 X71.17 Y114.214 E5.25382
G1 X71.493 Y113.296 E5.28619
G1 X71.879 Y112.441 E5.31739
G1 X72.375 Y111.561 E5.35099
G1 X72.911 Y110.782 E5.38244
G1 X73.818 Y109.723 E5.42881
G1 X74.507 Y109.021 E5.46153
G1 X75.049 Y108.495 E5.48665
G1 X75.725 Y107.895 E5.51671
G1 X76.565 Y107.274 E5.55146
G0 F6000 X76.773 Y107.615
G1 F1200 X77.574 Y107.126 E5.58267
G1 X78.415 Y106.71 E5.61388
G1 X79.257 Y106.381 E5.64394
G1 X80.192 Y106.11 E5.67632
G1 X81.113 Y105.929 E5.70754
G1 X82.047 Y105.831 E5.73878
G1 X82.95 Y105.815 E5.76882
G1 X83.922 Y105.883 E5.80122
G1 X84.847 Y106.034 E5.8324
G1 X85.757 Y106.265 E5.86362
G1 X86.609 Y106.563 E5.89364
G1 X87.496 Y106.965 E5.92603
G1 X88.314 Y107.427 E5.95728
G1 X89.058 Y107.939 E5.98732
G1 X89.986 Y108.724 E6.02775
G1 X90.46 Y109.179 E6.0496
G1 X93.417 Y112.139 E6.18876
G1 X93.937 Y112.672 E6.21352
G1 X94.56 Y113.373 E6.24472
G1 X95.12 Y114.127 E6.27596
G1 X95.61 Y114.927 E6.30716
G1 X96.013 Y115.735 E6.33719
G1 X96.369 Y116.642 E6.3696
G1 X96.623 Y117.508 E6.39961
G1 X96.814 Y118.464 E6.43204
G1 X96.914 Y119.397 E6.46325
G1 X96.931 Y120.335 E6.49445
G1 X96.865 Y121.271 E6.52566
G1 X96.717 Y122.198 E6.55688
G1 X96.487 Y123.109 E6.58813
G1 X96.177 Y123.994 E6.61932
G1 X95.791 Y124.849 E6.65052
G1 X95.33 Y125.667 E6.68175
G1 X94.82 Y126.412 E6.71178
G1 X94.06 Y127.318 E6.75111
G1 X93.534 Y127.865 E6.77635
G1 X92.767 Y128.618 E6.8121
G1 X92.068 Y129.245 E6.84334
G1 X91.317 Y129.807 E6.87453
G1 X90.518 Y130.3 E6.90576
G1 X89.68 Y130.721 E6.93695
G1 X88.84 Y131.055 E6.96702
G1 X87.907 Y131.333 E6.9994
G1 X86.987 Y131.518 E7.03061
G1 X86.055 Y131.622 E7.0618
G1 X85.116 Y131.643 E7.09304
G1 X84.18 Y131.58 E7.12424
G1 X83.252 Y131.436 E7.15548
G1 X82.341 Y131.209 E7.1867
G1 X81.454 Y130.903 E7.21791
G1 X80.598 Y130.521 E7.24909
G1 X79.779 Y130.063 E7.2803
G1 X78.997 Y129.531 E7.31175
G1 X78.07 Y128.75 E7.35207
G1 X77.619 Y128.317 E7.37287
G1 X74.579 Y125.276 E7.51588
G1 X74.098 Y124.783 E7.53879
G1 X73.475 Y124.082 E7.56998
G1 X72.915 Y123.328 E7.60122
G1 X72.425 Y122.528 E7.63242
G1 X72.022 Y121.72 E7.66245
G1 X71.666 Y120.813 E7.69486
G1 X71.412 Y119.947 E7.72488
G1 X71.221 Y118.991 E7.7573
G1 X71.121 Y118.058 E7.78851
G1 X71.104 Y117.12 E7.81972
G1 X71.17 Y116.184 E7.85093
G1 X71.318 Y115.257 E7.88215
G1 X71.548 Y114.346 E7.9134
G1 X71.858 Y113.461 E7.94459
G1 X72.244 Y112.606 E7.97579
G1 X72.705 Y111.788 E8.00702
G1 X73.241 Y111.009 E8.03847
G1 X74.104 Y110.003 E8.08255
G1 X74.785 Y109.308 E8.11492
G1 X75.315 Y108.794 E8.13947
G1 X75.991 Y108.194 E8.16954
G1 X76.773 Y107.615 E8.2019
G0 F6000 X76.982 Y107.956
G1 F1200 X77.752 Y107.484 E8.23194
G1 X78.561 Y107.083 E8.26197
G1 X79.403 Y106.754 E8.29204
G1 X80.27 Y106.502 E8.32207
G1 X81.156 Y106.327 E8.3521
G1 X82.054 Y106.231 E8.38214
G1 X82.957 Y106.215 E8.41218
G1 X83.858 Y106.278 E8.44222
G1 X84.749 Y106.422 E8.47224
G1 X85.625 Y106.643 E8.50229
G1 X86.477 Y106.941 E8.53231
G1 X87.3 Y107.314 E8.56236
G1 X88.087 Y107.757 E8.5924
G1 X88.831 Y108.269 E8.62244
G1 X89.709 Y109.013 E8.66072
G1 X90.177 Y109.462 E8.68229
G1 X93.131 Y112.418 E8.82128
G1 X93.638 Y112.938 E8.84544
G1 X94.239 Y113.612 E8.87547
G1 X94.779 Y114.337 E8.90554
G1 X95.252 Y115.106 E8.93557
G1 X95.655 Y115.914 E8.9656
G1 X95.985 Y116.755 E8.99565
G1 X96.239 Y117.621 E9.02566
G1 X96.416 Y118.507 E9.05571
G1 X96.514 Y119.405 E9.08576
G1 X96.532 Y120.308 E9.1158
G1 X96.47 Y121.209 E9.14584
G1 X96.329 Y122.101 E9.17587
G1 X96.109 Y122.977 E9.20591
G1 X95.812 Y123.83 E9.23596
G1 X95.442 Y124.653 E9.26597
G1 X95 Y125.441 E9.29602
G1 X94.49 Y126.186 E9.32605
G1 X93.771 Y127.041 E9.3632
G1 X93.254 Y127.58 E9.38804
G1 X92.5 Y128.321 E9.42321
G1 X91.828 Y128.925 E9.45326
G1 X91.106 Y129.467 E9.48328
G1 X90.338 Y129.943 E9.51334
G1 X89.532 Y130.349 E9.54335
G1 X88.692 Y130.683 E9.57342
G1 X87.827 Y130.941 E9.60344
G1 X86.942 Y131.121 E9.63348
G1 X86.045 Y131.222 E9.6635
G1 X85.142 Y131.244 E9.69355
G1 X84.241 Y131.185 E9.72358
G1 X83.348 Y131.048 E9.75363
G1 X82.471 Y130.831 E9.78367
G1 X81.617 Y130.538 E9.8137
G1 X80.792 Y130.171 E9.84374
G1 X80.003 Y129.732 E9.87377
G1 X79.255 Y129.225 E9.90382
G1 X78.328 Y128.444 E9.94414
G1 X77.902 Y128.034 E9.9638
G1 X74.865 Y124.997 E10.10665
G1 X74.397 Y124.517 E10.12895
G1 X73.796 Y123.843 E10.15899
G1 X73.256 Y123.118 E10.18905
G1 X72.783 Y122.349 E10.21908
G1 X72.38 Y121.541 E10.24911
G1 X72.05 Y120.7 E10.27916
G1 X71.796 Y119.834 E10.30918
G1 X71.619 Y118.948 E10.33923
G1 X71.521 Y118.05 E10.36927
G1 X71.503 Y117.147 E10.39931
G1 X71.565 Y116.246 E10.42935
G1 X71.706 Y115.354 E10.45939
G1 X71.926 Y114.478 E10.48943
G1 X72.223 Y113.625 E10.51947
G1 X72.593 Y112.802 E10.54948
G1 X73.035 Y112.014 E10.57953
G1 X73.545 Y111.269 E10.60956
G1 X74.39 Y110.283 E10.65275
G1 X75.064 Y109.595 E10.68479
G1 X75.581 Y109.093 E10.70875
G1 X76.257 Y108.493 E10.73882
G1 X76.982 Y107.956 E10.76882
G1 F1500 E4.26882
;MESH:PALM_GRIPPERRA.stl
G0 F6000 X82.017 Y116.333
G0 X82.78 Y117.499
;TYPE:WALL-INNER
G1 F1500 E10.76882
G1 F805.4 X85.247 Y119.967 E10.94176
G0 F6000 X85.247 Y120.671
;TYPE:WALL-OUTER
G1 F1200 X85.951 Y119.967 E10.97487
G1 X82.78 Y116.795 E11.12405
G1 X82.075 Y117.499 E11.15719
G1 X85.247 Y120.671 E11.30639
M104 S200
G1 F1500 E4.80639
;MESH:NONMESH
G0 F300 X85.247 Y120.671 Z0.4
G0 F6000 X85.247 Y120.29
G0 X82.78 Y117.096
G0 X82.017 Y116.333
G0 X76.982 Y107.956
;TIME_ELAPSED:23.442095
;LAYER:1
M106 S255
;TYPE:SKIRT
G1 F1500 E11.30639
G1 F600 X77.752 Y107.484 E11.33643
G1 X78.561 Y107.083 E11.36646
G1 X79.403 Y106.754 E11.39653
G1 X80.27 Y106.502 E11.42656
G1 X81.156 Y106.327 E11.45659
G1 X82.054 Y106.231 E11.48663
G1 X82.957 Y106.215 E11.51667
G1 X83.858 Y106.278 E11.54671
G1 X84.749 Y106.422 E11.57673
G1 X85.625 Y106.643 E11.60678
G1 X86.477 Y106.941 E11.6368
G1 X87.3 Y107.314 E11.66685
G1 X88.087 Y107.757 E11.69689
G1 X88.831 Y108.269 E11.72693
G1 X89.709 Y109.013 E11.76521
G1 X90.177 Y109.462 E11.78678
G1 X93.131 Y112.418 E11.92577
G1 X93.638 Y112.938 E11.94993
G1 X94.239 Y113.612 E11.97996
G1 X94.779 Y114.337 E12.01003
G1 X95.252 Y115.106 E12.04006
G1 X95.655 Y115.914 E12.07009
G1 X95.985 Y116.755 E12.10014
G1 X96.239 Y117.621 E12.13015
G1 X96.416 Y118.507 E12.16021
G1 X96.514 Y119.405 E12.19025
G1 X96.532 Y120.308 E12.22029
G1 X96.47 Y121.209 E12.25033
G1 X96.329 Y122.101 E12.28036
G1 X96.109 Y122.977 E12.31041
G1 X95.812 Y123.83 E12.34045
G1 X95.442 Y124.653 E12.37046
G1 X95 Y125.441 E12.40051
G1 X94.49 Y126.186 E12.43054
G1 X93.771 Y127.041 E12.46769
G1 X93.254 Y127.58 E12.49253
G1 X92.5 Y128.321 E12.5277
G1 X91.828 Y128.925 E12.55775
G1 X91.106 Y129.467 E12.58778
G1 X90.338 Y129.943 E12.61783
G1 X89.532 Y130.349 E12.64784
G1 X88.692 Y130.683 E12.67791
G1 X87.827 Y130.941 E12.70793
G1 X86.942 Y131.121 E12.73797
G1 X86.045 Y131.222 E12.76799
G1 X85.142 Y131.244 E12.79804
G1 X84.241 Y131.185 E12.82807
G1 X83.348 Y131.048 E12.85812
G1 X82.471 Y130.831 E12.88817
G1 X81.617 Y130.538 E12.9182
G1 X80.792 Y130.171 E12.94823
G1 X80.003 Y129.732 E12.97826
G1 X79.255 Y129.225 E13.00831
G1 X78.328 Y128.444 E13.04863
G1 X77.902 Y128.034 E13.06829
G1 X74.865 Y124.997 E13.21115
G1 X74.397 Y124.517 E13.23344
G1 X73.796 Y123.843 E13.26348
G1 X73.256 Y123.118 E13.29355
G1 X72.783 Y122.349 E13.32357
G1 X72.38 Y121.541 E13.3536
G1 X72.05 Y120.7 E13.38365
G1 X71.796 Y119.834 E13.41367
G1 X71.619 Y118.948 E13.44372
G1 X71.521 Y118.05 E13.47377
G1 X71.503 Y117.147 E13.5038
G1 X71.565 Y116.246 E13.53384
G1 X71.706 Y115.354 E13.56388
G1 X71.926 Y114.478 E13.59392
G1 X72.223 Y113.625 E13.62396
G1 X72.593 Y112.802 E13.65397
G1 X73.035 Y112.014 E13.68402
G1 X73.545 Y111.269 E13.71405
G1 X74.39 Y110.283 E13.75724
G1 X75.064 Y109.595 E13.78928
G1 X75.581 Y109.093 E13.81324
G1 X76.257 Y108.493 E13.84331
G1 X76.982 Y107.956 E13.87332
G1 F1500 E7.37332
;MESH:PALM_GRIPPERRA.stl
G0 F7500 X81.97 Y116.277
G0 X82.732 Y117.448
;TYPE:WALL-INNER
G1 F1500 E13.87332
G1 F397.4 X85.299 Y120.014 E14.0556
G0 F7500 X85.299 Y120.724
;TYPE:WALL-OUTER
G1 F600 X86.008 Y120.014 E14.08898
G1 X82.732 Y116.739 E14.24304
G1 X82.022 Y117.448 E14.27642
G1 X85.299 Y120.724 E14.43053
G1 F1500 E7.93053
;MESH:NONMESH
G0 F300 X85.299 Y120.724 Z0.6
G0 F7500 X85.299 Y120.342
G0 X82.733 Y117.04
G0 X81.97 Y116.277
G0 X76.982 Y107.956
;TIME_ELAPSED:34.832023
;LAYER:2
;TYPE:SKIRT
G1 F1500 E14.43053
G1 F600 X77.752 Y107.484 E14.46057
G1 X78.561 Y107.083 E14.4906
G1 X79.403 Y106.754 E14.52067
G1 X80.27 Y106.502 E14.5507
G1 X81.156 Y106.327 E14.58074
G1 X82.054 Y106.231 E14.61078
G1 X82.957 Y106.215 E14.64082
G1 X83.858 Y106.278 E14.67086
G1 X84.749 Y106.422 E14.70088
G1 X85.625 Y106.643 E14.73092
G1 X86.477 Y106.941 E14.76095
G1 X87.3 Y107.314 E14.791
G1 X88.087 Y107.757 E14.82104
G1 X88.831 Y108.269 E14.85108
G1 X89.709 Y109.013 E14.88935
G1 X90.177 Y109.462 E14.91092
G1 X93.131 Y112.418 E15.04992
G1 X93.638 Y112.938 E15.07407
G1 X94.239 Y113.612 E15.10411
G1 X94.779 Y114.337 E15.13418
G1 X95.252 Y115.106 E15.1642
G1 X95.655 Y115.914 E15.19423
G1 X95.985 Y116.755 E15.22428
G1 X96.239 Y117.621 E15.2543
G1 X96.416 Y118.507 E15.28435
G1 X96.514 Y119.405 E15.3144
G1 X96.532 Y120.308 E15.34444
G1 X96.47 Y121.209 E15.37447
G1 X96.329 Y122.101 E15.40451
G1 X96.109 Y122.977 E15.43455
G1 X95.812 Y123.83 E15.46459
G1 X95.442 Y124.653 E15.4946
G1 X95 Y125.441 E15.52465
G1 X94.49 Y126.186 E15.55468
G1 X93.771 Y127.041 E15.59184
G1 X93.254 Y127.58 E15.61668
G1 X92.5 Y128.321 E15.65184
G1 X91.828 Y128.925 E15.68189
G1 X91.106 Y129.467 E15.71192
G1 X90.338 Y129.943 E15.74197
G1 X89.532 Y130.349 E15.77199
G1 X88.692 Y130.683 E15.80206
G1 X87.827 Y130.941 E15.83208
G1 X86.942 Y131.121 E15.86212
G1 X86.045 Y131.222 E15.89214
G1 X85.142 Y131.244 E15.92218
G1 X84.241 Y131.185 E15.95221
G1 X83.348 Y131.048 E15.98226
G1 X82.471 Y130.831 E16.01231
G1 X81.617 Y130.538 E16.04234
G1 X80.792 Y130.171 E16.07237
G1 X80.003 Y129.732 E16.1024
G1 X79.255 Y129.225 E16.13246
G1 X78.328 Y128.444 E16.17277
G1 X77.902 Y128.034 E16.19244
G1 X74.865 Y124.997 E16.33529
G1 X74.397 Y124.517 E16.35759
G1 X73.796 Y123.843 E16.38762
G1 X73.256 Y123.118 E16.41769
G1 X72.783 Y122.349 E16.44772
G1 X72.38 Y121.541 E16.47775
G1 X72.05 Y120.7 E16.5078
