;FLAVOR:Marlin
;TIME:2903
;Filament used: 1.62224m
;Layer height: 0.2
;MINX:78.258
;MINY:81.507
;MINZ:0.2
;MAXX:143.75
;MAXY:138.49
;MAXZ:7
;TARGET_MACHINE.NAME:Creality Ender-3 Pro
;Generated with Cura_SteamEngine 5.6.0
M82 ;absolute extrusion mode
; Ender 3 Custom Start G-code
G92 E0 ; Reset Extruder
G28 ; Home all axes
G1 Z5.0 F3000 ; Move Z Axis up a bit during heating to not damage bed
M104 S175 ; Start heating up the nozzle most of the way
M190 S60 ; Start heating the bed, wait until target temperature reached
M109 S200 ; Finish heating the nozzle
G1 Z2.0 F3000 ; Move Z Axis up little to prevent scratching of Heat Bed
G1 X0.1 Y20 Z0.3 F5000.0 ; Move to start position
G1 X0.1 Y200.0 Z0.3 F1500.0 E15 ; Draw the first line
G1 X0.4 Y200.0 Z0.3 F5000.0 ; Move to side a little
G1 X0.4 Y20 Z0.3 F1500.0 E30 ; Draw the second line
G92 E0 ; Reset Extruder
G1 Z2.0 F3000 ; Move Z Axis up little to prevent scratching of Heat Bed
G1 X5 Y20 Z0.3 F5000.0 ; Move over to prevent blob squish
G92 E0
G92 E0
G1 F1500 E-6.5
;LAYER_COUNT:35
;LAYER:0
M107
G0 F6000 X86.944 Y89.527 Z0.2
;TYPE:SKIRT
G1 F1500 E0
G1 F1200 X87.466 Y89.024 E0.02411
G1 X88.274 Y88.312 E0.05993
G1 X88.72 Y87.948 E0.07908
G1 X89.967 Y86.985 E0.13148
G1 X90.677 Y86.482 E0.16042
G1 X91.807 Y85.748 E0.20524
G1 X92.356 Y85.412 E0.22665
G1 X92.8 Y85.163 E0.24358
G1 X94.243 Y84.402 E0.29784
G1 X95.09 Y84.002 E0.32899
G1 X96.196 Y83.535 E0.36892
G1 X96.941 Y83.249 E0.39546
G1 X97.976 Y82.895 E0.43185
G1 X98.489 Y82.738 E0.44969
G1 X99.751 Y82.388 E0.49325
G1 X100.495 Y82.203 E0.51875
G1 X100.964 Y82.102 E0.5347
G1 X102.179 Y81.876 E0.57581
G1 X102.921 Y81.765 E0.60076
G1 X104.015 Y81.641 E0.63738
G1 X104.533 Y81.601 E0.65466
G1 X105.891 Y81.526 E0.6999
G1 X106.615 Y81.507 E0.72399
G1 X107.084 Y81.508 E0.73959
G1 X107.873 Y81.528 E0.76584
G1 X108.345 Y81.552 E0.78155
G1 X109.57 Y81.649 E0.82243
G1 X110.822 Y81.8 E0.86437
G1 X111.592 Y81.921 E0.89029
G1 X112.764 Y82.15 E0.93001
G1 X113.217 Y82.251 E0.94545
G1 X114.009 Y82.446 E0.97258
G1 X115.009 Y82.732 E1.00717
G1 X115.534 Y82.903 E1.02554
G1 X116.569 Y83.266 E1.06202
G1 X117 Y83.427 E1.07732
G1 X118.301 Y83.956 E1.12403
G1 X120.351 Y84.87 E1.19868
G1 X122.695 Y85.851 E1.2832
G1 X125.032 Y86.755 E1.36654
G1 X127.434 Y87.606 E1.4513
G1 X129.815 Y88.375 E1.53452
G1 X132.229 Y89.08 E1.61816
G1 X133.371 Y89.375 E1.65739
G1 X134.653 Y89.722 E1.70156
G1 X135.581 Y90.02 E1.73398
G1 X136.474 Y90.397 E1.76622
G1 X137.298 Y90.827 E1.79713
G1 X138.148 Y91.339 E1.83014
G1 X138.888 Y91.869 E1.86041
G1 X139.74 Y92.591 E1.89756
G1 X140.454 Y93.309 E1.93124
G1 X141.154 Y94.143 E1.96745
G1 X141.682 Y94.896 E1.99804
G1 X141.876 Y95.202 E2.01009
G1 X142.367 Y96.061 E2.043
G1 X142.92 Y97.32 E2.08873
G1 X143.038 Y97.644 E2.1002
G1 X143.326 Y98.563 E2.13223
G1 X143.596 Y99.911 E2.17796
G1 X143.644 Y100.266 E2.18987
G1 X143.738 Y101.517 E2.2316
G1 X143.75 Y102.284 E2.25711
G1 X143.747 Y117.808 E2.77344
G1 X143.734 Y118.55 E2.79813
G1 X143.677 Y119.481 E2.82915
G1 X143.586 Y120.161 E2.85197
G1 X143.511 Y120.603 E2.86688
G1 X143.304 Y121.552 E2.89919
G1 X143.015 Y122.483 E2.93161
G1 X142.661 Y123.346 E2.96263
G1 X142.35 Y123.973 E2.98591
G1 X142.168 Y124.307 E2.99856
G1 X141.67 Y125.135 E3.0307
G1 X141.221 Y125.764 E3.0564
G1 X141.044 Y125.992 E3.066
G1 X140.417 Y126.732 E3.09826
G1 X139.718 Y127.43 E3.13112
G1 X138.857 Y128.154 E3.16853
G1 X138.104 Y128.682 E3.19912
G1 X137.799 Y128.876 E3.21114
G1 X136.979 Y129.348 E3.24261
G1 X135.776 Y129.884 E3.28642
G1 X135.421 Y130.015 E3.299
G1 X134.418 Y130.333 E3.334
G1 X133.397 Y130.6 E3.3691
G1 X130.881 Y131.301 E3.45597
G1 X128.461 Y132.05 E3.54023
G1 X126.051 Y132.871 E3.62491
G1 X123.715 Y133.741 E3.70782
G1 X121.41 Y134.675 E3.79053
G1 X119.301 Y135.614 E3.86732
G1 X119.08 Y135.701 E3.87522
G1 X118.34 Y136.026 E3.9021
G1 X116.941 Y136.6 E3.9524
G1 X116.479 Y136.778 E3.96886
G1 X115.662 Y137.062 E3.99763
G1 X114.874 Y137.309 E4.0251
G1 X113.781 Y137.609 E4.0628
G1 X113.251 Y137.736 E4.08092
G1 X111.927 Y138.009 E4.12588
G1 X110.687 Y138.217 E4.1677
G1 X109.77 Y138.332 E4.19844
G1 X108.974 Y138.405 E4.22503
G1 X107.745 Y138.475 E4.26597
G1 X106.61 Y138.49 E4.30372
G1 X106.046 Y138.478 E4.32249
G1 X104.941 Y138.423 E4.35929
G1 X103.573 Y138.307 E4.40495
G1 X102.791 Y138.215 E4.43114
G1 X101.603 Y138.023 E4.47116
G1 X101.15 Y137.936 E4.48651
G1 X100.372 Y137.769 E4.51297
G1 X99.907 Y137.658 E4.52887
G1 X98.758 Y137.347 E4.56846
G1 X98.154 Y137.162 E4.58947
G1 X97.633 Y136.988 E4.60774
G1 X96.269 Y136.491 E4.65603
G1 X95.421 Y136.14 E4.68655
G1 X94.131 Y135.539 E4.73389
G1 X93.439 Y135.192 E4.75963
G1 X93.02 Y134.965 E4.77548
G1 X91.954 Y134.349 E4.81643
G1 X91.286 Y133.931 E4.84264
G1 X90.886 Y133.668 E4.85856
G1 X89.896 Y132.973 E4.8988
G1 X88.915 Y132.223 E4.93987
G1 X88.315 Y131.727 E4.96576
G1 X87.4 Y130.913 E5.00649
G1 X87.054 Y130.588 E5.02228
G1 X86.182 Y129.717 E5.06327
G1 X85.666 Y129.166 E5.08838
G1 X85.332 Y128.79 E5.10511
G1 X84.536 Y127.842 E5.14628
G1 X83.789 Y126.869 E5.18708
G1 X83.422 Y126.355 E5.20809
G1 X83.116 Y125.902 E5.22627
G1 X82.415 Y124.805 E5.26957
G1 X82.017 Y124.146 E5.29517
G1 X81.78 Y123.723 E5.3113
G1 X81.409 Y123.026 E5.33756
G1 X80.877 Y121.934 E5.37796
G1 X80.387 Y120.808 E5.41881
G1 X80.006 Y119.824 E5.4539
G1 X79.825 Y119.299 E5.47237
G1 X79.411 Y117.996 E5.51784
G1 X79.21 Y117.299 E5.54197
G1 X79.098 Y116.862 E5.55698
G1 X78.912 Y116.068 E5.5841
G1 X78.816 Y115.614 E5.59953
G1 X78.677 Y114.878 E5.62445
G1 X78.488 Y113.617 E5.66685
G1 X78.376 Y112.567 E5.70198
G1 X78.337 Y112.037 E5.71965
G1 X78.273 Y110.676 E5.76497
G1 X78.258 Y109.957 E5.78889
G1 X78.284 Y108.851 E5.82568
G1 X78.313 Y108.314 E5.84357
G1 X78.423 Y106.982 E5.88802
G1 X78.508 Y106.226 E5.91333
G1 X78.696 Y105.025 E5.95376
G1 X78.777 Y104.578 E5.96887
G1 X78.936 Y103.814 E5.99482
G1 X79.043 Y103.351 E6.01063
G1 X79.245 Y102.562 E6.03772
G1 X79.592 Y101.383 E6.07859
G1 X79.926 Y100.397 E6.11322
G1 X80.117 Y99.894 E6.13111
G1 X80.63 Y98.633 E6.17639
G1 X80.966 Y97.876 E6.20394
G1 X81.462 Y96.873 E6.24116
G1 X81.689 Y96.444 E6.2573
G1 X82.084 Y95.737 E6.28424
G1 X82.737 Y94.665 E6.32598
G1 X83.391 Y93.683 E6.36523
G1 X83.673 Y93.288 E6.38137
G1 X84.147 Y92.653 E6.40772
G1 X84.93 Y91.677 E6.44934
G1 X85.607 Y90.902 E6.48357
G1 X85.989 Y90.494 E6.50216
G1 X86.944 Y89.527 E6.54736
G0 F6000 X87.222 Y89.815
G1 F1200 X87.744 Y89.312 E6.57147
G1 X88.527 Y88.622 E6.60618
G1 X88.965 Y88.264 E6.625
G1 X90.198 Y87.311 E6.67683
G1 X90.895 Y86.817 E6.70524
G1 X92.016 Y86.089 E6.7497
G1 X92.552 Y85.761 E6.7706
G1 X92.987 Y85.517 E6.78719
G1 X94.414 Y84.764 E6.84085
G1 X95.246 Y84.37 E6.87147
G1 X96.339 Y83.908 E6.91094
G1 X97.071 Y83.627 E6.93702
G1 X98.093 Y83.277 E6.97295
G1 X98.596 Y83.123 E6.99045
G1 X99.847 Y82.776 E7.03363
G1 X100.58 Y82.594 E7.05875
G1 X101.037 Y82.495 E7.0743
G1 X102.238 Y82.272 E7.11493
G1 X102.98 Y82.161 E7.13988
G1 X104.046 Y82.04 E7.17556
G1 X104.555 Y82 E7.19254
G1 X105.902 Y81.926 E7.23741
G1 X106.614 Y81.907 E7.2611
G1 X107.074 Y81.908 E7.2764
G1 X107.853 Y81.928 E7.30232
G1 X108.314 Y81.951 E7.31767
G1 X109.522 Y82.046 E7.35797
G1 X110.76 Y82.195 E7.39945
G1 X111.516 Y82.314 E7.4249
G1 X112.677 Y82.54 E7.46424
G1 X113.121 Y82.639 E7.47937
G1 X113.899 Y82.831 E7.50602
G1 X114.885 Y83.112 E7.54013
G1 X115.401 Y83.28 E7.55817
G1 X116.429 Y83.641 E7.59441
G1 X116.849 Y83.798 E7.60933
G1 X118.15 Y84.327 E7.65604
G1 X120.197 Y85.239 E7.73057
G1 X122.551 Y86.224 E7.81544
G1 X124.898 Y87.132 E7.89914
G1 X127.311 Y87.987 E7.98429
G1 X129.692 Y88.756 E8.06751
G1 X132.117 Y89.464 E8.15153
G1 X133.267 Y89.761 E8.19104
G1 X134.531 Y90.103 E8.23459
G1 X135.426 Y90.389 E8.26584
G1 X136.289 Y90.752 E8.29698
G1 X137.092 Y91.17 E8.32709
G1 X137.915 Y91.664 E8.35902
G1 X138.655 Y92.194 E8.38929
G1 X139.457 Y92.873 E8.42424
G1 X140.148 Y93.566 E8.45679
G1 X140.826 Y94.373 E8.49185
G1 X141.354 Y95.126 E8.52244
G1 X141.529 Y95.401 E8.53328
G1 X142.001 Y96.222 E8.56477
G1 X142.544 Y97.457 E8.60965
G1 X142.656 Y97.764 E8.62051
G1 X142.944 Y98.683 E8.65255
G1 X143.2 Y99.965 E8.69603
G1 X143.245 Y100.296 E8.70714
G1 X143.338 Y101.523 E8.74807
G1 X143.35 Y102.284 E8.77338
G1 X143.347 Y117.801 E9.28948
G1 X143.335 Y118.526 E9.31359
G1 X143.278 Y119.457 E9.34462
G1 X143.192 Y120.094 E9.366
G1 X143.12 Y120.518 E9.3803
G1 X142.922 Y121.434 E9.41147
G1 X142.645 Y122.331 E9.44269
G1 X142.291 Y123.194 E9.47372
G1 X141.998 Y123.782 E9.49557
G1 X141.825 Y124.101 E9.50764
G1 X141.344 Y124.903 E9.53874
G1 X140.904 Y125.52 E9.56395
G1 X140.739 Y125.734 E9.57294
G1 X140.134 Y126.449 E9.60409
G1 X139.435 Y127.147 E9.63694
G1 X138.627 Y127.826 E9.67205
G1 X137.874 Y128.354 E9.70264
G1 X137.599 Y128.529 E9.71348
G1 X136.779 Y129.001 E9.74495
G1 X135.614 Y129.518 E9.78734
G1 X135.3 Y129.634 E9.79847
G1 X134.316 Y129.946 E9.83281
G1 X133.295 Y130.214 E9.86791
G1 X130.763 Y130.919 E9.95533
G1 X128.332 Y131.671 E10.03997
G1 X125.922 Y132.492 E10.12465
G1 X123.575 Y133.366 E10.20795
G1 X121.26 Y134.304 E10.29102
G1 X119.154 Y135.242 E10.3677
G1 X118.933 Y135.329 E10.3756
G1 X118.188 Y135.656 E10.40266
G1 X116.797 Y136.227 E10.45268
G1 X116.348 Y136.4 E10.46868
G1 X115.542 Y136.68 E10.49706
G1 X114.768 Y136.923 E10.52404
G1 X113.688 Y137.22 E10.5613
G1 X113.17 Y137.344 E10.57901
G1 X111.846 Y137.617 E10.62397
G1 X110.637 Y137.82 E10.66475
G1 X109.733 Y137.934 E10.69505
G1 X108.951 Y138.006 E10.72117
G1 X107.74 Y138.075 E10.76152
G1 X106.619 Y138.09 E10.7988
G1 X106.066 Y138.078 E10.8172
G1 X104.969 Y138.024 E10.85373
G1 X104.53 Y137.993 E10.86837
G1 X103.62 Y137.91 E10.89876
G1 X102.855 Y137.82 E10.92438
G1 X101.678 Y137.63 E10.96404
G1 X101.234 Y137.545 E10.97907
G1 X100.465 Y137.38 E11.00523
G1 X100.011 Y137.272 E11.02075
G1 X98.875 Y136.965 E11.05989
G1 X98.281 Y136.783 E11.08055
G1 X97.77 Y136.612 E11.09848
G1 X96.422 Y136.121 E11.14619
G1 X95.59 Y135.777 E11.17614
G1 X94.31 Y135.181 E11.2231
G1 X93.629 Y134.84 E11.24843
G1 X93.22 Y134.619 E11.26389
G1 X92.166 Y134.01 E11.30438
G1 X91.506 Y133.597 E11.33027
G1 X91.116 Y133.341 E11.34579
G1 X90.139 Y132.655 E11.3855
G1 X89.17 Y131.914 E11.42607
G1 X88.581 Y131.428 E11.45147
G1 X87.674 Y130.622 E11.49182
G1 X87.337 Y130.305 E11.50721
G1 X86.474 Y129.443 E11.54778
G1 X85.965 Y128.9 E11.57254
G1 X85.638 Y128.533 E11.58888
G1 X84.853 Y127.598 E11.62949
G1 X84.114 Y126.636 E11.66984
G1 X83.753 Y126.131 E11.69048
G1 X83.453 Y125.687 E11.70831
G1 X82.757 Y124.598 E11.75129
G1 X82.366 Y123.951 E11.77644
G1 X82.133 Y123.535 E11.79229
G1 X81.769 Y122.851 E11.81807
G1 X81.244 Y121.774 E11.85792
G1 X80.76 Y120.663 E11.89822
G1 X80.384 Y119.694 E11.93279
G1 X80.206 Y119.178 E11.95095
G1 X79.795 Y117.885 E11.99607
G1 X79.597 Y117.199 E12.01982
G1 X79.487 Y116.771 E12.03452
G1 X79.303 Y115.985 E12.06137
G1 X79.209 Y115.54 E12.07649
G1 X79.073 Y114.819 E12.1009
G1 X78.886 Y113.574 E12.14277
G1 X78.775 Y112.538 E12.17743
G1 X78.737 Y112.018 E12.19477
G1 X78.673 Y110.667 E12.23975
G1 X78.658 Y109.966 E12.26307
G1 X78.683 Y108.873 E12.29944
G1 X78.712 Y108.347 E12.31696
G1 X78.821 Y107.026 E12.36104
G1 X78.903 Y106.288 E12.38574
G1 X79.089 Y105.097 E12.42583
G1 X79.169 Y104.659 E12.44064
G1 X79.326 Y103.904 E12.46629
G1 X79.431 Y103.45 E12.48179
G1 X79.629 Y102.675 E12.50839
G1 X79.971 Y101.511 E12.54875
G1 X80.3 Y100.539 E12.58288
G1 X80.487 Y100.045 E12.60044
G1 X80.996 Y98.795 E12.64533
G1 X81.325 Y98.053 E12.67233
G1 X81.815 Y97.06 E12.70916
G1 X82.038 Y96.639 E12.72501
G1 X82.426 Y95.945 E12.75145
G1 X83.07 Y94.887 E12.79265
G1 X83.717 Y93.915 E12.83148
G1 X83.993 Y93.527 E12.84732
G1 X84.459 Y92.903 E12.87322
G1 X85.231 Y91.94 E12.91427
G1 X85.899 Y91.175 E12.94805
G1 X86.273 Y90.775 E12.96627
G1 X87.222 Y89.815 E13.01116
G0 F6000 X87.499 Y90.103
G1 F1200 X88.009 Y89.612 E13.03471
G1 X88.78 Y88.932 E13.0689
G1 X89.21 Y88.58 E13.08738
G1 X90.43 Y87.637 E13.13867
G1 X91.113 Y87.152 E13.16653
G1 X92.225 Y86.43 E13.21063
G1 X92.748 Y86.11 E13.23102
G1 X93.174 Y85.871 E13.24727
G1 X94.601 Y85.118 E13.30093
G1 X95.402 Y84.738 E13.33042
G1 X96.482 Y84.281 E13.36943
G1 X97.201 Y84.005 E13.39504
G1 X98.21 Y83.659 E13.43052
G1 X98.703 Y83.508 E13.44767
G1 X99.943 Y83.164 E13.49047
G1 X100.665 Y82.985 E13.51521
G1 X101.11 Y82.888 E13.53036
G1 X102.297 Y82.668 E13.57051
G1 X103.039 Y82.557 E13.59546
G1 X104.078 Y82.439 E13.63024
G1 X104.577 Y82.399 E13.64689
G1 X105.913 Y82.326 E13.69139
G1 X106.613 Y82.307 E13.71468
G1 X107.064 Y82.308 E13.72968
G1 X107.833 Y82.328 E13.75527
G1 X108.283 Y82.35 E13.77026
G1 X109.477 Y82.443 E13.81009
G1 X110.25 Y82.53 E13.83596
G1 X110.698 Y82.59 E13.85099
G1 X111.44 Y82.707 E13.87598
G1 X112.59 Y82.93 E13.91494
G1 X113.025 Y83.027 E13.92976
G1 X113.789 Y83.216 E13.95594
G1 X114.775 Y83.497 E13.99004
G1 X115.268 Y83.657 E14.00728
G1 X116.289 Y84.016 E14.04328
G1 X116.698 Y84.169 E14.0578
G1 X117.999 Y84.698 E14.10451
G1 X120.043 Y85.608 E14.17893
G1 X122.407 Y86.597 E14.26416
G1 X124.764 Y87.509 E14.34822
G1 X127.188 Y88.368 E14.43375
G1 X129.569 Y89.137 E14.51697
G1 X132.005 Y89.848 E14.60138
G1 X133.163 Y90.147 E14.64115
G1 X134.41 Y90.484 E14.68412
G1 X135.271 Y90.758 E14.71417
G1 X136.104 Y91.107 E14.74421
G1 X136.907 Y91.525 E14.77432
G1 X137.682 Y91.989 E14.80436
G1 X138.397 Y92.5 E14.83359
G1 X139.174 Y93.156 E14.86741
G1 X139.842 Y93.824 E14.89883
G1 X140.499 Y94.603 E14.93273
G1 X141.017 Y95.341 E14.96272
G1 X141.183 Y95.601 E14.97298
G1 X141.635 Y96.383 E15.00302
G1 X142.168 Y97.594 E15.04702
G1 X142.28 Y97.901 E15.05789
G1 X142.552 Y98.762 E15.08793
G1 X142.804 Y100.019 E15.13057
G1 X142.846 Y100.327 E15.1409
G1 X142.938 Y101.529 E15.181
G1 X142.95 Y102.284 E15.20612
G1 X142.947 Y117.795 E15.72201
G1 X142.936 Y118.502 E15.74553
G1 X142.882 Y119.403 E15.77555
G1 X142.797 Y120.028 E15.79653
G1 X142.729 Y120.434 E15.81022
G1 X142.54 Y121.317 E15.84026
G1 X142.275 Y122.18 E15.87028
G1 X141.933 Y123.016 E15.90033
G1 X141.646 Y123.592 E15.92173
G1 X141.482 Y123.896 E15.93322
G1 X141.018 Y124.671 E15.96326
G1 X140.587 Y125.276 E15.98797
G1 X140.433 Y125.476 E15.99636
G1 X139.851 Y126.166 E16.02639
G1 X139.177 Y126.841 E16.05811
G1 X138.397 Y127.499 E16.09205
G1 X137.659 Y128.017 E16.12204
G1 X137.399 Y128.183 E16.1323
G1 X136.617 Y128.635 E16.16234
G1 X135.474 Y129.143 E16.20395
G1 X135.179 Y129.253 E16.21442
G1 X134.214 Y129.559 E16.24809
G1 X133.193 Y129.828 E16.28321
G1 X130.645 Y130.537 E16.37117
G1 X128.203 Y131.292 E16.45619
G1 X125.793 Y132.113 E16.54087
G1 X123.435 Y132.991 E16.62456
G1 X121.11 Y133.933 E16.70799
G1 X119.007 Y134.87 E16.78457
G1 X118.786 Y134.957 E16.79247
G1 X118.036 Y135.286 E16.81971
G1 X116.653 Y135.854 E16.86943
G1 X116.217 Y136.022 E16.88497
G1 X115.422 Y136.298 E16.91296
G1 X114.662 Y136.537 E16.93946
G1 X113.595 Y136.831 E16.97627
G1 X113.089 Y136.952 E16.99358
G1 X111.765 Y137.225 E17.03854
G1 X110.587 Y137.423 E17.07827
G1 X109.696 Y137.536 E17.10814
G1 X108.928 Y137.607 E17.13379
G1 X107.735 Y137.675 E17.17354
G1 X106.628 Y137.69 E17.21036
G1 X106.085 Y137.678 E17.22842
G1 X104.997 Y137.625 E17.26465
G1 X104.566 Y137.595 E17.27902
G1 X103.667 Y137.513 E17.30905
G1 X102.919 Y137.425 E17.3341
G1 X101.753 Y137.237 E17.37338
G1 X101.318 Y137.154 E17.38811
G1 X100.557 Y136.991 E17.414
G1 X100.115 Y136.886 E17.42911
G1 X98.992 Y136.583 E17.46779
G1 X98.408 Y136.404 E17.48811
G1 X97.907 Y136.236 E17.50568
G1 X96.575 Y135.751 E17.55283
G1 X95.759 Y135.414 E17.5822
G1 X94.479 Y134.818 E17.62916
G1 X93.819 Y134.488 E17.6537
G1 X93.42 Y134.273 E17.66878
G1 X92.378 Y133.671 E17.7088
