;FLAVOR:Marlin
;TIME:10824
;Filament used: 5.99867m
;Layer height: 0.2
;MINX:59
;MINY:83.348
;MINZ:0.2
;MAXX:161
;MAXY:136.652
;MAXZ:21
;TARGET_MACHINE.NAME:Creality Ender-3 Pro
;Generated with Cura_SteamEngine 5.6.0
M82 ;absolute extrusion mode
; Ender 3 Custom Start G-code
G92 E0 ; Reset Extruder
G28 ; Home all axes
G1 Z5.0 F3000 ; Move Z Axis up a bit during heating to not damage bed
M104 S175 ; Start heating up the nozzle most of the way
M190 S60 ; Start heating the bed, wait until target temperature reached
M109 S200 ; Finish heating the nozzle
G1 Z2.0 F3000 ; Move Z Axis up little to prevent scratching of Heat Bed
G1 X0.1 Y20 Z0.3 F5000.0 ; Move to start position
G1 X0.1 Y200.0 Z0.3 F1500.0 E15 ; Draw the first line
G1 X0.4 Y200.0 Z0.3 F5000.0 ; Move to side a little
G1 X0.4 Y20 Z0.3 F1500.0 E30 ; Draw the second line
G92 E0 ; Reset Extruder
G1 Z2.0 F3000 ; Move Z Axis up little to prevent scratching of Heat Bed
G1 X5 Y20 Z0.3 F5000.0 ; Move over to prevent blob squish
G92 E0
G92 E0
G1 F1500 E-6.5
;LAYER_COUNT:105
;LAYER:0
M107
G0 F6000 X63.207 Y85.715 Z0.2
;TYPE:SKIRT
G1 F1500 E0
G1 F1200 X63.998 Y85.146 E0.03241
G1 X64.837 Y84.649 E0.06484
G1 X65.651 Y84.258 E0.09488
G1 X66.628 Y83.89 E0.1296
G1 X67.532 Y83.64 E0.1608
G1 X68.534 Y83.457 E0.19467
G1 X69.654 Y83.363 E0.23206
G1 X70.377 Y83.348 E0.25611
G1 X72.58 Y83.358 E0.32938
G1 X73.482 Y83.402 E0.35942
G1 X74.518 Y83.546 E0.39421
G1 X75.471 Y83.768 E0.42675
G1 X76.468 Y84.101 E0.46171
G1 X79.111 Y85.125 E0.55599
G1 X81.484 Y85.963 E0.63969
G1 X83.89 Y86.739 E0.72377
G1 X86.3 Y87.442 E0.80727
G1 X88.735 Y88.077 E0.89097
G1 X91.202 Y88.646 E0.97518
G1 X93.68 Y89.145 E1.05925
G1 X96.116 Y89.564 E1.14146
G1 X98.652 Y89.928 E1.22667
G1 X101.097 Y90.206 E1.30852
G1 X103.673 Y90.43 E1.39452
G1 X106.121 Y90.569 E1.47607
G1 X108.689 Y90.643 E1.56152
G1 X111.177 Y90.645 E1.64427
G1 X113.709 Y90.575 E1.72852
G1 X116.205 Y90.437 E1.81166
G1 X118.741 Y90.224 E1.8963
G1 X121.184 Y89.946 E1.97808
G1 X123.758 Y89.582 E2.06455
G1 X126.164 Y89.171 E2.14573
G1 X128.658 Y88.673 E2.23032
G1 X131.104 Y88.113 E2.31378
G1 X133.584 Y87.47 E2.39899
G1 X135.963 Y86.779 E2.48139
G1 X138.388 Y86.002 E2.56608
G1 X140.734 Y85.174 E2.64883
G1 X143.595 Y84.079 E2.75072
G1 X144.503 Y83.778 E2.78253
G1 X145.483 Y83.547 E2.81602
G1 X146.377 Y83.417 E2.84607
G1 X147.206 Y83.362 E2.8737
G1 X147.834 Y83.349 E2.89459
G1 X150.169 Y83.361 E2.97226
G1 X151.141 Y83.418 E3.00464
G1 X152.104 Y83.564 E3.03704
G1 X153.05 Y83.793 E3.06941
G1 X153.974 Y84.105 E3.10185
G1 X154.864 Y84.497 E3.13419
G1 X155.687 Y84.948 E3.16541
G1 X156.526 Y85.509 E3.19897
G1 X157.23 Y86.075 E3.22902
G1 X157.983 Y86.8 E3.26378
G1 X158.62 Y87.536 E3.29616
G1 X159.15 Y88.267 E3.32619
G1 X159.686 Y89.164 E3.36095
G1 X160.108 Y90.042 E3.39335
G1 X160.45 Y90.954 E3.42574
G1 X160.71 Y91.892 E3.45812
G1 X160.888 Y92.859 E3.49082
G1 X160.985 Y94.004 E3.52904
G1 X161 Y94.679 E3.55149
G1 X160.999 Y125.052 E4.5617
G1 X160.988 Y125.815 E4.58708
G1 X160.931 Y126.788 E4.6195
G1 X160.786 Y127.751 E4.65189
G1 X160.557 Y128.697 E4.68427
G1 X160.246 Y129.621 E4.71669
G1 X159.854 Y130.512 E4.74907
G1 X159.386 Y131.364 E4.7814
G1 X158.864 Y132.145 E4.81264
G1 X158.231 Y132.93 E4.84618
G1 X157.606 Y133.581 E4.8762
G1 X156.817 Y134.269 E4.91102
G1 X156.057 Y134.819 E4.94222
G1 X155.19 Y135.336 E4.97579
G1 X154.312 Y135.758 E5.00819
G1 X153.401 Y136.1 E5.04056
G1 X152.462 Y136.361 E5.07297
G1 X151.496 Y136.539 E5.10564
G1 X150.348 Y136.637 E5.14397
G1 X149.667 Y136.652 E5.16662
G1 X148.005 Y136.65 E5.2219
G1 X147.303 Y136.638 E5.24525
G1 X146.33 Y136.578 E5.27768
G1 X145.369 Y136.431 E5.31001
G1 X144.422 Y136.2 E5.34243
G1 X143.539 Y135.901 E5.37344
G1 X140.86 Y134.865 E5.46897
G1 X138.487 Y134.028 E5.55266
G1 X136.072 Y133.25 E5.63705
G1 X133.674 Y132.552 E5.72012
G1 X131.232 Y131.915 E5.80406
G1 X128.765 Y131.347 E5.88826
G1 X126.29 Y130.85 E5.97222
G1 X123.839 Y130.429 E6.05494
G1 X121.337 Y130.072 E6.139
G1 X118.852 Y129.789 E6.22218
G1 X116.313 Y129.57 E6.30694
G1 X113.853 Y129.431 E6.38889
G1 X111.285 Y129.358 E6.47434
G1 X108.796 Y129.356 E6.55712
G1 X106.266 Y129.427 E6.64131
G1 X103.782 Y129.567 E6.72405
G1 X101.211 Y129.783 E6.80987
G1 X98.785 Y130.059 E6.89108
G1 X96.212 Y130.424 E6.97751
G1 X93.802 Y130.836 E7.05883
G1 X91.327 Y131.332 E7.14279
G1 X88.858 Y131.897 E7.22703
G1 X86.404 Y132.535 E7.31136
G1 X84.003 Y133.233 E7.39453
G1 X81.598 Y134.005 E7.47854
G1 X79.223 Y134.843 E7.5623
G1 X76.405 Y135.922 E7.66267
G1 X75.497 Y136.223 E7.69448
G1 X74.516 Y136.454 E7.728
G1 X73.623 Y136.584 E7.75802
G1 X72.796 Y136.639 E7.78558
G1 X72.128 Y136.652 E7.80781
G1 X69.93 Y136.643 E7.88091
G1 X69.028 Y136.599 E7.91095
G1 X67.992 Y136.456 E7.94573
G1 X67.043 Y136.234 E7.97815
G1 X66.118 Y135.931 E8.01052
G1 X65.255 Y135.562 E8.04174
G1 X64.366 Y135.084 E8.07531
G1 X63.553 Y134.548 E8.1077
G1 X62.79 Y133.942 E8.14011
G1 X62.134 Y133.322 E8.17013
G1 X61.441 Y132.539 E8.20491
G1 X60.865 Y131.755 E8.23726
G1 X60.359 Y130.921 E8.26971
G1 X59.931 Y130.048 E8.30205
G1 X59.603 Y129.206 E8.3321
G1 X59.312 Y128.203 E8.36684
G1 X59.138 Y127.317 E8.39687
G1 X59.014 Y125.947 E8.44262
G1 X59 Y125.286 E8.46461
G1 X59.001 Y94.858 E9.47665
G1 X59.013 Y94.156 E9.5
G1 X59.073 Y93.183 E9.53243
G1 X59.22 Y92.222 E9.56476
G1 X59.451 Y91.274 E9.59722
G1 X59.753 Y90.385 E9.62844
G1 X60.16 Y89.463 E9.66196
G1 X60.631 Y88.611 E9.69434
G1 X61.176 Y87.804 E9.72673
G1 X61.767 Y87.074 E9.75797
G1 X62.47 Y86.349 E9.79156
G1 X63.207 Y85.715 E9.82389
G0 F6000 X63.441 Y86.039
G1 F1200 X64.202 Y85.49 E9.8551
G1 X65.01 Y85.01 E9.88636
G1 X65.824 Y84.619 E9.9164
G1 X66.735 Y84.276 E9.94877
G1 X67.639 Y84.026 E9.97997
G1 X68.567 Y83.856 E10.01135
G1 X69.687 Y83.762 E10.04873
G1 X70.375 Y83.748 E10.07162
G1 X72.561 Y83.758 E10.14433
G1 X73.463 Y83.802 E10.17436
G1 X74.428 Y83.936 E10.20677
G1 X75.345 Y84.148 E10.23807
G1 X76.324 Y84.474 E10.27239
G1 X78.97 Y85.499 E10.36677
G1 X81.361 Y86.344 E10.45111
G1 X83.767 Y87.12 E10.5352
G1 X86.192 Y87.827 E10.61921
G1 X88.645 Y88.467 E10.70353
G1 X91.112 Y89.036 E10.78774
G1 X93.605 Y89.538 E10.87232
G1 X96.059 Y89.96 E10.95514
G1 X98.595 Y90.324 E11.04035
G1 X101.063 Y90.605 E11.12297
G1 X103.639 Y90.828 E11.20896
G1 X106.109 Y90.969 E11.29125
G1 X108.677 Y91.043 E11.3767
G1 X111.188 Y91.045 E11.46021
G1 X113.72 Y90.975 E11.54446
G1 X116.238 Y90.835 E11.62834
G1 X118.774 Y90.622 E11.71298
G1 X121.24 Y90.342 E11.79553
G1 X123.814 Y89.978 E11.88199
G1 X126.238 Y89.564 E11.96378
G1 X128.747 Y89.063 E12.04888
G1 X131.193 Y88.503 E12.13234
G1 X133.69 Y87.855 E12.21814
G1 X136.085 Y87.16 E12.30109
G1 X138.51 Y86.383 E12.38578
G1 X140.877 Y85.548 E12.46926
G1 X143.721 Y84.459 E12.57055
G1 X144.629 Y84.158 E12.60237
G1 X145.541 Y83.943 E12.63353
G1 X146.435 Y83.813 E12.66358
G1 X147.214 Y83.762 E12.68954
G1 X147.832 Y83.749 E12.7101
G1 X150.146 Y83.76 E12.78707
G1 X151.082 Y83.814 E12.81825
G1 X152.011 Y83.953 E12.84949
G1 X152.923 Y84.172 E12.88069
G1 X153.813 Y84.471 E12.91192
G1 X154.672 Y84.848 E12.94312
G1 X155.495 Y85.299 E12.97433
G1 X156.275 Y85.821 E13.00555
G1 X156.979 Y86.387 E13.03559
G1 X157.681 Y87.062 E13.06798
G1 X158.296 Y87.771 E13.0992
G1 X158.826 Y88.502 E13.12923
G1 X159.326 Y89.338 E13.16163
G1 X159.734 Y90.183 E13.19284
G1 X160.065 Y91.061 E13.22405
G1 X160.317 Y91.965 E13.25526
G1 X160.489 Y92.893 E13.28665
G1 X160.586 Y94.038 E13.32487
G1 X160.6 Y94.679 E13.3462
G1 X160.599 Y125.047 E14.35624
G1 X160.589 Y125.792 E14.38102
G1 X160.535 Y126.729 E14.41224
G1 X160.397 Y127.658 E14.44348
G1 X160.178 Y128.57 E14.47467
G1 X159.88 Y129.46 E14.50589
G1 X159.503 Y130.32 E14.53712
G1 X159.053 Y131.142 E14.56829
G1 X158.531 Y131.923 E14.59953
G1 X157.942 Y132.653 E14.63073
G1 X157.317 Y133.304 E14.66075
G1 X156.582 Y133.945 E14.69318
G1 X155.822 Y134.495 E14.72439
G1 X155.016 Y134.976 E14.7556
G1 X154.171 Y135.384 E14.78681
G1 X153.293 Y135.715 E14.81802
G1 X152.389 Y135.968 E14.84925
G1 X151.462 Y136.14 E14.8806
G1 X150.314 Y136.238 E14.91893
G1 X149.667 Y136.252 E14.94045
G1 X148.011 Y136.25 E14.99553
G1 X147.327 Y136.239 E15.01828
G1 X146.39 Y136.182 E15.0495
G1 X145.463 Y136.042 E15.08069
G1 X144.55 Y135.821 E15.11193
G1 X143.683 Y135.528 E15.14237
G1 X141.004 Y134.492 E15.2379
G1 X138.61 Y133.647 E15.32234
G1 X136.195 Y132.869 E15.40673
G1 X133.786 Y132.168 E15.49018
G1 X131.322 Y131.525 E15.57487
G1 X128.855 Y130.957 E15.65907
G1 X126.365 Y130.457 E15.74354
G1 X123.896 Y130.033 E15.82687
G1 X121.394 Y129.676 E15.91093
G1 X118.886 Y129.39 E15.99488
G1 X116.347 Y129.172 E16.07964
G1 X113.864 Y129.031 E16.16236
G1 X111.296 Y128.958 E16.24781
G1 X108.785 Y128.956 E16.33132
G1 X106.255 Y129.027 E16.4155
G1 X103.748 Y129.168 E16.49902
G1 X101.177 Y129.385 E16.58483
G1 X98.729 Y129.663 E16.66678
G1 X96.156 Y130.028 E16.75321
G1 X93.723 Y130.444 E16.83531
G1 X91.238 Y130.942 E16.9196
G1 X88.769 Y131.507 E17.00385
G1 X86.297 Y132.15 E17.0888
G1 X83.881 Y132.852 E17.17248
G1 X81.476 Y133.624 E17.25649
G1 X79.08 Y134.469 E17.34099
G1 X76.279 Y135.542 E17.44076
G1 X75.371 Y135.843 E17.47257
G1 X74.458 Y136.058 E17.50377
G1 X73.565 Y136.188 E17.53378
G1 X72.788 Y136.239 E17.55968
G1 X72.13 Y136.252 E17.58157
G1 X69.949 Y136.243 E17.65411
G1 X69.047 Y136.199 E17.68415
G1 X68.082 Y136.066 E17.71655
G1 X67.167 Y135.854 E17.74779
G1 X66.275 Y135.563 E17.779
G1 X65.412 Y135.194 E17.81021
G1 X64.586 Y134.75 E17.8414
G1 X63.801 Y134.234 E17.87265
G1 X63.065 Y133.651 E17.90388
G1 X62.409 Y133.031 E17.9339
G1 X61.763 Y132.302 E17.9663
G1 X61.207 Y131.547 E17.99748
G1 X60.718 Y130.744 E18.02875
G1 X60.304 Y129.903 E18.05993
G1 X59.976 Y129.061 E18.08998
G1 X59.705 Y128.126 E18.12236
G1 X59.531 Y127.24 E18.15239
G1 X59.414 Y125.938 E18.19587
G1 X59.4 Y125.286 E18.21756
G1 X59.401 Y94.864 E19.2294
G1 X59.412 Y94.18 E19.25216
G1 X59.469 Y93.243 E19.28338
G1 X59.609 Y92.316 E19.31456
G1 X59.83 Y91.403 E19.3458
G1 X60.132 Y90.514 E19.37703
G1 X60.51 Y89.656 E19.40821
G1 X60.963 Y88.834 E19.43943
G1 X61.487 Y88.056 E19.47063
G1 X62.078 Y87.326 E19.50187
G1 X62.731 Y86.652 E19.53308
G1 X63.441 Y86.039 E19.56428
G0 F6000 X63.675 Y86.363
G1 F1200 X64.407 Y85.834 E19.59432
G1 X65.183 Y85.371 E19.62437
G1 X65.997 Y84.98 E19.65441
G1 X66.842 Y84.661 E19.68445
G1 X67.712 Y84.419 E19.71448
G1 X68.6 Y84.255 E19.74452
G1 X69.72 Y84.161 E19.7819
G1 X70.373 Y84.148 E19.80362
G1 X72.542 Y84.158 E19.87577
G1 X73.444 Y84.202 E19.9058
G1 X74.339 Y84.326 E19.93586
G1 X75.219 Y84.528 E19.96589
G1 X76.18 Y84.847 E19.99956
G1 X78.829 Y85.873 E20.09405
G1 X81.238 Y86.725 E20.17903
G1 X83.644 Y87.501 E20.26312
G1 X86.084 Y88.212 E20.34765
G1 X88.555 Y88.857 E20.43259
G1 X91.022 Y89.426 E20.51679
G1 X93.53 Y89.931 E20.60188
G1 X96.002 Y90.356 E20.68531
G1 X98.538 Y90.72 E20.77052
G1 X101.029 Y91.004 E20.85391
G1 X103.605 Y91.226 E20.93991
G1 X106.097 Y91.369 E21.02293
G1 X108.665 Y91.443 E21.10837
G1 X111.199 Y91.445 E21.19265
G1 X113.731 Y91.375 E21.2769
G1 X116.271 Y91.233 E21.36151
G1 X118.807 Y91.02 E21.44616
G1 X121.296 Y90.738 E21.52947
G1 X123.87 Y90.374 E21.61594
G1 X126.312 Y89.957 E21.69833
G1 X128.836 Y89.453 E21.78394
G1 X131.282 Y88.893 E21.8674
G1 X133.794 Y88.241 E21.95372
G1 X136.207 Y87.541 E22.03728
G1 X138.632 Y86.764 E22.12198
G1 X141.02 Y85.922 E22.20619
G1 X143.864 Y84.833 E22.30748
G1 X144.721 Y84.547 E22.33753
G1 X145.599 Y84.339 E22.36754
G1 X146.493 Y84.209 E22.39759
G1 X147.223 Y84.162 E22.42192
G1 X147.83 Y84.149 E22.44211
G1 X150.123 Y84.159 E22.51838
G1 X151.024 Y84.21 E22.5484
G1 X151.918 Y84.342 E22.57845
G1 X152.796 Y84.551 E22.60847
G1 X153.653 Y84.838 E22.63853
G1 X154.48 Y85.199 E22.66854
G1 X155.273 Y85.632 E22.6986
G1 X156.024 Y86.133 E22.72862
G1 X156.728 Y86.699 E22.75867
G1 X157.379 Y87.325 E22.7887
G1 X157.972 Y88.006 E22.81874
G1 X158.502 Y88.737 E22.84877
G1 X158.966 Y89.512 E22.87881
G1 X159.36 Y90.325 E22.90886
G1 X159.68 Y91.169 E22.93888
G1 X159.924 Y92.039 E22.96894
G1 X160.09 Y92.927 E22.99898
G1 X160.187 Y94.072 E23.0372
G1 X160.2 Y94.679 E23.0574
G1 X160.199 Y125.042 E24.06727
G1 X160.19 Y125.769 E24.09145
G1 X160.139 Y126.671 E24.1215
G1 X160.008 Y127.565 E24.15156
G1 X159.799 Y128.443 E24.18157
G1 X159.513 Y129.3 E24.21162
G1 X159.152 Y130.128 E24.24167
G1 X158.72 Y130.92 E24.27167
G1 X158.219 Y131.672 E24.30173
G1 X157.653 Y132.376 E24.33177
G1 X157.028 Y133.027 E24.36179
G1 X156.347 Y133.621 E24.39184
G1 X155.616 Y134.152 E24.42189
G1 X154.842 Y134.616 E24.45191
G1 X154.029 Y135.01 E24.48196
G1 X153.185 Y135.33 E24.51198
G1 X152.315 Y135.575 E24.54204
G1 X151.428 Y135.741 E24.57205
G1 X150.28 Y135.839 E24.61037
G1 X149.667 Y135.852 E24.63077
G1 X148.017 Y135.85 E24.68565
G1 X147.351 Y135.84 E24.7078
G1 X146.449 Y135.786 E24.73786
G1 X145.556 Y135.653 E24.76788
G1 X144.678 Y135.442 E24.79792
G1 X143.827 Y135.155 E24.82779
G1 X141.148 Y134.119 E24.92332
G1 X138.733 Y133.266 E25.00851
G1 X136.318 Y132.488 E25.0929
G1 X133.898 Y131.784 E25.17672
G1 X131.412 Y131.135 E25.26218
G1 X128.945 Y130.567 E25.34638
G1 X126.44 Y130.064 E25.43136
G1 X123.953 Y129.637 E25.51529
G1 X121.451 Y129.28 E25.59935
G1 X118.92 Y128.991 E25.68408
G1 X116.381 Y128.774 E25.76883
G1 X113.875 Y128.631 E25.85232
G1 X111.307 Y128.558 E25.93776
G1 X108.774 Y128.556 E26.02201
G1 X106.244 Y128.627 E26.10619
G1 X103.714 Y128.769 E26.19047
G1 X101.143 Y128.987 E26.27629
G1 X98.673 Y129.267 E26.35897
G1 X96.1 Y129.632 E26.44541
G1 X93.644 Y130.052 E26.52828
G1 X91.149 Y130.552 E26.61291
G1 X88.68 Y131.117 E26.69715
G1 X86.19 Y131.765 E26.78273
G1 X83.759 Y132.471 E26.86693
G1 X81.354 Y133.243 E26.95094
G1 X78.937 Y134.095 E27.03618
G1 X76.136 Y135.168 E27.13594
G1 X75.279 Y135.454 E27.16599
G1 X74.4 Y135.662 E27.19603
G1 X73.507 Y135.792 E27.22605
G1 X72.78 Y135.839 E27.25028
G1 X72.132 Y135.852 E27.27183
G1 X69.968 Y135.843 E27.34381
G1 X69.066 Y135.799 E27.37384
G1 X68.171 Y135.676 E27.40389
G1 X67.291 Y135.474 E27.43392
G1 X66.432 Y135.195 E27.46396
G1 X65.601 Y134.841 E27.494
G1 X64.805 Y134.415 E27.52403
G1 X64.049 Y133.92 E27.55409
G1 X63.34 Y133.36 E27.58414
G1 X62.684 Y132.74 E27.61416
G1 X62.085 Y132.064 E27.6442
G1 X61.548 Y131.338 E27.67423
G1 X61.077 Y130.567 E27.70428
G1 X60.677 Y129.758 E27.7343
G1 X60.349 Y128.916 E27.76436
G1 X60.098 Y128.049 E27.79438
G1 X59.924 Y127.163 E27.82441
G1 X59.814 Y125.929 E27.86561
G1 X59.8 Y125.286 E27.88701
G1 X59.801 Y94.87 E28.89865
G1 X59.811 Y94.204 E28.9208
G1 X59.865 Y93.302 E28.95085
G1 X59.998 Y92.409 E28.98088
G1 X60.209 Y91.531 E29.01092
G1 X60.498 Y90.675 E29.04097
G1 X60.861 Y89.848 E29.071
G1 X61.295 Y89.057 E29.10101
G1 X61.798 Y88.307 E29.13105
G1 X62.366 Y87.604 E29.16111
G1 X62.993 Y86.954 E29.19115
G1 X63.675 Y86.363 E29.22116
G1 F1500 E22.72116
;MESH:LINK_FRAMESHORTRA.stl
G0 F6000 X73.153 Y94.111
G0 X73.942 Y105.718
G0 X148.1 Y124.636
;TYPE:WALL-INNER
G1 F1500 E29.22116
G1 F1200 X149.4 Y124.636 E29.2644
G1 X149.4 Y95.364 E30.23799
G1 X148.1 Y95.364 E30.28123
G1 X148.1 Y104.765 E30.59391
G1 X147.98 Y105.039 E30.60386
G1 X147.748 Y105.349 E30.61674
G1 X147.474 Y105.749 E30.63286
G1 X147.198 Y106.222 E30.65108
G1 X147.061 Y106.588 E30.66407
G1 X146.945 Y106.781 E30.67156
G1 X146.79 Y106.903 E30.67812
G1 X146.596 Y106.977 E30.68503
G1 X73.515 Y106.977 E33.11571
G1 X73.337 Y106.95 E33.1217
G1 X73.136 Y106.842 E33.12929
G1 X72.967 Y106.623 E33.13849
G1 X72.74 Y106.116 E33.15697
G1 X72.547 Y105.782 E33.1698
G1 X72.384 Y105.536 E33.17961
G1 X72.016 Y105.035 E33.20029
G1 X71.9 Y104.764 E33.21009
G1 X71.9 Y95.364 E33.52274
G1 X70.6 Y95.364 E33.56598
