;FLAVOR:Marlin
;TIME:3969
;Filament used: 2.31825m
;Layer height: 0.2
;MINX:83.559
;MINY:85.593
;MINZ:0.2
;MAXX:136.441
;MAXY:138.481
;MAXZ:30.8
;TARGET_MACHINE.NAME:Creality Ender-3 Pro
;Generated with Cura_SteamEngine 5.6.0
M82 ;absolute extrusion mode
; Ender 3 Custom Start G-code
G92 E0 ; Reset Extruder
G28 ; Home all axes
G1 Z5.0 F3000 ; Move Z Axis up a bit during heating to not damage bed
M104 S175 ; Start heating up the nozzle most of the way
M190 S60 ; Start heating the bed, wait until target temperature reached
M109 S200 ; Finish heating the nozzle
G1 Z2.0 F3000 ; Move Z Axis up little to prevent scratching of Heat Bed
G1 X0.1 Y20 Z0.3 F5000.0 ; Move to start position
G1 X0.1 Y200.0 Z0.3 F1500.0 E15 ; Draw the first line
G1 X0.4 Y200.0 Z0.3 F5000.0 ; Move to side a little
G1 X0.4 Y20 Z0.3 F1500.0 E30 ; Draw the second line
G92 E0 ; Reset Extruder
G1 Z2.0 F3000 ; Move Z Axis up little to prevent scratching of Heat Bed
G1 X5 Y20 Z0.3 F5000.0 ; Move over to prevent blob squish
G92 E0
G92 E0
G1 F1500 E-6.5
;LAYER_COUNT:154
;LAYER:0
M107
G0 F6000 X91.176 Y93.469 Z0.2
;TYPE:SKIRT
G1 F1500 E0
G1 F1200 X91.846 Y92.814 E0.03116
G1 X92.593 Y92.148 E0.06445
G1 X93.539 Y91.347 E0.10568
G1 X94.298 Y90.765 E0.13749
G1 X95.03 Y90.255 E0.16716
G1 X96.072 Y89.564 E0.20875
G1 X96.906 Y89.069 E0.241
G1 X97.968 Y88.504 E0.28101
G1 X98.853 Y88.063 E0.3139
G1 X99.783 Y87.654 E0.34769
G1 X100.886 Y87.23 E0.387
G1 X101.793 Y86.905 E0.41904
G1 X102.68 Y86.633 E0.4499
G1 X103.562 Y86.405 E0.4802
G1 X104.769 Y86.123 E0.52142
G1 X105.74 Y85.944 E0.55426
G1 X106.89 Y85.792 E0.59285
G1 X107.865 Y85.686 E0.62547
G1 X108.555 Y85.633 E0.64848
G1 X109.444 Y85.599 E0.67807
G1 X110.157 Y85.593 E0.70179
G1 X110.676 Y85.6 E0.71905
G1 X111.4 Y85.629 E0.74315
G1 X112.045 Y85.678 E0.76467
G1 X113.492 Y85.839 E0.81309
G1 X114.184 Y85.931 E0.83631
G1 X115.097 Y86.096 E0.86717
G1 X115.971 Y86.292 E0.89696
G1 X117.203 Y86.6 E0.9392
G1 X118.171 Y86.895 E0.97285
G1 X119.193 Y87.259 E1.00894
G1 X120.156 Y87.628 E1.04324
G1 X121.081 Y88.035 E1.07685
G1 X122.423 Y88.707 E1.12677
G1 X123.087 Y89.061 E1.1518
G1 X123.936 Y89.567 E1.18467
G1 X124.893 Y90.201 E1.22285
G1 X125.648 Y90.724 E1.2534
G1 X126.334 Y91.245 E1.28205
G1 X127.152 Y91.927 E1.31747
G1 X128.046 Y92.712 E1.35704
G1 X128.828 Y93.475 E1.39338
G1 X129.587 Y94.292 E1.43047
G1 X130.183 Y94.959 E1.46022
G1 X130.819 Y95.742 E1.49377
G1 X131.508 Y96.677 E1.5324
G1 X132.086 Y97.501 E1.56588
G1 X132.587 Y98.294 E1.59708
G1 X133.156 Y99.295 E1.63537
G1 X133.606 Y100.13 E1.66692
G1 X134.025 Y101.004 E1.69916
G1 X134.544 Y102.233 E1.74353
G1 X134.878 Y103.08 E1.77381
G1 X135.17 Y103.938 E1.80396
G1 X135.506 Y105.103 E1.84429
G1 X135.748 Y106.025 E1.87599
G1 X135.956 Y106.994 E1.90895
G1 X136.111 Y107.931 E1.94054
G1 X136.284 Y109.136 E1.98103
G1 X136.387 Y110.301 E2.01993
G1 X136.431 Y111.645 E2.06466
G1 X136.441 Y112.351 E2.08814
G1 X136.41 Y113.319 E2.12035
G1 X136.292 Y114.807 E2.17
G1 X136.215 Y115.52 E2.19385
G1 X136.062 Y116.517 E2.2274
G1 X135.817 Y117.711 E2.26794
G1 X135.635 Y118.521 E2.29555
G1 X135.392 Y119.415 E2.32637
G1 X135.037 Y120.518 E2.3649
G1 X134.715 Y121.439 E2.39736
G1 X134.346 Y122.359 E2.43032
G1 X133.837 Y123.466 E2.47085
G1 X133.413 Y124.331 E2.50289
G1 X132.917 Y125.229 E2.53701
G1 X132.142 Y126.485 E2.5861
G1 X131.768 Y127.055 E2.60877
G1 X131.236 Y127.796 E2.63911
G1 X130.497 Y128.732 E2.67878
G1 X129.848 Y129.514 E2.71258
G1 X129.219 Y130.208 E2.74373
G1 X128.613 Y130.812 E2.77219
G1 X127.68 Y131.703 E2.8151
G1 X126.927 Y132.357 E2.84827
G1 X126.041 Y133.05 E2.88568
G1 X125.231 Y133.655 E2.91931
G1 X124.395 Y134.221 E2.95288
G1 X123.401 Y134.825 E2.99157
G1 X122.525 Y135.331 E3.02522
G1 X121.69 Y135.76 E3.05644
G1 X120.619 Y136.25 E3.09561
G1 X119.731 Y136.63 E3.12774
G1 X118.818 Y136.971 E3.16015
G1 X117.655 Y137.343 E3.20077
G1 X116.726 Y137.615 E3.23296
G1 X115.84 Y137.832 E3.2633
G1 X114.917 Y138.014 E3.29459
G1 X113.67 Y138.228 E3.33667
G1 X112.665 Y138.349 E3.37034
G1 X111.467 Y138.436 E3.41029
G1 X110.486 Y138.481 E3.44296
G1 X109.526 Y138.48 E3.47488
G1 X108.111 Y138.41 E3.52201
G1 X107.378 Y138.355 E3.54645
G1 X106.42 Y138.24 E3.57855
G1 X105.006 Y138.003 E3.62623
G1 X104.289 Y137.863 E3.65053
G1 X103.373 Y137.641 E3.68188
G1 X102.209 Y137.302 E3.7222
G1 X101.322 Y137.021 E3.75315
G1 X100.374 Y136.669 E3.78678
G1 X99.299 Y136.212 E3.82563
G1 X98.375 Y135.793 E3.85938
G1 X97.533 Y135.362 E3.89084
G1 X96.527 Y134.787 E3.92938
G1 X95.739 Y134.312 E3.95998
G1 X94.886 Y133.741 E3.99412
G1 X94.12 Y133.174 E4.02582
G1 X93.144 Y132.415 E4.06694
G1 X92.429 Y131.801 E4.09829
G1 X91.767 Y131.182 E4.12843
G1 X90.785 Y130.212 E4.17434
G1 X90.032 Y129.383 E4.21159
G1 X89.157 Y128.309 E4.25767
G1 X88.725 Y127.756 E4.281
G1 X88.201 Y127.013 E4.31124
G1 X87.451 Y125.844 E4.35744
G1 X87.085 Y125.24 E4.38093
G1 X86.628 Y124.41 E4.41244
G1 X86.113 Y123.364 E4.45122
G1 X85.685 Y122.439 E4.48512
G1 X85.321 Y121.538 E4.51744
G1 X84.842 Y120.166 E4.56578
G1 X84.624 Y119.486 E4.58953
G1 X84.369 Y118.542 E4.62205
G1 X84.106 Y117.364 E4.66219
G1 X83.925 Y116.455 E4.69302
G1 X83.788 Y115.532 E4.72406
G1 X83.661 Y114.29 E4.76558
G1 X83.59 Y113.38 E4.79594
G1 X83.559 Y112.424 E4.82775
G1 X83.575 Y111.319 E4.86451
G1 X83.619 Y110.207 E4.90152
G1 X83.696 Y109.289 E4.93216
G1 X83.818 Y108.385 E4.9625
G1 X84.016 Y107.132 E5.0047
G1 X84.208 Y106.202 E5.03628
G1 X84.499 Y105.074 E5.07503
G1 X84.781 Y104.081 E5.10936
G1 X85.126 Y103.063 E5.14511
G1 X85.545 Y102.004 E5.18299
G1 X85.921 Y101.108 E5.21531
G1 X86.308 Y100.291 E5.24538
G1 X86.738 Y99.481 E5.27588
G1 X87.339 Y98.415 E5.31658
G1 X87.87 Y97.567 E5.34986
G1 X88.561 Y96.577 E5.39001
G1 X89.122 Y95.814 E5.42151
G1 X89.732 Y95.057 E5.45385
G1 X90.515 Y94.177 E5.49302
G1 X91.176 Y93.469 E5.52524
G0 F6000 X91.456 Y93.755
G1 F1200 X92.126 Y93.1 E5.5564
G1 X92.851 Y92.453 E5.58872
G1 X93.783 Y91.664 E5.62934
G1 X94.527 Y91.093 E5.66053
G1 X95.251 Y90.588 E5.68989
G1 X96.276 Y89.908 E5.7308
G1 X97.094 Y89.422 E5.76245
G1 X98.147 Y88.862 E5.80212
G1 X99.014 Y88.429 E5.83435
G1 X99.927 Y88.027 E5.86753
G1 X101.021 Y87.606 E5.90652
G1 X101.91 Y87.287 E5.93793
G1 X102.78 Y87.02 E5.9682
G1 X103.653 Y86.794 E5.99819
G1 X104.841 Y86.516 E6.03877
G1 X105.793 Y86.341 E6.07097
G1 X106.933 Y86.19 E6.10921
G1 X107.896 Y86.085 E6.14143
G1 X108.571 Y86.033 E6.16395
G1 X109.447 Y85.999 E6.19311
G1 X110.151 Y85.993 E6.21652
G1 X110.66 Y86 E6.23346
G1 X111.37 Y86.028 E6.25709
G1 X112.001 Y86.076 E6.27814
G1 X113.439 Y86.235 E6.32626
G1 X114.113 Y86.325 E6.34887
G1 X115.009 Y86.486 E6.37915
G1 X115.874 Y86.68 E6.40864
G1 X117.087 Y86.983 E6.45022
G1 X118.037 Y87.272 E6.48325
G1 X119.05 Y87.633 E6.51901
G1 X120.013 Y88.002 E6.55331
G1 X120.902 Y88.393 E6.58562
G1 X122.235 Y89.06 E6.63519
G1 X122.882 Y89.405 E6.65958
G1 X123.715 Y89.901 E6.69183
G1 X124.665 Y90.53 E6.72972
G1 X125.406 Y91.043 E6.7597
G1 X126.092 Y91.564 E6.78835
G1 X126.888 Y92.228 E6.82282
G1 X127.767 Y92.999 E6.86171
G1 X128.535 Y93.747 E6.89737
G1 X129.289 Y94.559 E6.93423
G1 X129.885 Y95.226 E6.96398
G1 X130.497 Y95.979 E6.99625
G1 X131.181 Y96.907 E7.03459
G1 X131.748 Y97.715 E7.06742
G1 X132.239 Y98.492 E7.09799
G1 X132.804 Y99.485 E7.13599
G1 X133.245 Y100.303 E7.1669
G1 X133.664 Y101.177 E7.19914
G1 X134.172 Y102.38 E7.24257
G1 X134.499 Y103.209 E7.27221
G1 X134.791 Y104.067 E7.30236
G1 X135.119 Y105.205 E7.34175
G1 X135.357 Y106.109 E7.37284
G1 X135.561 Y107.059 E7.40516
G1 X135.715 Y107.988 E7.43648
G1 X135.888 Y109.193 E7.47697
G1 X135.987 Y110.314 E7.5144
G1 X136.031 Y111.651 E7.55889
G1 X136.041 Y112.338 E7.58174
G1 X136.011 Y113.287 E7.61332
G1 X135.894 Y114.765 E7.66263
G1 X135.82 Y115.459 E7.68585
G1 X135.67 Y116.437 E7.71876
G1 X135.427 Y117.623 E7.75902
G1 X135.249 Y118.416 E7.78605
G1 X135.011 Y119.292 E7.81625
G1 X134.659 Y120.386 E7.85447
G1 X134.344 Y121.29 E7.88631
G1 X133.983 Y122.192 E7.91862
G1 X133.478 Y123.29 E7.95882
G1 X133.063 Y124.138 E7.99022
G1 X132.577 Y125.019 E8.02369
G1 X131.807 Y126.266 E8.07243
G1 X131.443 Y126.822 E8.09453
G1 X130.922 Y127.548 E8.12426
G1 X130.189 Y128.477 E8.16361
G1 X129.552 Y129.245 E8.1968
G1 X128.936 Y129.925 E8.22732
G1 X128.337 Y130.523 E8.25547
G1 X127.418 Y131.401 E8.29774
G1 X126.68 Y132.042 E8.33026
G1 X125.802 Y132.73 E8.36736
G1 X125.007 Y133.324 E8.40036
G1 X124.187 Y133.879 E8.4333
G1 X123.201 Y134.479 E8.47169
G1 X122.342 Y134.975 E8.50468
G1 X121.524 Y135.396 E8.53528
G1 X120.462 Y135.882 E8.57412
G1 X119.591 Y136.255 E8.60563
G1 X118.696 Y136.59 E8.63742
G1 X117.543 Y136.959 E8.67768
G1 X116.631 Y137.226 E8.70929
G1 X115.745 Y137.443 E8.73963
G1 X114.849 Y137.62 E8.77001
G1 X113.622 Y137.831 E8.81142
G1 X112.636 Y137.95 E8.84445
G1 X111.448 Y138.036 E8.88407
G1 X110.486 Y138.081 E8.9161
G1 X109.546 Y138.08 E8.94736
G1 X108.141 Y138.011 E8.99415
G1 X107.426 Y137.958 E9.01799
G1 X106.486 Y137.845 E9.04948
G1 X105.082 Y137.61 E9.09683
G1 X104.383 Y137.474 E9.12052
G1 X103.485 Y137.257 E9.15124
G1 X102.33 Y136.921 E9.19125
G1 X101.461 Y136.646 E9.22157
G1 X100.53 Y136.301 E9.25459
G1 X99.464 Y135.848 E9.29311
G1 X98.557 Y135.437 E9.32623
G1 X97.732 Y135.015 E9.35705
G1 X96.734 Y134.444 E9.3953
G1 X95.946 Y133.969 E9.4259
G1 X95.124 Y133.419 E9.45879
G1 X94.365 Y132.858 E9.49019
G1 X93.404 Y132.111 E9.53067
G1 X92.702 Y131.509 E9.56143
G1 X92.048 Y130.897 E9.59122
G1 X91.081 Y129.943 E9.6364
G1 X90.342 Y129.13 E9.67294
G1 X89.472 Y128.063 E9.71873
G1 X89.052 Y127.525 E9.74143
G1 X88.538 Y126.797 E9.77107
G1 X87.793 Y125.636 E9.81695
G1 X87.435 Y125.047 E9.83988
G1 X86.987 Y124.233 E9.87078
G1 X86.476 Y123.196 E9.90923
G1 X86.056 Y122.289 E9.94248
G1 X85.699 Y121.406 E9.97416
G1 X85.223 Y120.044 E10.02214
G1 X85.01 Y119.381 E10.0453
G1 X84.759 Y118.455 E10.07721
G1 X84.498 Y117.286 E10.11705
G1 X84.321 Y116.396 E10.14723
G1 X84.186 Y115.491 E10.17767
G1 X84.06 Y114.259 E10.21886
G1 X83.99 Y113.367 E10.24862
G1 X83.959 Y112.43 E10.2798
G1 X83.975 Y111.335 E10.31622
G1 X84.018 Y110.24 E10.35267
G1 X84.095 Y109.322 E10.38331
G1 X84.213 Y108.447 E10.41268
G1 X84.408 Y107.213 E10.45423
G1 X84.6 Y106.283 E10.48581
G1 X84.884 Y105.183 E10.5236
G1 X85.16 Y104.209 E10.55727
G1 X85.498 Y103.21 E10.59235
G1 X85.914 Y102.159 E10.62994
G1 X86.283 Y101.279 E10.66168
G1 X86.661 Y100.479 E10.69111
G1 X87.087 Y99.677 E10.72131
G1 X87.678 Y98.627 E10.76139
G1 X88.198 Y97.796 E10.79399
G1 X88.883 Y96.814 E10.83382
G1 X89.433 Y96.065 E10.86472
G1 X90.031 Y95.323 E10.89642
G1 X90.807 Y94.45 E10.93527
G1 X91.456 Y93.755 E10.96689
G0 F6000 X91.736 Y94.041
G1 F1200 X92.406 Y93.386 E10.99806
G1 X93.11 Y92.758 E11.02944
G1 X94.027 Y91.981 E11.06941
G1 X94.756 Y91.421 E11.09999
G1 X95.472 Y90.921 E11.12903
G1 X96.481 Y90.252 E11.1693
G1 X97.282 Y89.775 E11.20031
G1 X98.326 Y89.22 E11.23963
G1 X99.176 Y88.795 E11.27124
G1 X100.071 Y88.4 E11.30378
G1 X101.156 Y87.982 E11.34245
G1 X102.028 Y87.669 E11.37327
G1 X102.88 Y87.407 E11.40291
G1 X103.744 Y87.183 E11.4326
G1 X104.913 Y86.909 E11.47253
G1 X105.846 Y86.738 E11.50408
G1 X106.977 Y86.588 E11.54203
G1 X107.927 Y86.484 E11.57382
G1 X108.587 Y86.433 E11.59583
G1 X109.45 Y86.399 E11.62456
G1 X110.145 Y86.393 E11.64767
G1 X110.644 Y86.4 E11.66427
G1 X111.34 Y86.427 E11.68744
G1 X111.957 Y86.474 E11.70802
G1 X113.386 Y86.631 E11.75584
G1 X114.043 Y86.719 E11.77788
G1 X114.921 Y86.876 E11.80755
G1 X115.777 Y87.068 E11.83673
G1 X116.971 Y87.366 E11.87766
G1 X117.903 Y87.649 E11.91005
G1 X118.907 Y88.007 E11.94551
G1 X119.87 Y88.376 E11.97981
G1 X120.723 Y88.751 E12.0108
G1 X122.047 Y89.413 E12.06003
G1 X122.677 Y89.749 E12.08378
G1 X123.51 Y90.245 E12.11602
G1 X124.437 Y90.859 E12.15301
G1 X125.164 Y91.362 E12.18241
G1 X125.85 Y91.883 E12.21106
G1 X126.624 Y92.529 E12.24459
G1 X127.488 Y93.286 E12.2828
G1 X128.242 Y94.019 E12.31777
G1 X128.991 Y94.826 E12.35439
G1 X129.587 Y95.493 E12.38415
G1 X130.175 Y96.217 E12.41517
G1 X130.854 Y97.137 E12.4532
G1 X131.41 Y97.929 E12.48538
G1 X131.891 Y98.69 E12.51533
G1 X132.452 Y99.675 E12.55303
G1 X132.884 Y100.476 E12.5833
G1 X133.303 Y101.35 E12.61553
G1 X133.8 Y102.527 E12.65803
G1 X134.12 Y103.338 E12.68703
G1 X134.412 Y104.196 E12.71717
G1 X134.732 Y105.307 E12.75562
G1 X134.966 Y106.193 E12.7861
G1 X135.166 Y107.125 E12.81781
G1 X135.319 Y108.045 E12.84883
G1 X135.492 Y109.25 E12.88932
G1 X135.587 Y110.327 E12.92528
G1 X135.631 Y111.657 E12.96954
G1 X135.641 Y112.326 E12.99179
G1 X135.612 Y113.255 E13.0227
G1 X135.496 Y114.723 E13.07168
G1 X135.425 Y115.398 E13.09426
G1 X135.278 Y116.357 E13.12653
G1 X135.037 Y117.535 E13.16652
G1 X134.863 Y118.311 E13.19297
G1 X134.63 Y119.17 E13.22257
G1 X134.281 Y120.255 E13.26048
G1 X133.973 Y121.141 E13.29168
G1 X133.619 Y122.025 E13.32335
G1 X133.119 Y123.114 E13.36321
G1 X132.713 Y123.945 E13.39397
G1 X132.237 Y124.809 E13.42678
G1 X131.472 Y126.047 E13.47518
G1 X131.118 Y126.589 E13.49671
G1 X130.608 Y127.3 E13.52581
G1 X129.881 Y128.222 E13.56487
G1 X129.255 Y128.977 E13.59749
G1 X128.653 Y129.642 E13.62732
G1 X128.061 Y130.234 E13.65517
G1 X127.155 Y131.099 E13.69683
G1 X126.433 Y131.727 E13.72866
G1 X125.562 Y132.41 E13.76547
G1 X124.783 Y132.993 E13.79783
G1 X123.979 Y133.537 E13.83012
G1 X123.001 Y134.133 E13.86821
G1 X122.159 Y134.619 E13.90055
G1 X121.358 Y135.032 E13.93052
G1 X120.304 Y135.514 E13.96907
G1 X119.451 Y135.88 E13.99994
G1 X118.574 Y136.209 E14.0311
G1 X117.431 Y136.575 E14.07101
G1 X116.536 Y136.837 E14.10203
G1 X115.65 Y137.054 E14.13237
G1 X114.781 Y137.226 E14.16183
G1 X113.574 Y137.434 E14.20257
G1 X112.607 Y137.551 E14.23497
G1 X111.429 Y137.636 E14.27425
G1 X110.486 Y137.681 E14.30565
G1 X109.565 Y137.68 E14.33628
G1 X108.17 Y137.612 E14.38274
G1 X107.473 Y137.561 E14.40598
G1 X106.552 Y137.451 E14.43683
G1 X105.158 Y137.217 E14.48384
G1 X104.477 Y137.085 E14.50692
G1 X103.597 Y136.873 E14.53702
G1 X102.451 Y136.54 E14.57671
G1 X101.6 Y136.271 E14.6064
G1 X100.686 Y135.933 E14.63881
G1 X99.629 Y135.484 E14.67701
G1 X98.739 Y135.081 E14.7095
G1 X97.931 Y134.668 E14.73968
G1 X96.941 Y134.101 E14.77763
G1 X96.153 Y133.626 E14.80823
G1 X95.362 Y133.097 E14.83988
G1 X94.61 Y132.542 E14.87097
G1 X93.664 Y131.807 E14.91081
G1 X92.975 Y131.217 E14.94098
G1 X92.329 Y130.612 E14.97042
G1 X91.377 Y129.674 E15.01487
G1 X90.652 Y128.877 E15.05071
G1 X89.787 Y127.817 E15.09621
G1 X89.379 Y127.294 E15.11827
G1 X88.875 Y126.581 E15.14731
G1 X88.135 Y125.428 E15.19288
G1 X87.785 Y124.854 E15.21524
G1 X87.346 Y124.056 E15.24553
G1 X86.839 Y123.028 E15.28366
G1 X86.427 Y122.139 E15.31625
G1 X86.077 Y121.274 E15.34728
G1 X85.604 Y119.921 E15.39495
G1 X85.396 Y119.276 E15.4175
G1 X85.149 Y118.368 E15.44879
G1 X84.89 Y117.208 E15.48832
G1 X84.717 Y116.337 E15.51786
G1 X84.584 Y115.45 E15.54769
G1 X84.459 Y114.227 E15.58858
G1 X84.39 Y113.354 E15.61771
G1 X84.359 Y112.436 E15.64826
G1 X84.375 Y111.351 E15.68435
G1 X84.417 Y110.273 E15.72023
G1 X84.494 Y109.355 E15.75087
G1 X84.608 Y108.509 E15.77926
G1 X84.8 Y107.294 E15.82018
G1 X84.992 Y106.364 E15.85176
G1 X85.269 Y105.292 E15.88859
G1 X85.539 Y104.337 E15.92159
G1 X85.87 Y103.357 E15.956
G1 X86.283 Y102.314 E15.99331
G1 X86.645 Y101.45 E16.02447
G1 X87.014 Y100.667 E16.05326
G1 X87.436 Y99.873 E16.08316
G1 X88.017 Y98.839 E16.12261
G1 X88.526 Y98.025 E16.15454
G1 X89.206 Y97.05 E16.19408
G1 X89.744 Y96.316 E16.22435
G1 X90.33 Y95.589 E16.2554
G1 X91.1 Y94.723 E16.29395
G1 X91.736 Y94.041 E16.32496
G1 F1500 E9.82496
;MESH:Mic_Holder_Interface_mic.STL
G0 F6000 X104.288 Y108.432
G0 X109.581 Y117.33
;TYPE:WALL-INNER
