;FLAVOR:Marlin
;TIME:1340
;Filament used: 0.673828m
;Layer height: 0.2
;MINX:87.02
;MINY:87.02
;MINZ:0.2
;MAXX:132.982
;MAXY:132.981
;MAXZ:15.2
;TARGET_MACHINE.NAME:Creality Ender-3 Pro
;Generated with Cura_SteamEngine 5.6.0
M82 ;absolute extrusion mode
; Ender 3 Custom Start G-code
G92 E0 ; Reset Extruder
G28 ; Home all axes
G1 Z5.0 F3000 ; Move Z Axis up a bit during heating to not damage bed
M104 S175 ; Start heating up the nozzle most of the way
M190 S60 ; Start heating the bed, wait until target temperature reached
M109 S200 ; Finish heating the nozzle
G1 Z2.0 F3000 ; Move Z Axis up little to prevent scratching of Heat Bed
G1 X0.1 Y20 Z0.3 F5000.0 ; Move to start position
G1 X0.1 Y200.0 Z0.3 F1500.0 E15 ; Draw the first line
G1 X0.4 Y200.0 Z0.3 F5000.0 ; Move to side a little
G1 X0.4 Y20 Z0.3 F1500.0 E30 ; Draw the second line
G92 E0 ; Reset Extruder
G1 Z2.0 F3000 ; Move Z Axis up little to prevent scratching of Heat Bed
G1 X5 Y20 Z0.3 F5000.0 ; Move over to prevent blob squish
G92 E0
G92 E0
G1 F1500 E-6.5
;LAYER_COUNT:76
;LAYER:0
M107
G0 F6000 X95.791 Y91.615 Z0.2
;TYPE:SKIRT
G1 F1500 E0
G1 F1200 X96.492 Y90.937 E0.03244
G1 X97.249 Y90.326 E0.06479
G1 X97.997 Y89.821 E0.09481
G1 X99.015 Y89.264 E0.13341
G1 X99.917 Y88.832 E0.16667
G1 X100.543 Y88.552 E0.18948
G1 X101.52 Y88.165 E0.22443
G1 X102.071 Y87.971 E0.24386
G1 X103.109 Y87.643 E0.28007
G1 X103.883 Y87.426 E0.3068
G1 X104.832 Y87.205 E0.33921
G1 X105.803 Y87.069 E0.37182
G1 X106.941 Y87.02 E0.40971
G1 X107.704 Y87.027 E0.43508
G1 X109.007 Y87.061 E0.47844
G1 X112.518 Y87.037 E0.59522
G1 X112.934 Y87.027 E0.60906
G1 X113.908 Y87.048 E0.64146
G1 X114.882 Y87.157 E0.67406
G1 X115.997 Y87.39 E0.71194
G1 X116.465 Y87.515 E0.72805
G1 X117.157 Y87.717 E0.75203
G1 X117.72 Y87.903 E0.77175
G1 X118.819 Y88.299 E0.81061
G1 X119.381 Y88.519 E0.83068
G1 X119.897 Y88.741 E0.84936
G1 X120.485 Y89.014 E0.87092
G1 X121.334 Y89.443 E0.90256
G1 X122.177 Y89.931 E0.93496
G1 X122.973 Y90.491 E0.96733
G1 X123.711 Y91.115 E0.99947
G1 X124.267 Y91.664 E1.02546
G1 X125.211 Y92.673 E1.07142
G1 X126.904 Y94.432 E1.15262
G1 X128.453 Y95.974 E1.22532
G1 X129.111 Y96.693 E1.25773
G1 X129.706 Y97.474 E1.29039
G1 X130.318 Y98.461 E1.32901
G1 X130.697 Y99.163 E1.35555
G1 X130.98 Y99.717 E1.37624
G1 X131.206 Y100.185 E1.39353
G1 X131.479 Y100.794 E1.41572
G1 X131.892 Y101.804 E1.45202
G1 X132.079 Y102.308 E1.4699
G1 X132.288 Y102.926 E1.49159
G1 X132.57 Y103.871 E1.52439
G1 X132.793 Y104.82 E1.55682
G1 X132.932 Y105.794 E1.58954
G1 X132.982 Y107.025 E1.63052
G1 X132.936 Y109.922 E1.72689
G1 X132.978 Y113.069 E1.83156
G1 X132.944 Y114.043 E1.86398
G1 X132.822 Y115.023 E1.89683
G1 X132.528 Y116.294 E1.94022
G1 X132.31 Y117.003 E1.96489
G1 X132.101 Y117.625 E1.98671
G1 X131.921 Y118.114 E2.00404
G1 X131.518 Y119.116 E2.03996
G1 X131.256 Y119.706 E2.06143
G1 X130.798 Y120.645 E2.09618
G1 X130.553 Y121.106 E2.11355
G1 X130.259 Y121.631 E2.13356
G1 X129.744 Y122.456 E2.16591
G1 X129.155 Y123.236 E2.19842
G1 X128.467 Y123.995 E2.23249
G1 X126.662 Y125.804 E2.31748
G1 X125.217 Y127.327 E2.38731
G1 X124.312 Y128.301 E2.43153
G1 X123.602 Y128.993 E2.46451
G1 X122.876 Y129.589 E2.49575
G1 X122.069 Y130.139 E2.52823
G1 X121.08 Y130.685 E2.5658
G1 X120.104 Y131.158 E2.60188
G1 X119.415 Y131.467 E2.62699
G1 X118.481 Y131.836 E2.66039
G1 X117.913 Y132.037 E2.68043
G1 X116.927 Y132.345 E2.71479
G1 X116.069 Y132.585 E2.74442
G1 X115.121 Y132.801 E2.77676
G1 X114.149 Y132.935 E2.8094
G1 X112.998 Y132.981 E2.84771
G1 X112.061 Y132.968 E2.87888
G1 X111.042 Y132.94 E2.91278
G1 X108.493 Y132.942 E2.99756
G1 X107.073 Y132.974 E3.0448
G1 X106.099 Y132.951 E3.07721
G1 X105.202 Y132.852 E3.10722
G1 X103.99 Y132.597 E3.14842
G1 X103.12 Y132.362 E3.17839
G1 X102.28 Y132.097 E3.20769
G1 X101.179 Y131.7 E3.24661
G1 X100.619 Y131.481 E3.26661
G1 X100.103 Y131.259 E3.2853
G1 X99.515 Y130.986 E3.30686
G1 X98.666 Y130.557 E3.3385
G1 X97.823 Y130.069 E3.37089
G1 X97.027 Y129.509 E3.40327
G1 X96.311 Y128.906 E3.4344
G1 X95.688 Y128.286 E3.46363
G1 X94.645 Y127.162 E3.51463
G1 X92.873 Y125.322 E3.5996
G1 X91.528 Y123.986 E3.66265
G1 X90.869 Y123.268 E3.69507
G1 X90.276 Y122.493 E3.72752
G1 X89.726 Y121.622 E3.76178
G1 X89.375 Y120.98 E3.78612
G1 X89.007 Y120.259 E3.81304
G1 X88.791 Y119.81 E3.82962
G1 X88.531 Y119.234 E3.85063
G1 X88.105 Y118.189 E3.88817
G1 X87.913 Y117.669 E3.9066
G1 X87.698 Y117.032 E3.92897
G1 X87.435 Y116.154 E3.95945
G1 X87.211 Y115.206 E3.99185
G1 X87.071 Y114.23 E4.02464
G1 X87.02 Y112.965 E4.06675
G1 X87.067 Y110.288 E4.1558
G1 X87.034 Y108.305 E4.22177
G1 X87.022 Y106.881 E4.26913
G1 X87.061 Y105.911 E4.30142
G1 X87.172 Y105.015 E4.33145
G1 X87.429 Y103.863 E4.37071
G1 X87.661 Y103.085 E4.39771
G1 X87.903 Y102.368 E4.42288
G1 X88.078 Y101.888 E4.43987
G1 X88.476 Y100.897 E4.47539
G1 X88.735 Y100.312 E4.49667
G1 X88.951 Y99.856 E4.51345
G1 X89.226 Y99.31 E4.53378
G1 X89.765 Y98.332 E4.57093
G1 X90.281 Y97.508 E4.60326
G1 X90.824 Y96.787 E4.63328
G1 X91.555 Y95.981 E4.66947
G1 X93.603 Y93.936 E4.76573
G1 X95.791 Y91.615 E4.87183
G0 F6000 X96.069 Y91.902
G1 F1200 X96.744 Y91.248 E4.90309
G1 X97.473 Y90.658 E4.93428
G1 X98.221 Y90.153 E4.9643
G1 X99.188 Y89.625 E5.00094
G1 X100.081 Y89.197 E5.03388
G1 X100.69 Y88.924 E5.05607
G1 X101.653 Y88.542 E5.09053
G1 X102.192 Y88.352 E5.10954
G1 X103.217 Y88.028 E5.14529
G1 X103.974 Y87.815 E5.17145
G1 X104.888 Y87.601 E5.20267
G1 X105.821 Y87.469 E5.23401
G1 X106.937 Y87.42 E5.27117
G1 X107.694 Y87.427 E5.29635
G1 X109 Y87.461 E5.3398
G1 X112.528 Y87.437 E5.45714
G1 X112.926 Y87.427 E5.47038
G1 X113.864 Y87.446 E5.50159
G1 X114.8 Y87.549 E5.53291
G1 X115.894 Y87.777 E5.57008
G1 X116.353 Y87.899 E5.58587
G1 X117.032 Y88.097 E5.6094
G1 X117.584 Y88.279 E5.62873
G1 X118.674 Y88.672 E5.66727
G1 X119.223 Y88.886 E5.68686
G1 X119.729 Y89.104 E5.70519
G1 X120.305 Y89.371 E5.72631
G1 X121.134 Y89.789 E5.75719
G1 X121.947 Y90.258 E5.7884
G1 X122.715 Y90.797 E5.81961
G1 X123.43 Y91.4 E5.85072
G1 X123.975 Y91.938 E5.87619
G1 X124.92 Y92.946 E5.92215
G1 X126.622 Y94.716 E6.00382
G1 X128.158 Y96.244 E6.07588
G1 X128.793 Y96.936 E6.10712
G1 X129.366 Y97.685 E6.13848
G1 X129.966 Y98.651 E6.1763
G1 X130.341 Y99.345 E6.20254
G1 X130.62 Y99.891 E6.22293
G1 X130.841 Y100.349 E6.23985
G1 X131.109 Y100.945 E6.26158
G1 X131.517 Y101.943 E6.29744
G1 X131.7 Y102.437 E6.31496
G1 X131.905 Y103.041 E6.33618
G1 X132.181 Y103.963 E6.36819
G1 X132.397 Y104.877 E6.39943
G1 X132.532 Y105.811 E6.43081
G1 X132.582 Y107.019 E6.47103
G1 X132.536 Y109.916 E6.56739
G1 X132.578 Y113.056 E6.67184
G1 X132.547 Y113.994 E6.70306
G1 X132.432 Y114.933 E6.73452
G1 X132.138 Y116.204 E6.77791
G1 X131.931 Y116.875 E6.80127
G1 X131.725 Y117.487 E6.82274
G1 X131.55 Y117.965 E6.83967
G1 X131.153 Y118.953 E6.87509
G1 X130.896 Y119.531 E6.89613
G1 X130.438 Y120.47 E6.93087
G1 X130.204 Y120.911 E6.94748
G1 X129.919 Y121.42 E6.96688
G1 X129.424 Y122.216 E6.99806
G1 X128.859 Y122.967 E7.02932
G1 X128.184 Y123.712 E7.06275
G1 X126.379 Y125.521 E7.14775
G1 X124.927 Y127.052 E7.21793
G1 X124.032 Y128.015 E7.26166
G1 X123.348 Y128.684 E7.29348
G1 X122.651 Y129.258 E7.32351
G1 X121.844 Y129.808 E7.35599
G1 X120.905 Y130.325 E7.39164
G1 X119.94 Y130.793 E7.42732
G1 X119.268 Y131.095 E7.45182
G1 X118.348 Y131.459 E7.48473
G1 X117.793 Y131.655 E7.5043
G1 X116.819 Y131.96 E7.53825
G1 X115.979 Y132.195 E7.56726
G1 X115.066 Y132.405 E7.59842
G1 X114.133 Y132.535 E7.62975
G1 X113.004 Y132.581 E7.66733
G1 X112.072 Y132.568 E7.69834
G1 X111.053 Y132.54 E7.73224
G1 X108.484 Y132.542 E7.81769
G1 X107.082 Y132.574 E7.86433
G1 X106.143 Y132.553 E7.89557
G1 X105.246 Y132.454 E7.92558
G1 X104.094 Y132.211 E7.96474
G1 X103.24 Y131.981 E7.99416
G1 X102.416 Y131.721 E8.0229
G1 X101.324 Y131.327 E8.06151
G1 X100.777 Y131.114 E8.08103
G1 X100.271 Y130.896 E8.09936
G1 X99.695 Y130.629 E8.12047
G1 X98.866 Y130.211 E8.15135
G1 X98.053 Y129.742 E8.18257
G1 X97.285 Y129.203 E8.21378
G1 X96.569 Y128.6 E8.24491
G1 X95.981 Y128.014 E8.27252
G1 X94.938 Y126.89 E8.32352
G1 X93.155 Y125.038 E8.40903
G1 X91.822 Y123.715 E8.47149
G1 X91.186 Y123.024 E8.50273
G1 X90.614 Y122.279 E8.53397
G1 X90.077 Y121.43 E8.56738
G1 X89.731 Y120.798 E8.59135
G1 X89.368 Y120.086 E8.61793
G1 X89.156 Y119.645 E8.6342
G1 X88.896 Y119.069 E8.65522
G1 X88.48 Y118.05 E8.69183
G1 X88.292 Y117.541 E8.70988
G1 X88.081 Y116.917 E8.73178
G1 X87.824 Y116.062 E8.76148
G1 X87.607 Y115.148 E8.79272
G1 X87.471 Y114.214 E8.82412
G1 X87.42 Y112.972 E8.86546
G1 X87.467 Y110.295 E8.95451
G1 X87.434 Y108.302 E9.02081
G1 X87.422 Y106.896 E9.06757
G1 X87.458 Y105.96 E9.09873
G1 X87.569 Y105.064 E9.12876
G1 X87.812 Y103.977 E9.1658
G1 X88.04 Y103.213 E9.19232
G1 X88.279 Y102.505 E9.21717
G1 X88.449 Y102.037 E9.23373
G1 X88.842 Y101.059 E9.26879
G1 X89.097 Y100.483 E9.28974
G1 X89.308 Y100.036 E9.30618
G1 X89.576 Y99.503 E9.32603
G1 X90.104 Y98.544 E9.36244
G1 X90.601 Y97.749 E9.39362
G1 X91.144 Y97.028 E9.42364
G1 X91.838 Y96.264 E9.45797
G1 X93.886 Y94.219 E9.55423
G1 X96.069 Y91.902 E9.66011
G0 F6000 X96.348 Y92.189
G1 F1200 X96.996 Y91.559 E9.69017
G1 X97.697 Y90.99 E9.7202
G1 X98.445 Y90.485 E9.75022
G1 X99.361 Y89.986 E9.78491
G1 X100.245 Y89.562 E9.81752
G1 X100.838 Y89.296 E9.83914
G1 X101.787 Y88.919 E9.8731
G1 X102.312 Y88.733 E9.89163
G1 X103.326 Y88.413 E9.92699
G1 X104.066 Y88.204 E9.95257
G1 X104.945 Y87.997 E9.9826
G1 X105.839 Y87.869 E10.01264
G1 X106.933 Y87.82 E10.04906
G1 X107.684 Y87.827 E10.07404
G1 X108.993 Y87.861 E10.11759
G1 X112.539 Y87.837 E10.23554
G1 X112.918 Y87.827 E10.24815
G1 X113.821 Y87.844 E10.27819
G1 X114.719 Y87.941 E10.30823
G1 X115.792 Y88.164 E10.34468
G1 X116.241 Y88.283 E10.36013
G1 X116.907 Y88.477 E10.3832
G1 X117.448 Y88.655 E10.40214
G1 X118.529 Y89.045 E10.44037
G1 X119.065 Y89.254 E10.4595
G1 X119.561 Y89.467 E10.47745
G1 X120.125 Y89.728 E10.49812
G1 X120.935 Y90.136 E10.52829
G1 X121.718 Y90.586 E10.55833
G1 X122.458 Y91.103 E10.58835
G1 X123.149 Y91.684 E10.61838
G1 X123.683 Y92.212 E10.64335
G1 X124.629 Y93.219 E10.68931
G1 X126.34 Y95 E10.77145
G1 X127.864 Y96.515 E10.84292
G1 X128.476 Y97.18 E10.87298
G1 X129.026 Y97.896 E10.90301
G1 X129.614 Y98.841 E10.94003
G1 X129.985 Y99.527 E10.96597
G1 X130.26 Y100.065 E10.98607
G1 X130.476 Y100.513 E11.00261
G1 X130.739 Y101.096 E11.02388
G1 X131.142 Y102.081 E11.05928
G1 X131.321 Y102.566 E11.07647
G1 X131.522 Y103.156 E11.0972
G1 X131.792 Y104.056 E11.12846
G1 X132.001 Y104.935 E11.15851
G1 X132.132 Y105.828 E11.18853
G1 X132.182 Y107.013 E11.22797
G1 X132.136 Y109.91 E11.32434
G1 X132.178 Y113.044 E11.42859
G1 X132.15 Y113.946 E11.4586
G1 X132.042 Y114.843 E11.48865
G1 X131.748 Y116.114 E11.53204
G1 X131.552 Y116.747 E11.55408
G1 X131.349 Y117.35 E11.57524
G1 X131.179 Y117.816 E11.59174
G1 X130.787 Y118.791 E11.62669
G1 X130.536 Y119.356 E11.64726
G1 X130.078 Y120.295 E11.68201
G1 X129.855 Y120.716 E11.69785
G1 X129.579 Y121.209 E11.71664
G1 X129.104 Y121.976 E11.74665
G1 X128.562 Y122.699 E11.7767
G1 X127.901 Y123.429 E11.80946
G1 X126.096 Y125.238 E11.89445
G1 X124.635 Y126.78 E11.96511
G1 X123.739 Y127.742 E12.00883
G1 X123.094 Y128.375 E12.03889
G1 X122.397 Y128.949 E12.06892
G1 X121.651 Y129.458 E12.09896
G1 X120.73 Y129.965 E12.13392
G1 X119.776 Y130.428 E12.16919
G1 X119.121 Y130.723 E12.19309
G1 X118.215 Y131.082 E12.2255
G1 X117.673 Y131.273 E12.24461
G1 X116.711 Y131.575 E12.27815
G1 X115.889 Y131.805 E12.30654
G1 X115.01 Y132.009 E12.33655
G1 X114.116 Y132.135 E12.36658
G1 X113.01 Y132.181 E12.4034
G1 X112.083 Y132.168 E12.43423
G1 X111.064 Y132.14 E12.46814
G1 X108.475 Y132.142 E12.55425
G1 X107.09 Y132.174 E12.60033
G1 X106.187 Y132.155 E12.63037
G1 X105.29 Y132.056 E12.66038
G1 X104.198 Y131.825 E12.69751
G1 X103.36 Y131.599 E12.72637
G1 X102.552 Y131.345 E12.75454
G1 X101.469 Y130.954 E12.79284
G1 X100.935 Y130.746 E12.8119
G1 X100.439 Y130.533 E12.82986
G1 X99.875 Y130.272 E12.85053
G1 X99.065 Y129.864 E12.88069
G1 X98.282 Y129.414 E12.91073
G1 X97.542 Y128.897 E12.94075
G1 X96.851 Y128.316 E12.97078
G1 X96.274 Y127.742 E12.99785
G1 X95.231 Y126.618 E13.04885
G1 X93.437 Y124.754 E13.1349
G1 X92.116 Y123.444 E13.19677
G1 X91.503 Y122.78 E13.22683
G1 X90.952 Y122.065 E13.25685
G1 X90.428 Y121.238 E13.28942
G1 X90.087 Y120.616 E13.31301
G1 X89.729 Y119.913 E13.33925
G1 X89.521 Y119.48 E13.35523
G1 X89.261 Y118.904 E13.37624
G1 X88.855 Y117.911 E13.41193
G1 X88.671 Y117.413 E13.42958
G1 X88.464 Y116.802 E13.45104
G1 X88.213 Y115.969 E13.47998
G1 X88.003 Y115.09 E13.51003
G1 X87.871 Y114.197 E13.54006
G1 X87.82 Y112.979 E13.58061
G1 X87.867 Y110.302 E13.66966
G1 X87.834 Y108.299 E13.73629
G1 X87.822 Y106.911 E13.78245
G1 X87.855 Y106.009 E13.81247
G1 X87.966 Y105.113 E13.8425
G1 X88.195 Y104.091 E13.87734
G1 X88.419 Y103.341 E13.90337
G1 X88.655 Y102.641 E13.92794
G1 X88.82 Y102.186 E13.94404
G1 X89.208 Y101.221 E13.97863
G1 X89.459 Y100.654 E13.99925
G1 X89.67 Y100.207 E14.0157
G1 X89.929 Y99.691 E14.0349
G1 X90.16 Y99.258 E14.05122
G1 X90.443 Y98.756 E14.07039
G1 X90.921 Y97.99 E14.10042
G1 X91.464 Y97.269 E14.13044
G1 X92.121 Y96.547 E14.16291
G1 X94.169 Y94.502 E14.25917
G1 X96.348 Y92.189 E14.36486
G1 F1500 E7.86486
;MESH:Screw_Cap_mic.STL
G0 F6000 X101.977 Y101.891
G0 X102.753 Y102.648
G0 X102.079 Y103.64
G0 X102.604 Y103.398
G0 X102.33 Y103.907
G0 X108.823 Y119.725
G0 X109.332 Y119.86
G0 X109.888 Y119.855
G0 X109.335 Y119.938
G0 X109.698 Y119.963
G0 X109.958 Y119.666
;TYPE:WALL-INNER
G1 F1500 E14.36486
G1 F1023.5 X109.338 Y119.656 E14.38904
G1 F1083.5 X108.843 Y119.565 E14.40758
G1 F1200 X108.255 Y119.483 E14.42733
G1 X107.439 Y119.294 E14.45519
G1 X106.677 Y119.051 E14.48179
G1 X105.849 Y118.702 E14.51167
G1 X105.137 Y118.324 E14.53849
G1 X104.377 Y117.831 E14.56862
G1 X104.142 Y117.648 E14.57852
G1 F1086 X103.669 Y117.326 E14.59955
G1 F1021.3 X103.071 Y116.744 E14.63216
G1 F1025.6 X102.756 Y116.412 E14.64997
G1 F1090.9 X102.02 Y115.411 E14.69543
G1 F1200 X101.569 Y114.674 E14.72417
G1 X101.202 Y113.945 E14.75131
G1 X100.887 Y113.147 E14.77985
G1 X100.637 Y112.297 E14.80932
G1 X100.48 Y111.523 E14.83558
G1 X100.438 Y111.166 E14.84754
G1 F1093.4 X100.34 Y110.626 E14.86757
G1 F1023.5 X100.333 Y109.75 E14.90174
G1 F1025.6 X100.343 Y109.444 E14.91365
G1 F1093.4 X100.555 Y108.064 E14.96462
G1 F1200 X100.749 Y107.288 E14.99122
G1 X101.037 Y106.443 E15.02091
G1 X101.379 Y105.681 E15.04869
G1 X101.805 Y104.919 E15.07773
G1 X102.266 Y104.244 E15.10491
G1 X102.453 Y104.011 E15.11485
G1 F1095.9 X102.764 Y103.57 E15.1345
G1 F1027.8 X103.376 Y102.953 E15.16825
G1 F1016.9 X103.622 Y102.721 E15.18152
G1 F1083.5 X104.738 Y101.92 E15.23212
G1 F1200 X105.521 Y101.463 E15.26228
G1 X106.237 Y101.124 E15.28863
G1 X107.044 Y100.823 E15.31727
G1 X107.862 Y100.6 E15.34547
G1 X108.727 Y100.443 E15.37471
G1 F1151.1 X109.496 Y100.334 E15.40164
G1 F1078.7 X110 Y100.341 E15.42029
G1 F1036.7 X110.588 Y100.333 E15.44293
G1 F1103.4 X111.173 Y100.434 E15.46441
G1 F1200 X111.252 Y100.44 E15.46704
G1 X112.138 Y100.6 E15.49699
G1 X112.972 Y100.828 E15.52574
G1 X113.722 Y101.106 E15.55235
G1 X114.526 Y101.488 E15.58195
G1 X115.271 Y101.927 E15.61071
G1 F1086 X116.377 Y102.721 E15.66075
G1 F1016.9 X116.624 Y102.953 E15.67405
G1 F1030 X117.219 Y103.553 E15.70679
G1 F1100.9 X117.547 Y104.011 E15.72722
G1 F1200 X117.734 Y104.244 E15.73715
G1 X118.192 Y104.914 E15.76415
G1 X118.615 Y105.667 E15.79287
G1 X118.966 Y106.451 E15.82144
G1 X119.251 Y107.288 E15.85085
G1 X119.456 Y108.117 E15.87925
G1 F1093.4 X119.656 Y109.444 E15.92824
G1 F1023.5 X119.667 Y109.75 E15.94018
