;FLAVOR:Marlin
;TIME:10188
;Filament used: 6.61953m
;Layer height: 0.2
;MINX:50.281
;MINY:63.528
;MINZ:0.2
;MAXX:169.722
;MAXY:156.463
;MAXZ:36
;TARGET_MACHINE.NAME:Creality Ender-3 Pro
;Generated with Cura_SteamEngine 5.6.0
M82 ;absolute extrusion mode
; Ender 3 Custom Start G-code
G92 E0 ; Reset Extruder
G28 ; Home all axes
G1 Z5.0 F3000 ; Move Z Axis up a bit during heating to not damage bed
M104 S175 ; Start heating up the nozzle most of the way
M190 S60 ; Start heating the bed, wait until target temperature reached
M109 S200 ; Finish heating the nozzle
G1 Z2.0 F3000 ; Move Z Axis up little to prevent scratching of Heat Bed
G1 X0.1 Y20 Z0.3 F5000.0 ; Move to start position
G1 X0.1 Y200.0 Z0.3 F1500.0 E15 ; Draw the first line
G1 X0.4 Y200.0 Z0.3 F5000.0 ; Move to side a little
G1 X0.4 Y20 Z0.3 F1500.0 E30 ; Draw the second line
G92 E0 ; Reset Extruder
G1 Z2.0 F3000 ; Move Z Axis up little to prevent scratching of Heat Bed
G1 X5 Y20 Z0.3 F5000.0 ; Move over to prevent blob squish
G92 E0
G92 E0
G1 F1500 E-6.5
;LAYER_COUNT:180
;LAYER:0
M107
G0 F6000 X80.135 Y82.97 Z0.2
;TYPE:SKIRT
G1 F1500 E0
G1 F1200 X80.58 Y82.581 E0.01966
G1 X81.055 Y82.189 E0.04014
G1 X81.8 Y81.627 E0.07118
G1 X82.388 Y81.248 E0.09445
G1 X82.888 Y80.949 E0.11382
G1 X83.708 Y80.507 E0.14481
G1 X84.321 Y80.232 E0.16715
G1 X84.892 Y79.998 E0.18768
G1 X85.77 Y79.682 E0.21871
G1 X86.439 Y79.494 E0.24183
G1 X87.022 Y79.352 E0.26179
G1 X87.956 Y79.169 E0.29344
G1 X88.677 Y79.082 E0.3176
G1 X89.285 Y79.03 E0.33789
G1 X89.941 Y78.994 E0.35974
G1 X92.75 Y78.922 E0.4532
G1 X95.226 Y78.792 E0.53567
G1 X97.753 Y78.588 E0.61999
G1 X100.281 Y78.312 E0.70457
G1 X102.724 Y77.974 E0.7866
G1 X105.249 Y77.552 E0.87174
G1 X107.731 Y77.065 E0.95587
G1 X110.161 Y76.518 E1.03872
G1 X112.579 Y75.897 E1.12175
G1 X115.034 Y75.195 E1.20667
G1 X117.415 Y74.441 E1.28974
G1 X119.789 Y73.615 E1.37335
G1 X122.137 Y72.723 E1.45689
G1 X124.469 Y71.759 E1.54081
G1 X126.776 Y70.729 E1.62485
G1 X129.044 Y69.638 E1.70855
G1 X131.261 Y68.493 E1.79154
G1 X133.9 Y67.027 E1.89195
G1 X136.106 Y65.766 E1.97647
G1 X136.543 Y65.536 E1.99289
G1 X137.255 Y65.186 E2.01928
G1 X137.8 Y64.936 E2.03922
G1 X138.948 Y64.486 E2.08023
G1 X139.698 Y64.25 E2.10638
G1 X140.423 Y64.049 E2.13141
G1 X141.588 Y63.795 E2.17106
G1 X142.326 Y63.687 E2.19587
G1 X143.075 Y63.6 E2.22095
G1 X144.293 Y63.528 E2.26153
G1 X145.087 Y63.535 E2.28794
G1 X145.75 Y63.562 E2.31001
G1 X146.968 Y63.682 E2.35072
G1 X147.343 Y63.739 E2.36334
G1 X148.377 Y63.936 E2.39834
G1 X149.608 Y64.25 E2.4406
G1 X150.411 Y64.519 E2.46877
G1 X151.081 Y64.768 E2.49254
G1 X152.188 Y65.252 E2.53272
G1 X152.899 Y65.622 E2.55938
G1 X153.533 Y65.98 E2.5836
G1 X154.53 Y66.62 E2.623
G1 X155.197 Y67.115 E2.65063
G1 X155.71 Y67.521 E2.67239
G1 X156.635 Y68.343 E2.71355
G1 X157.2 Y68.918 E2.74036
G1 X157.681 Y69.439 E2.76394
G1 X158.399 Y70.309 E2.80146
G1 X158.921 Y71.038 E2.83128
G1 X159.288 Y71.589 E2.8533
G1 X159.559 Y72.019 E2.87021
G1 X159.958 Y72.687 E2.89609
G1 X167.161 Y85.164 E3.37526
G1 X167.585 Y85.932 E3.40444
G1 X167.904 Y86.556 E3.42775
G1 X168.267 Y87.329 E3.45615
G1 X168.783 Y88.642 E3.50307
G1 X169.017 Y89.398 E3.5294
G1 X169.17 Y89.95 E3.54845
G1 X169.436 Y91.191 E3.59066
G1 X169.565 Y92.025 E3.61873
G1 X169.643 Y92.633 E3.63912
G1 X169.722 Y93.96 E3.68333
G1 X169.713 Y94.737 E3.70918
G1 X169.69 Y95.293 E3.72769
G1 X169.558 Y96.596 E3.77125
G1 X169.416 Y97.468 E3.80063
G1 X169.302 Y98.07 E3.82101
G1 X169.002 Y99.233 E3.86096
G1 X168.752 Y99.982 E3.88722
G1 X168.491 Y100.689 E3.91229
G1 X168.043 Y101.725 E3.94983
G1 X167.62 Y102.544 E3.98049
G1 X167.269 Y103.167 E4.00427
G1 X166.639 Y104.151 E4.04313
G1 X166.139 Y104.824 E4.07102
G1 X165.693 Y105.387 E4.0949
G1 X164.904 Y106.274 E4.13439
G1 X164.319 Y106.847 E4.16163
G1 X163.806 Y107.318 E4.18479
G1 X162.856 Y108.095 E4.22561
G1 X162.224 Y108.545 E4.25141
G1 X161.662 Y108.921 E4.2739
G1 X161.264 Y109.174 E4.28959
G1 X160.589 Y109.576 E4.31572
G1 X159.019 Y110.484 E4.37604
G1 X156.77 Y111.825 E4.46313
G1 X154.631 Y113.183 E4.5474
G1 X152.573 Y114.573 E4.63
G1 X150.494 Y116.066 E4.71513
G1 X148.484 Y117.596 E4.79915
G1 X146.591 Y119.124 E4.88006
G1 X144.614 Y120.814 E4.96657
G1 X142.788 Y122.466 E5.04847
G1 X140.948 Y124.231 E5.13327
G1 X139.181 Y126.021 E5.21693
G1 X137.464 Y127.863 E5.30068
G1 X135.805 Y129.75 E5.38425
G1 X134.204 Y131.675 E5.46753
G1 X132.621 Y133.69 E5.55275
G1 X131.138 Y135.695 E5.6357
G1 X129.698 Y137.76 E5.71943
G1 X128.342 Y139.826 E5.80163
G1 X126.551 Y142.745 E5.91553
G1 X126.174 Y143.316 E5.93829
G1 X125.938 Y143.65 E5.95189
G1 X125.183 Y144.595 E5.99212
G1 X124.753 Y145.072 E6.01348
G1 X124.077 Y145.756 E6.04547
G1 X123.607 Y146.168 E6.06625
G1 X123.173 Y146.526 E6.08497
G1 X122.375 Y147.124 E6.11813
G1 X121.855 Y147.46 E6.13872
G1 X121.35 Y147.764 E6.15833
G1 X120.513 Y148.218 E6.19
G1 X119.843 Y148.518 E6.21442
G1 X119.29 Y148.744 E6.23428
G1 X118.384 Y149.066 E6.26627
G1 X117.779 Y149.233 E6.28714
G1 X117.189 Y149.377 E6.30734
G1 X116.255 Y149.56 E6.339
G1 X115.528 Y149.648 E6.36335
G1 X114.9 Y149.7 E6.38431
G1 X114.343 Y149.733 E6.40287
G1 X113.719 Y149.748 E6.42363
G1 X112.18 Y149.749 E6.47482
G1 X109.593 Y149.786 E6.56087
G1 X107.028 Y149.895 E6.64626
G1 X104.549 Y150.071 E6.72892
G1 X102.048 Y150.318 E6.81251
G1 X99.54 Y150.639 E6.8966
G1 X97.057 Y151.029 E6.9802
G1 X94.614 Y151.483 E7.06285
G1 X92.122 Y152.02 E7.14763
G1 X89.676 Y152.619 E7.23139
G1 X87.254 Y153.284 E7.31493
G1 X84.863 Y154.017 E7.39811
G1 X82.434 Y154.837 E7.48338
G1 X80.507 Y155.54 E7.5516
G1 X79.73 Y155.8 E7.57885
G1 X79.013 Y156.005 E7.60365
G1 X78.062 Y156.218 E7.63607
G1 X77.538 Y156.3 E7.65371
G1 X76.918 Y156.38 E7.6745
G1 X76.018 Y156.457 E7.70454
G1 X75.241 Y156.463 E7.73039
G1 X74.608 Y156.445 E7.75145
G1 X73.646 Y156.375 E7.78353
G1 X72.83 Y156.253 E7.81097
G1 X72.086 Y156.108 E7.83618
G1 X71.211 Y155.885 E7.86622
G1 X70.637 Y155.696 E7.88632
G1 X70.03 Y155.478 E7.90777
G1 X69.168 Y155.123 E7.93877
G1 X68.517 Y154.796 E7.963
G1 X67.958 Y154.49 E7.9842
G1 X67.159 Y154.005 E8.01529
G1 X66.548 Y153.568 E8.04027
G1 X66.138 Y153.252 E8.05749
G1 X65.407 Y152.634 E8.08933
G1 X65.065 Y152.303 E8.10516
G1 X64.558 Y151.791 E8.12912
G1 X63.906 Y151.067 E8.16153
G1 X63.319 Y150.289 E8.19394
G1 X62.963 Y149.767 E8.21496
G1 X62.626 Y149.243 E8.23568
G1 X62.239 Y148.596 E8.26076
G1 X58.64 Y142.361 E8.5002
G1 X58.103 Y141.401 E8.53679
G1 X56.8 Y139.143 E8.6235
G1 X56.203 Y138.144 E8.6622
G1 X52.593 Y131.893 E8.90229
G1 X52.072 Y130.952 E8.93807
G1 X51.692 Y130.192 E8.96633
G1 X51.49 Y129.746 E8.98261
G1 X51.133 Y128.854 E9.01457
G1 X50.964 Y128.328 E9.03294
G1 X50.776 Y127.684 E9.05526
G1 X50.553 Y126.773 E9.08645
G1 X50.413 Y125.879 E9.11655
G1 X50.347 Y125.304 E9.1358
G1 X50.281 Y124.347 E9.16771
G1 X50.281 Y123.799 E9.18593
G1 X50.298 Y123.18 E9.20653
G1 X50.367 Y122.217 E9.23864
G1 X50.47 Y121.526 E9.26188
G1 X50.576 Y120.944 E9.28155
G1 X50.92 Y119.572 E9.3286
G1 X51.157 Y118.87 E9.35324
G1 X51.317 Y118.444 E9.36838
G1 X51.671 Y117.613 E9.39842
G1 X51.949 Y117.068 E9.41877
G1 X52.251 Y116.513 E9.43978
G1 X52.753 Y115.686 E9.47196
G1 X53.201 Y115.065 E9.49743
G1 X53.598 Y114.555 E9.51892
G1 X54.225 Y113.821 E9.55103
G1 X54.732 Y113.312 E9.57493
G1 X55.164 Y112.905 E9.59467
G1 X55.591 Y112.525 E9.61368
G1 X57.775 Y110.684 E9.70868
G1 X59.623 Y109.029 E9.79119
G1 X61.505 Y107.25 E9.87733
G1 X63.223 Y105.526 E9.95828
G1 X64.982 Y103.663 E10.0435
G1 X66.66 Y101.779 E10.12741
G1 X68.279 Y99.855 E10.21105
G1 X69.843 Y97.888 E10.29463
G1 X71.352 Y95.873 E10.37836
G1 X72.802 Y93.819 E10.46198
G1 X74.198 Y91.718 E10.54588
G1 X75.54 Y89.57 E10.63012
G1 X77.145 Y86.829 E10.73577
G1 X77.606 Y86.065 E10.76544
G1 X78.025 Y85.421 E10.791
G1 X78.25 Y85.103 E10.80395
G1 X79.067 Y84.083 E10.84742
G1 X79.459 Y83.652 E10.8668
G1 X80.135 Y82.97 E10.89874
G0 F6000 X80.398 Y83.271
G1 F1200 X80.835 Y82.889 E10.91804
G1 X81.296 Y82.508 E10.93793
G1 X82.017 Y81.963 E10.96799
G1 X82.593 Y81.591 E10.9908
G1 X83.078 Y81.301 E11.00959
G1 X83.872 Y80.872 E11.03961
G1 X84.473 Y80.602 E11.06153
G1 X85.028 Y80.374 E11.08148
G1 X85.878 Y80.067 E11.11154
G1 X86.534 Y79.883 E11.1342
G1 X87.099 Y79.745 E11.15355
G1 X88.033 Y79.562 E11.1852
G1 X88.711 Y79.481 E11.20791
G1 X89.319 Y79.429 E11.22821
G1 X89.951 Y79.394 E11.24926
G1 X92.76 Y79.322 E11.34272
G1 X95.258 Y79.191 E11.42592
G1 X97.792 Y78.986 E11.51047
G1 X100.324 Y78.71 E11.59519
G1 X102.79 Y78.369 E11.67799
G1 X105.32 Y77.946 E11.7633
G1 X107.808 Y77.458 E11.84763
G1 X110.249 Y76.908 E11.93085
G1 X112.689 Y76.282 E12.01464
G1 X115.144 Y75.58 E12.09956
G1 X117.546 Y74.819 E12.18337
G1 X119.92 Y73.993 E12.26697
G1 X122.29 Y73.093 E12.35129
G1 X124.622 Y72.129 E12.43522
G1 X126.939 Y71.094 E12.51962
G1 X129.228 Y69.993 E12.6041
G1 X131.455 Y68.843 E12.68747
G1 X134.094 Y67.376 E12.78789
G1 X136.292 Y66.12 E12.87209
G1 X136.719 Y65.895 E12.88814
G1 X137.422 Y65.55 E12.91419
G1 X137.967 Y65.3 E12.93413
G1 X139.068 Y64.868 E12.97347
G1 X139.818 Y64.632 E12.99962
G1 X140.508 Y64.44 E13.02344
G1 X141.646 Y64.191 E13.06219
G1 X142.372 Y64.084 E13.08659
G1 X143.099 Y63.999 E13.11094
G1 X144.289 Y63.928 E13.15059
G1 X145.071 Y63.935 E13.1766
G1 X145.734 Y63.962 E13.19867
G1 X146.908 Y64.077 E13.2379
G1 X147.268 Y64.132 E13.25002
G1 X148.278 Y64.324 E13.28421
G1 X149.509 Y64.638 E13.32646
G1 X150.272 Y64.894 E13.35323
G1 X150.942 Y65.143 E13.377
G1 X152.003 Y65.607 E13.41552
G1 X152.714 Y65.977 E13.44218
G1 X153.317 Y66.317 E13.4652
G1 X154.314 Y66.957 E13.50461
G1 X154.949 Y67.429 E13.53092
G1 X155.462 Y67.835 E13.55268
G1 X156.35 Y68.623 E13.59217
G1 X156.906 Y69.189 E13.61856
G1 X157.372 Y69.694 E13.64141
G1 X158.09 Y70.564 E13.67893
G1 X158.588 Y71.26 E13.7074
G1 X158.95 Y71.803 E13.7291
G1 X159.216 Y72.224 E13.74567
G1 X159.612 Y72.887 E13.77135
G1 X166.811 Y85.357 E14.25026
G1 X167.229 Y86.114 E14.27902
G1 X167.542 Y86.726 E14.30188
G1 X167.905 Y87.499 E14.33029
G1 X168.401 Y88.76 E14.37536
G1 X168.632 Y89.505 E14.4013
G1 X168.779 Y90.034 E14.41956
G1 X169.041 Y91.252 E14.461
G1 X169.168 Y92.076 E14.48873
G1 X169.246 Y92.684 E14.50911
G1 X169.322 Y93.955 E14.55146
G1 X169.313 Y94.72 E14.57691
G1 X169.29 Y95.276 E14.59542
G1 X169.163 Y96.532 E14.63741
G1 X169.023 Y97.394 E14.66645
G1 X168.909 Y97.996 E14.68683
G1 X168.622 Y99.107 E14.72499
G1 X168.377 Y99.844 E14.75083
G1 X168.124 Y100.53 E14.77515
G1 X167.676 Y101.566 E14.81269
G1 X167.272 Y102.348 E14.84196
G1 X166.932 Y102.951 E14.86499
G1 X166.302 Y103.935 E14.90385
G1 X165.826 Y104.576 E14.9304
G1 X165.394 Y105.121 E14.95353
G1 X164.605 Y106.008 E14.99302
G1 X164.048 Y106.552 E15.01891
G1 X163.535 Y107.023 E15.04208
G1 X162.624 Y107.769 E15.08124
G1 X162.002 Y108.212 E15.10664
G1 X161.447 Y108.583 E15.12884
G1 X161.049 Y108.836 E15.14453
G1 X160.389 Y109.23 E15.17009
G1 X158.814 Y110.14 E15.23059
G1 X156.565 Y111.481 E15.31768
G1 X154.417 Y112.845 E15.40231
G1 X152.34 Y114.248 E15.48568
G1 X150.261 Y115.741 E15.57081
G1 X148.242 Y117.278 E15.65521
G1 X146.331 Y118.82 E15.73688
G1 X144.354 Y120.51 E15.82338
G1 X142.512 Y122.178 E15.90603
G1 X140.671 Y123.942 E15.99084
G1 X138.888 Y125.748 E16.07525
G1 X137.172 Y127.59 E16.15898
G1 X135.497 Y129.494 E16.24332
G1 X133.896 Y131.419 E16.3266
G1 X132.306 Y133.443 E16.4122
G1 X130.816 Y135.457 E16.49553
G1 X129.37 Y137.531 E16.57962
G1 X128.001 Y139.617 E16.66261
G1 X126.217 Y142.525 E16.77608
G1 X125.848 Y143.085 E16.79839
G1 X125.625 Y143.4 E16.81122
G1 X124.87 Y144.345 E16.85145
G1 X124.468 Y144.791 E16.87142
G1 X123.813 Y145.455 E16.90245
G1 X123.352 Y145.859 E16.92283
G1 X122.918 Y146.217 E16.94154
G1 X122.158 Y146.788 E16.97316
G1 X121.648 Y147.117 E16.99335
G1 X121.159 Y147.412 E17.01234
G1 X120.322 Y147.866 E17.04401
G1 X119.691 Y148.148 E17.067
G1 X119.156 Y148.367 E17.08623
G1 X118.278 Y148.68 E17.11723
G1 X117.684 Y148.844 E17.13773
G1 X117.112 Y148.984 E17.15731
G1 X116.178 Y149.167 E17.18897
G1 X115.495 Y149.249 E17.21185
G1 X114.876 Y149.301 E17.23251
G1 X114.333 Y149.333 E17.2506
G1 X113.719 Y149.348 E17.27103
G1 X112.174 Y149.349 E17.32241
G1 X109.576 Y149.386 E17.40883
G1 X107.011 Y149.495 E17.49422
G1 X104.518 Y149.672 E17.57735
G1 X101.997 Y149.921 E17.66161
G1 X99.489 Y150.242 E17.7457
G1 X96.995 Y150.634 E17.82967
G1 X94.53 Y151.092 E17.91306
G1 X92.027 Y151.631 E17.99822
G1 X89.581 Y152.23 E18.08198
G1 X87.148 Y152.899 E18.1659
G1 X84.735 Y153.638 E18.24984
G1 X82.297 Y154.461 E18.33542
G1 X80.38 Y155.161 E18.4033
G1 X79.62 Y155.415 E18.42995
G1 X78.903 Y155.62 E18.45476
G1 X78 Y155.823 E18.48554
G1 X77.487 Y155.903 E18.50281
G1 X76.884 Y155.981 E18.52303
G1 X75.984 Y156.058 E18.55307
G1 X75.252 Y156.063 E18.57742
G1 X74.637 Y156.046 E18.59788
G1 X73.705 Y155.979 E18.62896
G1 X72.906 Y155.86 E18.65583
G1 X72.185 Y155.72 E18.68026
G1 X71.31 Y155.497 E18.71029
G1 X70.772 Y155.32 E18.72913
G1 X70.182 Y155.108 E18.74998
G1 X69.347 Y154.765 E18.78001
G1 X68.709 Y154.445 E18.80374
G1 X68.166 Y154.148 E18.82433
G1 X67.367 Y153.663 E18.85542
G1 X66.792 Y153.251 E18.87894
G1 X66.396 Y152.946 E18.89557
G1 X65.685 Y152.346 E18.92651
G1 X65.349 Y152.022 E18.94204
G1 X64.855 Y151.523 E18.96539
G1 X64.225 Y150.826 E18.99664
G1 X63.649 Y150.063 E19.02844
G1 X63.299 Y149.551 E19.04906
G1 X62.969 Y149.038 E19.06935
G1 X62.585 Y148.396 E19.09423
G1 X58.989 Y142.166 E19.33349
G1 X58.452 Y141.206 E19.37007
G1 X57.146 Y138.943 E19.45697
G1 X56.549 Y137.944 E19.49568
G1 X52.943 Y131.699 E19.73553
G1 X52.43 Y130.773 E19.77074
G1 X52.056 Y130.027 E19.7985
G1 X51.861 Y129.597 E19.8142
G1 X51.514 Y128.732 E19.8452
G1 X51.348 Y128.216 E19.86323
G1 X51.165 Y127.589 E19.88495
G1 X50.942 Y126.678 E19.91615
G1 X50.81 Y125.833 E19.94459
G1 X50.746 Y125.276 E19.96324
G1 X50.681 Y124.347 E19.99421
G1 X50.681 Y123.81 E20.01207
G1 X50.697 Y123.208 E20.0321
G1 X50.763 Y122.276 E20.06318
G1 X50.864 Y121.598 E20.08598
G1 X50.97 Y121.016 E20.10565
G1 X51.299 Y119.7 E20.15077
G1 X51.531 Y119.011 E20.17495
G1 X51.685 Y118.601 E20.18952
G1 X52.039 Y117.77 E20.21956
G1 X52.3 Y117.259 E20.23865
G1 X52.593 Y116.72 E20.25905
G1 X53.077 Y115.92 E20.29015
G1 X53.517 Y115.31 E20.31517
G1 X53.902 Y114.814 E20.33605
G1 X54.508 Y114.103 E20.36712
G1 X55.006 Y113.603 E20.39059
G1 X55.43 Y113.204 E20.40996
G1 X55.849 Y112.831 E20.42862
G1 X58.033 Y110.99 E20.52362
G1 X59.898 Y109.32 E20.60688
G1 X61.78 Y107.541 E20.69302
G1 X63.514 Y105.801 E20.77472
G1 X65.273 Y103.938 E20.85994
G1 X66.959 Y102.045 E20.94426
G1 X68.585 Y100.113 E21.02824
G1 X70.156 Y98.137 E21.11221
G1 X71.679 Y96.104 E21.19669
G1 X73.129 Y94.05 E21.28032
G1 X74.531 Y91.939 E21.3646
G1 X75.879 Y89.782 E21.4492
G1 X76.825 Y88.179 E21.51111
G1 X77.488 Y87.035 E21.55509
G1 X77.941 Y86.283 E21.58429
G1 X78.352 Y85.652 E21.60933
G1 X78.577 Y85.334 E21.62229
G1 X79.363 Y84.352 E21.66413
G1 X79.743 Y83.933 E21.68294
G1 X80.398 Y83.271 E21.71391
G0 F6000 X80.662 Y83.572
G1 F1200 X81.09 Y83.197 E21.73284
G1 X81.537 Y82.827 E21.75214
G1 X82.258 Y82.282 E21.7822
G1 X82.799 Y81.934 E21.8036
G1 X83.268 Y81.653 E21.82178
G1 X84.062 Y81.224 E21.8518
G1 X84.625 Y80.972 E21.87231
G1 X85.164 Y80.75 E21.8917
G1 X86.014 Y80.443 E21.92176
G1 X86.629 Y80.272 E21.94299
G1 X87.194 Y80.134 E21.96233
G1 X88.08 Y79.959 E21.99237
G1 X88.745 Y79.88 E22.01465
G1 X89.353 Y79.828 E22.03494
G1 X89.961 Y79.794 E22.0552
G1 X92.77 Y79.722 E22.14865
G1 X95.29 Y79.59 E22.23258
G1 X97.831 Y79.384 E22.31738
G1 X100.367 Y79.108 E22.40222
G1 X102.856 Y78.764 E22.48579
G1 X105.391 Y78.34 E22.57128
G1 X107.885 Y77.851 E22.65581
