;FLAVOR:Marlin
;TIME:1297
;Filament used: 0.484913m
;Layer height: 0.2
;MINX:91.381
;MINY:94.707
;MINZ:0.2
;MAXX:128.62
;MAXY:125.295
;MAXZ:22.8
;TARGET_MACHINE.NAME:Creality Ender-3 Pro
;Generated with Cura_SteamEngine 5.6.0
M82 ;absolute extrusion mode
; Ender 3 Custom Start G-code
G92 E0 ; Reset Extruder
G28 ; Home all axes
G1 Z5.0 F3000 ; Move Z Axis up a bit during heating to not damage bed
M104 S175 ; Start heating up the nozzle most of the way
M190 S60 ; Start heating the bed, wait until target temperature reached
M109 S200 ; Finish heating the nozzle
G1 Z2.0 F3000 ; Move Z Axis up little to prevent scratching of Heat Bed
G1 X0.1 Y20 Z0.3 F5000.0 ; Move to start position
G1 X0.1 Y200.0 Z0.3 F1500.0 E15 ; Draw the first line
G1 X0.4 Y200.0 Z0.3 F5000.0 ; Move to side a little
G1 X0.4 Y20 Z0.3 F1500.0 E30 ; Draw the second line
G92 E0 ; Reset Extruder
G1 Z2.0 F3000 ; Move Z Axis up little to prevent scratching of Heat Bed
G1 X5 Y20 Z0.3 F5000.0 ; Move over to prevent blob squish
G92 E0
G92 E0
G1 F1500 E-6.5
;LAYER_COUNT:114
;LAYER:0
M107
G0 F6000 X94.846 Y100.352 Z0.2
;TYPE:SKIRT
G1 F1500 E0
G1 F1200 X95.584 Y99.716 E0.0324
G1 X96.374 Y99.149 E0.06475
G1 X97.18 Y98.669 E0.09595
G1 X98.077 Y98.237 E0.12906
G1 X98.549 Y98.049 E0.14596
G1 X100.863 Y97.187 E0.22809
G1 X102.993 Y96.326 E0.3045
G1 X103.136 Y96.276 E0.30954
G1 X104.244 Y95.816 E0.34944
G1 X105.257 Y95.457 E0.38519
G1 X105.964 Y95.245 E0.40974
G1 X106.839 Y95.023 E0.43976
G1 X107.642 Y94.885 E0.46686
G1 X108.308 Y94.797 E0.48921
G1 X109.257 Y94.715 E0.52089
G1 X109.999 Y94.707 E0.54557
G1 X110.839 Y94.728 E0.57352
G1 X111.815 Y94.797 E0.60606
G1 X112.87 Y94.972 E0.64163
G1 X113.649 Y95.141 E0.66814
G1 X114.557 Y95.382 E0.69939
G1 X115.486 Y95.717 E0.73223
G1 X118.747 Y97.041 E0.84929
G1 X121.481 Y98.061 E0.94635
G1 X122.378 Y98.443 E0.97877
G1 X123.235 Y98.904 E1.01114
G1 X124.049 Y99.439 E1.04354
G1 X124.812 Y100.043 E1.07591
G1 X125.52 Y100.713 E1.10833
G1 X126.164 Y101.442 E1.14068
G1 X126.743 Y102.227 E1.17312
G1 X127.249 Y103.058 E1.20548
G1 X127.681 Y103.931 E1.23788
G1 X128.01 Y104.772 E1.26791
G1 X128.302 Y105.775 E1.30266
G1 X128.484 Y106.704 E1.33415
G1 X128.607 Y108.089 E1.38039
G1 X128.62 Y108.763 E1.40281
G1 X128.619 Y111.066 E1.47941
G1 X128.607 Y111.829 E1.50479
G1 X128.549 Y112.802 E1.53721
G1 X128.403 Y113.765 E1.56961
G1 X128.172 Y114.711 E1.602
G1 X127.859 Y115.634 E1.63441
G1 X127.467 Y116.525 E1.66679
G1 X127.015 Y117.348 E1.69802
G1 X126.453 Y118.185 E1.73155
G1 X125.887 Y118.888 E1.76157
G1 X125.161 Y119.641 E1.79636
G1 X124.424 Y120.277 E1.82874
G1 X123.634 Y120.847 E1.86114
G1 X122.858 Y121.31 E1.89119
G1 X121.983 Y121.735 E1.92355
G1 X121.435 Y121.956 E1.9432
G1 X118.934 Y122.884 E2.03192
G1 X116.739 Y123.764 E2.11058
G1 X115.853 Y124.133 E2.1425
G1 X115.207 Y124.387 E2.16559
G1 X114.291 Y124.694 E2.19772
G1 X113.564 Y124.876 E2.22265
G1 X112.825 Y125.033 E2.24777
G1 X111.871 Y125.193 E2.27995
G1 X111.053 Y125.262 E2.30725
G1 X110.308 Y125.295 E2.33205
G1 X109.332 Y125.293 E2.36452
G1 X108.769 Y125.255 E2.38328
G1 X108.117 Y125.182 E2.4051
G1 X107.581 Y125.109 E2.4231
G1 X106.63 Y124.934 E2.45526
G1 X105.86 Y124.728 E2.48177
G1 X105.122 Y124.5 E2.50746
G1 X104.166 Y124.154 E2.54127
G1 X103.19 Y123.748 E2.57643
G1 X99.716 Y122.383 E2.70058
G1 X98.535 Y121.945 E2.74247
G1 X97.67 Y121.578 E2.77373
G1 X96.779 Y121.103 E2.80731
G1 X95.964 Y120.57 E2.8397
G1 X95.2 Y119.968 E2.87205
G1 X94.541 Y119.35 E2.9021
G1 X93.845 Y118.569 E2.93689
G1 X93.266 Y117.787 E2.96925
G1 X92.759 Y116.957 E3.0016
G1 X92.355 Y116.149 E3.03165
G1 X91.973 Y115.176 E3.06642
G1 X91.718 Y114.31 E3.09644
G1 X91.513 Y113.27 E3.1317
G1 X91.394 Y111.943 E3.17601
G1 X91.381 Y111.34 E3.19607
G1 X91.381 Y108.881 E3.27786
G1 X91.392 Y108.178 E3.30124
G1 X91.452 Y107.188 E3.33423
G1 X91.599 Y106.226 E3.3666
G1 X91.83 Y105.279 E3.39902
G1 X92.144 Y104.357 E3.43142
G1 X92.538 Y103.467 E3.46379
G1 X93.009 Y102.614 E3.4962
G1 X93.554 Y101.808 E3.52856
G1 X94.168 Y101.051 E3.56098
G1 X94.846 Y100.352 E3.59336
G0 F6000 X95.108 Y100.655
G1 F1200 X95.818 Y100.041 E3.62459
G1 X96.579 Y99.493 E3.65578
G1 X97.385 Y99.013 E3.68698
G1 X98.225 Y98.609 E3.71798
G1 X98.689 Y98.424 E3.73459
G1 X101.003 Y97.562 E3.81672
G1 X103.125 Y96.704 E3.89285
G1 X103.268 Y96.654 E3.89789
G1 X104.378 Y96.193 E3.93787
G1 X105.372 Y95.84 E3.97295
G1 X106.062 Y95.633 E3.99691
G1 X106.937 Y95.411 E4.02694
G1 X107.695 Y95.282 E4.05251
G1 X108.342 Y95.196 E4.07422
G1 X109.291 Y95.114 E4.1059
G1 X109.989 Y95.107 E4.12912
G1 X110.811 Y95.127 E4.15646
G1 X111.75 Y95.192 E4.18777
G1 X112.785 Y95.363 E4.22266
G1 X113.546 Y95.528 E4.24856
G1 X114.454 Y95.769 E4.27981
G1 X115.336 Y96.088 E4.311
G1 X118.607 Y97.416 E4.42842
G1 X121.325 Y98.429 E4.52489
G1 X122.189 Y98.796 E4.55612
G1 X123.016 Y99.239 E4.58732
G1 X123.801 Y99.753 E4.61853
G1 X124.538 Y100.334 E4.64974
G1 X125.221 Y100.978 E4.68096
G1 X125.843 Y101.68 E4.71216
G1 X126.402 Y102.435 E4.74341
G1 X126.891 Y103.236 E4.77462
G1 X127.308 Y104.077 E4.80584
G1 X127.637 Y104.918 E4.83588
G1 X127.909 Y105.852 E4.86823
G1 X128.091 Y106.781 E4.89972
G1 X128.207 Y108.097 E4.94366
G1 X128.22 Y108.763 E4.96581
G1 X128.219 Y111.06 E5.04221
G1 X128.208 Y111.806 E5.06703
G1 X128.153 Y112.743 E5.09825
G1 X128.014 Y113.671 E5.12945
G1 X127.793 Y114.583 E5.16067
G1 X127.493 Y115.473 E5.1919
G1 X127.116 Y116.332 E5.2231
G1 X126.664 Y117.155 E5.25433
G1 X126.141 Y117.934 E5.28554
G1 X125.575 Y118.637 E5.31556
G1 X124.899 Y119.339 E5.34797
G1 X124.19 Y119.953 E5.37917
G1 X123.429 Y120.503 E5.4104
G1 X122.653 Y120.966 E5.44045
G1 X121.809 Y121.375 E5.47165
G1 X121.296 Y121.581 E5.49003
G1 X118.795 Y122.509 E5.57876
G1 X116.59 Y123.393 E5.65777
G1 X115.707 Y123.761 E5.68959
G1 X115.079 Y124.008 E5.71203
G1 X114.194 Y124.306 E5.74309
G1 X113.481 Y124.485 E5.76754
G1 X112.759 Y124.639 E5.7921
G1 X111.837 Y124.794 E5.82319
G1 X111.035 Y124.862 E5.84996
G1 X110.308 Y124.895 E5.87417
G1 X109.359 Y124.894 E5.90573
G1 X108.813 Y124.857 E5.92394
G1 X108.171 Y124.786 E5.94542
G1 X107.653 Y124.716 E5.9628
G1 X106.733 Y124.548 E5.99391
G1 X105.978 Y124.346 E6.0199
G1 X105.258 Y124.124 E6.04496
G1 X104.32 Y123.785 E6.07814
G1 X103.344 Y123.379 E6.1133
G1 X99.855 Y122.008 E6.23798
G1 X98.69 Y121.576 E6.2793
G1 X97.858 Y121.225 E6.30934
G1 X96.997 Y120.768 E6.34176
G1 X96.211 Y120.256 E6.37296
G1 X95.474 Y119.676 E6.40415
G1 X94.815 Y119.058 E6.4342
G1 X94.166 Y118.331 E6.46661
G1 X93.607 Y117.578 E6.49781
G1 X93.117 Y116.778 E6.52901
G1 X92.713 Y115.97 E6.55905
G1 X92.357 Y115.063 E6.59146
G1 X92.102 Y114.197 E6.62149
G1 X91.911 Y113.234 E6.65414
G1 X91.794 Y111.934 E6.69755
G1 X91.781 Y111.331 E6.71761
G1 X91.781 Y108.887 E6.7989
G1 X91.791 Y108.202 E6.82169
G1 X91.848 Y107.248 E6.85347
G1 X91.988 Y106.32 E6.88469
G1 X92.209 Y105.407 E6.91593
G1 X92.51 Y104.518 E6.94715
G1 X92.888 Y103.66 E6.97833
G1 X93.341 Y102.837 E7.00958
G1 X93.865 Y102.059 E7.04078
G1 X94.455 Y101.329 E7.072
G1 X95.108 Y100.655 E7.10321
G0 F6000 X95.37 Y100.957
G1 F1200 X96.052 Y100.365 E7.13325
G1 X96.784 Y99.836 E7.16329
G1 X97.559 Y99.373 E7.19331
G1 X98.373 Y98.981 E7.22336
G1 X98.829 Y98.799 E7.23969
G1 X101.143 Y97.937 E7.32182
G1 X103.258 Y97.081 E7.39771
G1 X103.406 Y97.029 E7.40293
G1 X104.512 Y96.57 E7.44275
G1 X105.487 Y96.223 E7.47718
G1 X106.16 Y96.021 E7.50055
G1 X107.035 Y95.799 E7.53057
G1 X107.748 Y95.679 E7.55462
G1 X108.395 Y95.593 E7.57633
G1 X109.295 Y95.514 E7.60638
G1 X109.98 Y95.507 E7.62916
G1 X110.784 Y95.526 E7.65591
G1 X111.685 Y95.587 E7.68595
G1 X112.7 Y95.754 E7.72016
G1 X113.444 Y95.915 E7.74548
G1 X114.318 Y96.145 E7.77554
G1 X115.186 Y96.459 E7.80624
G1 X118.467 Y97.791 E7.92401
G1 X121.169 Y98.797 E8.01991
G1 X122.001 Y99.149 E8.04996
G1 X122.798 Y99.574 E8.08
G1 X123.554 Y100.067 E8.11002
G1 X124.264 Y100.625 E8.14005
G1 X124.922 Y101.244 E8.1701
G1 X125.522 Y101.919 E8.20014
G1 X126.061 Y102.644 E8.23018
G1 X126.533 Y103.414 E8.26022
G1 X126.935 Y104.223 E8.29027
G1 X127.264 Y105.064 E8.32031
G1 X127.517 Y105.93 E8.35031
G1 X127.693 Y106.816 E8.38036
G1 X127.807 Y108.105 E8.4234
G1 X127.82 Y108.763 E8.44529
G1 X127.819 Y111.055 E8.52152
G1 X127.809 Y111.783 E8.54573
G1 X127.757 Y112.685 E8.57578
G1 X127.625 Y113.578 E8.60581
G1 X127.414 Y114.456 E8.63584
G1 X127.127 Y115.313 E8.6659
G1 X126.765 Y116.14 E8.69593
G1 X126.332 Y116.932 E8.72595
G1 X125.829 Y117.683 E8.75601
G1 X125.263 Y118.386 E8.78603
G1 X124.637 Y119.037 E8.81607
G1 X123.955 Y119.629 E8.84611
G1 X123.224 Y120.159 E8.87614
G1 X122.448 Y120.622 E8.90619
G1 X121.635 Y121.015 E8.93623
G1 X121.157 Y121.206 E8.95335
G1 X118.656 Y122.134 E9.04207
G1 X116.441 Y123.022 E9.12144
G1 X115.561 Y123.389 E9.15316
G1 X114.951 Y123.629 E9.17496
G1 X114.096 Y123.918 E9.20498
G1 X113.397 Y124.094 E9.22895
G1 X112.693 Y124.245 E9.2529
G1 X111.803 Y124.395 E9.28292
G1 X111.017 Y124.462 E9.30916
G1 X110.29 Y124.495 E9.33336
G1 X109.386 Y124.495 E9.36343
G1 X108.856 Y124.459 E9.3811
G1 X108.225 Y124.39 E9.40221
G1 X107.724 Y124.322 E9.41903
G1 X106.836 Y124.161 E9.44904
G1 X106.096 Y123.964 E9.47451
G1 X105.394 Y123.748 E9.49894
G1 X104.474 Y123.416 E9.53147
G1 X103.498 Y123.01 E9.56663
G1 X99.994 Y121.633 E9.69185
G1 X98.845 Y121.207 E9.73261
G1 X98.013 Y120.856 E9.76264
G1 X97.215 Y120.433 E9.79268
G1 X96.458 Y119.941 E9.82271
G1 X95.748 Y119.384 E9.85272
G1 X95.089 Y118.766 E9.88277
G1 X94.487 Y118.092 E9.91283
G1 X93.948 Y117.368 E9.94285
G1 X93.475 Y116.599 E9.97288
G1 X93.071 Y115.791 E10.00292
G1 X92.741 Y114.95 E10.03297
G1 X92.486 Y114.084 E10.063
G1 X92.309 Y113.198 E10.09305
G1 X92.194 Y111.925 E10.13556
G1 X92.181 Y111.322 E10.15562
G1 X92.181 Y108.893 E10.23641
G1 X92.191 Y108.208 E10.2592
G1 X92.244 Y107.307 E10.28922
G1 X92.377 Y106.413 E10.31928
G1 X92.588 Y105.535 E10.34931
G1 X92.876 Y104.679 E10.37935
G1 X93.239 Y103.852 E10.40939
G1 X93.673 Y103.06 E10.43943
G1 X94.176 Y102.31 E10.46946
G1 X94.743 Y101.607 E10.4995
G1 X95.37 Y100.957 E10.52954
G1 F1500 E4.02954
;MESH:Post_Key_mic.STL
G0 F6000 X102.794 Y107.684
G0 X109.847 Y113.712
;TYPE:WALL-INNER
G1 F1500 E10.52954
G1 F1200 X110.474 Y113.684 E10.55042
G1 X111.083 Y113.554 E10.57113
G1 X111.665 Y113.321 E10.59198
G1 X112.21 Y112.987 E10.61324
G1 X112.683 Y112.57 E10.63421
G1 X113.08 Y112.08 E10.65519
G1 X113.511 Y111.311 E10.68451
G1 X113.637 Y111.177 E10.69062
G1 X113.929 Y111.051 E10.7012
G1 X117.02 Y111.051 E10.80401
G1 X117.02 Y108.949 E10.87392
G1 X114.013 Y108.945 E10.97394
G1 X113.647 Y108.802 E10.987
G1 X113.484 Y108.635 E10.99477
G1 X113.078 Y107.917 E11.0222
G1 X112.685 Y107.432 E11.04296
G1 X112.21 Y107.014 E11.06401
G1 X111.675 Y106.682 E11.08495
G1 X111.087 Y106.447 E11.10601
G1 X110.475 Y106.316 E11.12683
G1 X109.846 Y106.289 E11.14777
G1 X109.215 Y106.368 E11.16892
G1 X108.612 Y106.554 E11.18991
G1 X108.06 Y106.833 E11.21048
G1 X107.543 Y107.213 E11.23182
G1 X107.112 Y107.662 E11.25252
G1 X106.753 Y108.191 E11.27378
G1 X106.521 Y108.667 E11.29139
G1 X106.395 Y108.811 E11.29776
G1 X106.087 Y108.949 E11.30898
G1 X102.981 Y108.95 E11.41229
G1 X102.981 Y111.051 E11.48217
G1 X105.959 Y111.057 E11.58122
G1 X106.361 Y111.198 E11.59539
G1 X106.536 Y111.393 E11.6041
G1 X106.75 Y111.802 E11.61946
G1 X107.11 Y112.334 E11.64082
G1 X107.546 Y112.789 E11.66178
G1 X108.052 Y113.165 E11.68275
G1 X108.613 Y113.447 E11.70363
G1 X109.212 Y113.631 E11.72447
G1 X109.847 Y113.712 E11.74576
G0 F6000 X109.831 Y114.113
;TYPE:WALL-OUTER
G1 F1200 X110.525 Y114.082 E11.76887
G1 X111.2 Y113.938 E11.79183
G1 X111.845 Y113.679 E11.81494
G1 X112.448 Y113.31 E11.83846
G1 X112.973 Y112.848 E11.86172
G1 X113.412 Y112.305 E11.88494
G1 X113.86 Y111.504 E11.91547
G1 X113.971 Y111.453 E11.91953
G1 X117.42 Y111.451 E12.03424
G1 X117.42 Y108.549 E12.13076
G1 X114.103 Y108.546 E12.24109
G1 X113.827 Y108.436 E12.25097
G1 X113.41 Y107.692 E12.27934
G1 X112.975 Y107.154 E12.30235
G1 X112.449 Y106.692 E12.32563
G1 X111.856 Y106.324 E12.34885
G1 X111.204 Y106.063 E12.3722
G1 X110.526 Y105.918 E12.39526
G1 X109.83 Y105.888 E12.41844
G1 X109.131 Y105.976 E12.44187
G1 X108.462 Y106.182 E12.46515
G1 X107.85 Y106.491 E12.48795
G1 X107.278 Y106.911 E12.51155
G1 X106.8 Y107.41 E12.53454
G1 X106.405 Y107.991 E12.5579
G1 X106.163 Y108.492 E12.57641
G1 X106.045 Y108.547 E12.58074
G1 X102.581 Y108.55 E12.69595
G1 X102.581 Y111.451 E12.79244
G1 X105.909 Y111.455 E12.90313
G1 X106.179 Y111.571 E12.9129
G1 X106.405 Y112.006 E12.92921
G1 X106.798 Y112.586 E12.95251
G1 X107.28 Y113.09 E12.97571
G1 X107.842 Y113.507 E12.99898
G1 X108.463 Y113.819 E13.0221
G1 X109.128 Y114.023 E13.04523
G1 X109.831 Y114.113 E13.0688
G0 F6000 X109.864 Y113.349
;TYPE:SKIN
G1 F1200 X109.29 Y113.276 E13.08805
G1 X108.745 Y113.108 E13.10702
G1 X108.237 Y112.853 E13.12592
G1 X107.788 Y112.521 E13.1445
G1 X107.398 Y112.112 E13.16329
G1 X107.054 Y111.606 E13.18364
G1 X106.843 Y111.202 E13.1988
G1 X106.568 Y110.9 E13.21239
G1 X106.051 Y110.699 E13.23084
G1 X103.341 Y110.69 E13.32097
G1 X103.341 Y109.31 E13.36687
G1 X106.141 Y109.309 E13.46
G1 X106.416 Y109.221 E13.4696
G1 X106.64 Y109.074 E13.47852
G1 X106.827 Y108.857 E13.48804
G1 X107.068 Y108.368 E13.50617
G1 X107.392 Y107.891 E13.52535
G1 X107.778 Y107.488 E13.54391
G1 X108.257 Y107.138 E13.56365
G1 X108.74 Y106.893 E13.58166
G1 X109.293 Y106.723 E13.6009
G1 X109.863 Y106.652 E13.62001
G1 X110.433 Y106.676 E13.63898
G1 X110.981 Y106.793 E13.65762
G1 X111.51 Y107.003 E13.67655
G1 X111.991 Y107.303 E13.6954
G1 X112.425 Y107.684 E13.71461
G1 X112.776 Y108.117 E13.73315
G1 X113.164 Y108.801 E13.75931
G1 X113.452 Y109.115 E13.77348
G1 X113.946 Y109.305 E13.79108
G1 X116.66 Y109.309 E13.88135
G1 X116.66 Y110.691 E13.92731
G1 X113.875 Y110.69 E14.01994
G1 X113.417 Y110.891 E14.03658
G1 X113.224 Y111.093 E14.04587
G1 X112.777 Y111.88 E14.07597
G1 X112.423 Y112.318 E14.09471
G1 X111.995 Y112.694 E14.11365
G1 X111.499 Y112.998 E14.133
G1 X110.976 Y113.208 E14.15175
G1 X110.432 Y113.325 E14.17026
G1 X109.864 Y113.349 E14.18916
G0 F6000 X109.832 Y113.608
G0 X108.674 Y113.297
G0 X106.893 Y112.335
G0 X106.347 Y111.378
G0 X106.046 Y111.246
G0 X103.698 Y110.952
G0 X103.7 Y110.488
G1 F1200 X103.54 Y110.329 E14.19667
G0 F6000 X103.54 Y109.763
G1 F1200 X104.269 Y110.491 E14.23093
G0 F6000 X104.837 Y110.493
G1 F1200 X103.852 Y109.508 E14.27726
G0 F6000 X104.417 Y109.508
G1 F1200 X105.404 Y110.496 E14.32371
G0 F6000 X105.973 Y110.498
G1 F1200 X104.983 Y109.508 E14.37028
G0 F6000 X105.549 Y109.508
G1 F1200 X109.024 Y112.984 E14.53376
G0 F6000 X109.735 Y113.13
G1 F1200 X106.114 Y109.508 E14.7041
G0 F6000 X106.544 Y109.373
G1 F1200 X110.3 Y113.129 E14.88077
G0 F6000 X110.781 Y113.044
G1 F1200 X106.86 Y109.123 E15.0652
G0 F6000 X107.085 Y108.782
G1 F1200 X111.203 Y112.9 E15.2589
G0 F6000 X111.58 Y112.712
G1 F1200 X107.279 Y108.41 E15.46123
G0 F6000 X107.508 Y108.074
G1 F1200 X111.923 Y112.489 E15.6689
G0 F6000 X112.224 Y112.224
G1 F1200 X107.777 Y107.777 E15.87807
G0 F6000 X108.08 Y107.514
G1 F1200 X112.486 Y111.92 E16.08532
G0 F6000 X112.715 Y111.584
G1 F1200 X108.414 Y107.282 E16.28765
G0 F6000 X108.789 Y107.092
G1 F1200 X112.921 Y111.224 E16.482
G0 F6000 X113.148 Y110.885
G1 F1200 X109.217 Y106.954 E16.66691
G0 F6000 X109.702 Y106.874
G1 F1200 X113.472 Y110.643 E16.84421
G0 F6000 X113.884 Y110.49
G1 F1200 X110.263 Y106.869 E17.01453
G0 F6000 X110.959 Y107
G1 F1200 X114.45 Y110.49 E17.17871
G0 F6000 X115.015 Y110.49
G1 F1200 X114.03 Y109.504 E17.22507
G0 F6000 X114.596 Y109.505
G1 F1200 X115.581 Y110.49 E17.2714
G0 F6000 X116.147 Y110.49
